;FLAVOR:Marlin
;TIME:3245
;Filament used: 2.06419m
;Layer height: 0.2
;MINX:85.7
;MINY:85.7
;MINZ:0.2
;MAXX:134.24
;MAXY:134.24
;MAXZ:31.8
;Generated with Cura_SteamEngine 4.9.0
M140 S60
M105
M190 S60
M104 S200
M105
M109 S200
M82 ;absolute extrusion mode
; Ender 3 Custom Start G-code
G92 E0 ; Reset Extruder
G28 ; Home all axes
G1 Z2.0 F3000 ; Move Z Axis up little to prevent scratching of Heat Bed
G1 X0.1 Y20 Z0.3 F5000.0 ; Move to start position
G1 X0.1 Y200.0 Z0.3 F1500.0 E15 ; Draw the first line
G1 X0.4 Y200.0 Z0.3 F5000.0 ; Move to side a little
G1 X0.4 Y20 Z0.3 F1500.0 E30 ; Draw the second line
G92 E0 ; Reset Extruder
G1 Z2.0 F3000 ; Move Z Axis up little to prevent scratching of Heat Bed
G1 X5 Y20 Z0.3 F5000.0 ; Move over to prevent blob squish
G92 E0
G92 E0
G1 F1500 E-6.5
;LAYER_COUNT:159
;LAYER:0
M107
G0 F6000 X88.123 Y87.849 Z0.2
;TYPE:SKIRT
G1 F1500 E0
G1 F1200 X88.722 Y87.334 E0.02627
G1 X89.37 Y86.883 E0.05253
G1 X90.061 Y86.499 E0.07883
G1 X90.786 Y86.187 E0.10508
G1 X91.539 Y85.95 E0.13133
G1 X92.313 Y85.791 E0.15761
G1 X93.098 Y85.71 E0.18386
G1 X93.5 Y85.7 E0.19724
G1 X126.289 Y85.7 E1.2878
G1 X127.078 Y85.74 E1.31408
G1 X127.858 Y85.859 E1.34032
G1 X128.623 Y86.057 E1.36661
G1 X129.363 Y86.331 E1.39285
G1 X130.072 Y86.679 E1.41912
G1 X130.743 Y87.097 E1.44541
G1 X131.367 Y87.58 E1.47166
G1 X131.94 Y88.123 E1.49791
G1 X132.455 Y88.722 E1.52419
G1 X132.906 Y89.37 E1.55045
G1 X133.29 Y90.061 E1.57674
G1 X133.602 Y90.786 E1.60299
G1 X133.839 Y91.539 E1.62925
G1 X133.998 Y92.313 E1.65553
G1 X134.058 Y92.81 E1.67218
G1 X134.143 Y93.787 E1.7048
G1 X134.188 Y94.526 E1.72942
G1 X134.216 Y95.155 E1.75036
G1 X134.234 Y95.816 E1.77236
G1 X134.24 Y96.551 E1.7968
G1 X134.237 Y96.944 E1.80988
G1 X134.224 Y97.588 E1.8313
G1 X134.198 Y98.272 E1.85407
G1 X134.151 Y99.087 E1.88122
G1 X134.138 Y99.272 E1.88739
G1 X134.078 Y99.999 E1.91165
G1 X134.054 Y100.248 E1.91997
G1 X133.939 Y101.03 E1.94626
G1 X133.745 Y101.795 E1.97251
G1 X133.474 Y102.537 E1.99878
G1 X133.131 Y103.248 E2.02504
G1 X132.717 Y103.92 E2.05129
G1 X132.237 Y104.548 E2.07758
G1 X131.696 Y105.123 E2.10384
G1 X131.1 Y105.641 E2.1301
G1 X130.454 Y106.096 E2.15638
G1 X129.766 Y106.483 E2.18264
G1 X129.042 Y106.798 E2.2089
G1 X128.29 Y107.039 E2.23516
G1 X127.517 Y107.203 E2.26144
G1 X126.732 Y107.287 E2.2877
G1 X126.29 Y107.3 E2.30241
G1 X107.3 Y107.3 E2.93402
G1 X107.3 Y126.289 E3.5656
G1 X107.26 Y127.078 E3.59187
G1 X107.141 Y127.858 E3.61811
G1 X106.943 Y128.623 E3.6444
G1 X106.669 Y129.363 E3.67064
G1 X106.321 Y130.072 E3.69691
G1 X105.903 Y130.743 E3.72321
G1 X105.42 Y131.367 E3.74945
G1 X104.877 Y131.94 E3.77571
G1 X104.278 Y132.455 E3.80198
G1 X103.63 Y132.906 E3.82824
G1 X102.939 Y133.29 E3.85453
G1 X102.214 Y133.602 E3.88078
G1 X101.461 Y133.839 E3.90704
G1 X100.687 Y133.998 E3.93332
G1 X100.19 Y134.058 E3.94997
G1 X99.213 Y134.143 E3.98259
G1 X98.472 Y134.188 E4.00728
G1 X97.818 Y134.216 E4.02905
G1 X97.084 Y134.235 E4.05347
G1 X96.43 Y134.24 E4.07523
G1 X95.79 Y134.232 E4.09651
G1 X95.011 Y134.21 E4.12243
G1 X94.396 Y134.181 E4.14291
G1 X93.888 Y134.15 E4.15984
G1 X92.997 Y134.078 E4.18957
G1 X92.749 Y134.054 E4.19786
G1 X91.968 Y133.938 E4.22412
G1 X91.202 Y133.744 E4.2504
G1 X90.46 Y133.473 E4.27667
G1 X89.749 Y133.129 E4.30295
G1 X89.077 Y132.715 E4.3292
G1 X88.45 Y132.235 E4.35546
G1 X87.875 Y131.694 E4.38172
G1 X87.357 Y131.097 E4.40801
G1 X86.903 Y130.451 E4.43427
G1 X86.516 Y129.763 E4.46052
G1 X86.201 Y129.039 E4.48679
G1 X85.96 Y128.287 E4.51305
G1 X85.797 Y127.514 E4.53933
G1 X85.712 Y126.729 E4.56559
G1 X85.7 Y126.29 E4.58019
G1 X85.7 Y93.5 E5.67079
G1 X85.74 Y92.711 E5.69707
G1 X85.859 Y91.931 E5.72331
G1 X86.057 Y91.166 E5.7496
G1 X86.331 Y90.426 E5.77584
G1 X86.679 Y89.717 E5.80211
G1 X87.097 Y89.046 E5.8284
G1 X87.58 Y88.422 E5.85465
G1 X88.123 Y87.849 E5.8809
G0 F6000 X88.516 Y88.03
G1 F1200 X89.111 Y87.542 E5.9065
G1 X89.753 Y87.119 E5.93207
G1 X90.436 Y86.764 E5.95767
G1 X91.151 Y86.483 E5.98322
G1 X91.893 Y86.277 E6.00884
G1 X92.651 Y86.149 E6.0344
G1 X93.5 Y86.1 E6.06269
G1 X126.289 Y86.1 E7.15326
G1 X127.057 Y86.14 E7.17883
G1 X127.817 Y86.259 E7.20442
G1 X128.56 Y86.457 E7.22999
G1 X129.279 Y86.731 E7.25559
G1 X129.965 Y87.078 E7.28116
G1 X130.612 Y87.494 E7.30674
G1 X131.212 Y87.975 E7.33232
G1 X131.759 Y88.516 E7.3579
G1 X132.247 Y89.111 E7.3835
G1 X132.67 Y89.753 E7.40907
G1 X133.025 Y90.436 E7.43467
G1 X133.306 Y91.151 E7.46022
G1 X133.512 Y91.893 E7.48584
G1 X133.66 Y92.845 E7.51788
G1 X133.729 Y93.622 E7.54383
G1 X133.743 Y93.812 E7.55016
G1 X133.788 Y94.544 E7.57455
G1 X133.816 Y95.167 E7.5953
G1 X133.834 Y95.82 E7.61702
G1 X133.84 Y96.548 E7.64124
G1 X133.837 Y96.937 E7.65418
G1 X133.824 Y97.574 E7.67537
G1 X133.799 Y98.249 E7.69783
G1 X133.752 Y99.064 E7.72499
G1 X133.74 Y99.24 E7.73085
G1 X133.68 Y99.961 E7.75492
G1 X133.656 Y100.21 E7.76324
G1 X133.542 Y100.971 E7.78883
G1 X133.351 Y101.716 E7.81441
G1 X133.082 Y102.436 E7.83997
G1 X132.741 Y103.126 E7.86557
G1 X132.33 Y103.776 E7.89115
G1 X131.853 Y104.379 E7.91672
G1 X131.317 Y104.931 E7.94231
G1 X130.726 Y105.423 E7.96789
G1 X130.087 Y105.852 E7.99349
G1 X129.407 Y106.211 E8.01907
G1 X128.694 Y106.499 E8.04464
G1 X127.954 Y106.71 E8.07023
G1 X127.197 Y106.844 E8.0958
G1 X126.29 Y106.9 E8.12603
G1 X106.9 Y106.9 E8.77094
G1 X106.9 Y126.289 E9.41582
G1 X106.86 Y127.057 E9.4414
G1 X106.741 Y127.817 E9.46699
G1 X106.543 Y128.56 E9.49256
G1 X106.269 Y129.279 E9.51815
G1 X105.922 Y129.965 E9.54372
G1 X105.506 Y130.612 E9.56931
G1 X105.025 Y131.212 E9.59488
G1 X104.484 Y131.759 E9.62047
G1 X103.889 Y132.247 E9.64607
G1 X103.247 Y132.67 E9.67164
G1 X102.564 Y133.025 E9.69724
G1 X101.849 Y133.306 E9.72279
G1 X101.107 Y133.512 E9.7484
G1 X100.155 Y133.66 E9.78045
G1 X99.378 Y133.729 E9.80639
G1 X99.188 Y133.743 E9.81273
G1 X98.454 Y133.788 E9.83719
G1 X97.807 Y133.816 E9.85873
G1 X97.08 Y133.835 E9.88292
G1 X96.434 Y133.84 E9.9044
G1 X95.921 Y133.835 E9.92147
G1 X95.03 Y133.811 E9.95111
G1 X94.42 Y133.781 E9.97142
G1 X93.763 Y133.74 E9.99332
G1 X93.035 Y133.68 E10.01761
G1 X92.787 Y133.656 E10.0259
G1 X92.027 Y133.542 E10.05146
G1 X91.282 Y133.35 E10.07705
G1 X90.561 Y133.081 E10.10265
G1 X89.872 Y132.74 E10.12822
G1 X89.222 Y132.328 E10.15381
G1 X88.618 Y131.851 E10.17941
G1 X88.067 Y131.315 E10.20498
G1 X87.575 Y130.724 E10.23055
G1 X87.147 Y130.085 E10.25613
G1 X86.787 Y129.405 E10.28172
G1 X86.5 Y128.691 E10.30732
G1 X86.289 Y127.952 E10.33288
G1 X86.155 Y127.194 E10.35848
G1 X86.1 Y126.29 E10.38861
G1 X86.1 Y93.5 E11.4792
G1 X86.14 Y92.732 E11.50478
G1 X86.259 Y91.972 E11.53037
G1 X86.457 Y91.229 E11.55594
G1 X86.731 Y90.51 E11.58154
G1 X87.078 Y89.824 E11.6071
G1 X87.494 Y89.177 E11.63269
G1 X87.975 Y88.577 E11.65827
G1 X88.516 Y88.03 E11.68385
G0 F6000 X88.908 Y88.216
G1 F1200 X89.498 Y87.757 E11.70872
G1 X90.134 Y87.362 E11.73362
G1 X90.808 Y87.038 E11.75849
G1 X91.513 Y86.788 E11.78337
G1 X92.241 Y86.614 E11.80826
G1 X92.983 Y86.519 E11.83315
G1 X93.5 Y86.5 E11.85035
G1 X126.289 Y86.5 E12.94092
G1 X127.036 Y86.54 E12.9658
G1 X127.774 Y86.659 E12.99066
G1 X128.496 Y86.857 E13.01556
G1 X129.192 Y87.13 E13.04043
G1 X129.855 Y87.477 E13.06532
G1 X130.478 Y87.892 E13.09022
G1 X131.052 Y88.371 E13.11508
G1 X131.573 Y88.908 E13.13997
G1 X132.032 Y89.498 E13.16483
G1 X132.427 Y90.134 E13.18973
G1 X132.751 Y90.808 E13.2146
G1 X133.001 Y91.513 E13.23948
G1 X133.175 Y92.241 E13.26438
G1 X133.262 Y92.881 E13.28586
G1 X133.331 Y93.658 E13.31181
G1 X133.382 Y94.441 E13.3379
G1 X133.412 Y95.068 E13.35878
G1 X133.431 Y95.686 E13.37935
G1 X133.44 Y96.431 E13.40413
G1 X133.437 Y96.93 E13.42072
G1 X133.425 Y97.56 E13.44168
G1 X133.407 Y98.07 E13.45865
G1 X133.352 Y99.041 E13.491
G1 X133.341 Y99.207 E13.49653
G1 X133.282 Y99.923 E13.52043
G1 X133.258 Y100.172 E13.52875
G1 X133.146 Y100.911 E13.55361
G1 X132.956 Y101.635 E13.57851
G1 X132.691 Y102.334 E13.60337
G1 X132.352 Y103.001 E13.62825
G1 X131.943 Y103.628 E13.65315
G1 X131.471 Y104.208 E13.67802
G1 X130.939 Y104.734 E13.70291
G1 X130.354 Y105.2 E13.72778
G1 X129.722 Y105.601 E13.75268
G1 X129.052 Y105.932 E13.77753
G1 X128.349 Y106.19 E13.80244
G1 X127.624 Y106.372 E13.8273
G1 X126.883 Y106.475 E13.85218
G1 X126.29 Y106.5 E13.87193
G1 X106.5 Y106.5 E14.53014
G1 X106.5 Y126.289 E15.18833
G1 X106.46 Y127.036 E15.21321
G1 X106.341 Y127.774 E15.23807
G1 X106.143 Y128.496 E15.26297
G1 X105.87 Y129.192 E15.28784
G1 X105.523 Y129.855 E15.31273
G1 X105.108 Y130.478 E15.33763
G1 X104.629 Y131.052 E15.36249
G1 X104.092 Y131.573 E15.38738
G1 X103.502 Y132.032 E15.41224
G1 X102.866 Y132.427 E15.43714
G1 X102.192 Y132.751 E15.46201
G1 X101.487 Y133.001 E15.48689
G1 X100.759 Y133.175 E15.51179
G1 X100.119 Y133.262 E15.53327
G1 X99.342 Y133.331 E15.55921
G1 X98.559 Y133.382 E15.58531
G1 X97.929 Y133.412 E15.60629
G1 X97.191 Y133.433 E15.63085
G1 X96.576 Y133.44 E15.6513
G1 X95.925 Y133.435 E15.67296
G1 X95.197 Y133.417 E15.69718
G1 X94.445 Y133.382 E15.72221
G1 X93.796 Y133.341 E15.74384
G1 X93.074 Y133.281 E15.76794
G1 X92.826 Y133.257 E15.77623
G1 X92.086 Y133.146 E15.80112
G1 X91.363 Y132.956 E15.82598
G1 X90.663 Y132.69 E15.85089
G1 X89.997 Y132.35 E15.87576
G1 X89.37 Y131.942 E15.90064
G1 X88.79 Y131.469 E15.92553
G1 X88.265 Y130.937 E15.95039
G1 X87.799 Y130.351 E15.97529
G1 X87.398 Y129.72 E16.00016
G1 X87.067 Y129.049 E16.02504
G1 X86.809 Y128.347 E16.04992
G1 X86.628 Y127.621 E16.0748
G1 X86.525 Y126.88 E16.09969
G1 X86.5 Y126.29 E16.11933
G1 X86.5 Y93.5 E17.20993
G1 X86.54 Y92.753 E17.23481
G1 X86.659 Y92.015 E17.25967
G1 X86.857 Y91.293 E17.28457
G1 X87.13 Y90.597 E17.30944
G1 X87.477 Y89.934 E17.33433
G1 X87.892 Y89.311 E17.35922
G1 X88.371 Y88.737 E17.38409
G1 X88.908 Y88.216 E17.40898
G0 F6000 X88.765 Y88.902
G1 F1200 X89.299 Y88.409 E17.43315
G1 X89.884 Y87.979 E17.4573
G1 X90.513 Y87.615 E17.48147
G1 X91.178 Y87.322 E17.50564
G1 X91.871 Y87.104 E17.5298
G1 X92.583 Y86.964 E17.55393
G1 X93.5 Y86.9 E17.58451
G1 X126.289 Y86.9 E18.67507
G1 X127.014 Y86.94 E18.69923
G1 X127.731 Y87.059 E18.7234
G1 X128.43 Y87.257 E18.74756
G1 X129.103 Y87.53 E18.77172
G1 X129.742 Y87.875 E18.79587
G1 X130.339 Y88.289 E18.82003
G1 X130.887 Y88.765 E18.84418
G1 X131.38 Y89.299 E18.86835
G1 X131.81 Y89.884 E18.8925
G1 X132.174 Y90.513 E18.91667
G1 X132.467 Y91.178 E18.94084
G1 X132.685 Y91.871 E18.965
G1 X132.863 Y92.916 E19.00026
G1 X132.932 Y93.693 E19.0262
G1 X132.945 Y93.863 E19.03187
G1 X132.989 Y94.581 E19.0558
G1 X133.016 Y95.191 E19.07611
G1 X133.034 Y95.828 E19.0973
G1 X133.04 Y96.543 E19.12109
G1 X133.037 Y96.923 E19.13372
G1 X133.025 Y97.546 E19.15445
G1 X133 Y98.203 E19.17632
G1 X132.953 Y99.018 E19.20347
G1 X132.942 Y99.175 E19.2087
G1 X132.884 Y99.884 E19.23236
G1 X132.86 Y100.133 E19.24068
G1 X132.75 Y100.851 E19.26484
G1 X132.563 Y101.553 E19.28901
G1 X132.299 Y102.23 E19.31318
G1 X131.963 Y102.874 E19.33733
G1 X131.558 Y103.477 E19.36149
G1 X131.089 Y104.031 E19.38564
G1 X130.562 Y104.531 E19.4098
G1 X129.983 Y104.97 E19.43397
G1 X129.359 Y105.343 E19.45815
G1 X128.699 Y105.645 E19.48229
G1 X128.009 Y105.872 E19.50645
G1 X127.298 Y106.023 E19.53062
G1 X126.29 Y106.1 E19.56424
G1 X106.1 Y106.1 E20.23577
G1 X106.1 Y126.289 E20.90726
G1 X106.06 Y127.014 E20.93141
G1 X105.941 Y127.731 E20.95558
G1 X105.743 Y128.43 E20.97974
G1 X105.47 Y129.103 E21.0039
G1 X105.125 Y129.742 E21.02805
G1 X104.711 Y130.339 E21.05222
G1 X104.235 Y130.887 E21.07636
G1 X103.701 Y131.38 E21.10053
G1 X103.116 Y131.81 E21.12468
G1 X102.487 Y132.174 E21.14885
G1 X101.822 Y132.467 E21.17302
G1 X101.129 Y132.685 E21.19718
G1 X100.084 Y132.863 E21.23244
G1 X99.307 Y132.932 E21.25838
G1 X99.137 Y132.945 E21.26406
G1 X98.418 Y132.989 E21.28801
G1 X97.786 Y133.017 E21.30905
G1 X97.072 Y133.035 E21.33281
G1 X96.442 Y133.04 E21.35376
G1 X95.821 Y133.033 E21.37442
G1 X95.068 Y133.012 E21.39948
G1 X94.469 Y132.983 E21.41942
G1 X93.961 Y132.952 E21.43635
G1 X93.112 Y132.883 E21.46468
G1 X92.864 Y132.859 E21.47297
G1 X92.146 Y132.75 E21.49712
G1 X91.445 Y132.562 E21.52126
G1 X90.768 Y132.298 E21.54543
G1 X90.124 Y131.961 E21.5696
G1 X89.521 Y131.556 E21.59376
G1 X88.967 Y131.087 E21.61791
G1 X88.467 Y130.56 E21.64207
G1 X88.028 Y129.981 E21.66624
G1 X87.656 Y129.357 E21.6904
G1 X87.354 Y128.696 E21.71457
G1 X87.127 Y128.007 E21.7387
G1 X86.977 Y127.296 E21.76286
G1 X86.9 Y126.29 E21.79642
G1 X86.9 Y93.5 E22.88702
G1 X86.94 Y92.775 E22.91117
G1 X87.059 Y92.058 E22.93535
G1 X87.257 Y91.359 E22.95951
G1 X87.53 Y90.686 E22.98367
G1 X87.875 Y90.047 E23.00782
G1 X88.289 Y89.45 E23.03198
G1 X88.765 Y88.902 E23.05612
G0 F6000 X89.159 Y89.073
G1 F1200 X89.689 Y88.609 E23.07955
G1 X90.268 Y88.209 E23.10296
G1 X90.889 Y87.877 E23.12638
G1 X91.543 Y87.617 E23.14979
G1 X92.223 Y87.433 E23.17322
G1 X92.919 Y87.327 E23.19663
G1 X93.5 Y87.3 E23.21598
G1 X126.289 Y87.3 E24.30655
G1 X126.992 Y87.34 E24.32997
G1 X127.686 Y87.459 E24.35339
G1 X128.361 Y87.657 E24.37678
G1 X129.01 Y87.929 E24.40019
G1 X129.624 Y88.274 E24.42361
G1 X130.195 Y88.685 E24.44701
G1 X130.716 Y89.159 E24.47044
G1 X131.18 Y89.689 E24.49387
G1 X131.58 Y90.268 E24.51727
G1 X131.912 Y90.889 E24.54069
G1 X132.172 Y91.543 E24.5641
G1 X132.356 Y92.223 E24.58753
G1 X132.465 Y92.952 E24.61205
G1 X132.534 Y93.729 E24.63799
G1 X132.546 Y93.888 E24.6433
G1 X132.59 Y94.599 E24.66699
G1 X132.616 Y95.203 E24.6871
G1 X132.634 Y95.832 E24.70803
G1 X132.64 Y96.541 E24.73161
G1 X132.637 Y96.916 E24.74408
G1 X132.625 Y97.532 E24.76457
G1 X132.601 Y98.18 E24.78614
G1 X132.554 Y98.995 E24.81329
G1 X132.485 Y99.846 E24.84169
G1 X132.461 Y100.095 E24.85001
G1 X132.354 Y100.791 E24.87343
G1 X132.169 Y101.47 E24.89684
G1 X131.908 Y102.123 E24.92023
G1 X131.574 Y102.743 E24.94365
G1 X131.172 Y103.322 E24.9671
G1 X130.708 Y103.85 E24.99047
G1 X130.186 Y104.323 E25.0139
G1 X129.614 Y104.734 E25.03733
G1 X128.999 Y105.077 E25.06075
G1 X128.35 Y105.348 E25.08414
G1 X127.673 Y105.544 E25.10759
G1 X126.979 Y105.662 E25.131
G1 X126.29 Y105.7 E25.15395
G1 X105.7 Y105.7 E25.83878
G1 X105.7 Y126.289 E26.52357
G1 X105.66 Y126.992 E26.54699
G1 X105.541 Y127.686 E26.57041
G1 X105.343 Y128.361 E26.59381
G1 X105.071 Y129.01 E26.61721
G1 X104.726 Y129.624 E26.64064
G1 X104.315 Y130.195 E26.66403
G1 X103.841 Y130.716 E26.68746
G1 X103.311 Y131.18 E26.71089
G1 X102.732 Y131.58 E26.7343
G1 X102.111 Y131.912 E26.75772
G1 X101.457 Y132.172 E26.78113
G1 X100.777 Y132.356 E26.80456
G1 X100.048 Y132.465 E26.82907
G1 X99.271 Y132.534 E26.85502
G1 X99.112 Y132.546 E26.86032
G1 X98.4 Y132.59 E26.88405
G1 X97.776 Y132.617 E26.90482
G1 X97.068 Y132.635 E26.92838
G1 X96.446 Y132.64 E26.94907
G1 X95.831 Y132.633 E26.96952
G1 X95.086 Y132.612 E26.99431
G1 X94.493 Y132.583 E27.01406
G1 X93.861 Y132.544 E27.03512
G1 X93.151 Y132.485 E27.05881
G1 X92.903 Y132.461 E27.0671
G1 X92.207 Y132.354 E27.09052
G1 X91.528 Y132.168 E27.11394
G1 X90.874 Y131.907 E27.13736
G1 X90.255 Y131.573 E27.16075
G1 X89.677 Y131.171 E27.18417
G1 X89.148 Y130.706 E27.20759
G1 X88.675 Y130.184 E27.23102
G1 X88.265 Y129.612 E27.25443
G1 X87.922 Y128.997 E27.27785
G1 X87.651 Y128.347 E27.30127
G1 X87.456 Y127.671 E27.32468
G1 X87.338 Y126.977 E27.34809
G1 X87.3 Y126.29 E27.37097
G1 X87.3 Y93.5 E28.46157
G1 X87.34 Y92.797 E28.48499
G1 X87.459 Y92.103 E28.50841
G1 X87.657 Y91.428 E28.53181
G1 X87.929 Y90.779 E28.55521
G1 X88.274 Y90.165 E28.57864
G1 X88.685 Y89.594 E28.60204
G1 X89.159 Y89.073 E28.62547
G0 F6000 X89.553 Y89.251
G1 F1200 X90.078 Y88.817 E28.64812
G1 X90.65 Y88.448 E28.67076
G1 X91.262 Y88.149 E28.69342
G1 X91.904 Y87.924 E28.71604
G1 X92.569 Y87.775 E28.73871
G1 X93.5 Y87.7 E28.76977
G1 X126.289 Y87.7 E29.86034
G1 X126.969 Y87.74 E29.883
G1 X127.639 Y87.859 E29.90563
G1 X128.291 Y88.056 E29.92828
G1 X128.915 Y88.328 E29.95092
G1 X129.503 Y88.672 E29.97358
G1 X130.047 Y89.082 E29.99624
G1 X130.538 Y89.553 E30.01887
G1 X130.972 Y90.078 E30.04152
G1 X131.341 Y90.65 E30.06416
G1 X131.64 Y91.262 E30.08682
G1 X131.865 Y91.904 E30.10944
G1 X132.014 Y92.569 E30.13211
G1 X132.066 Y92.987 E30.14612
G1 X132.147 Y93.913 E30.17704
G1 X132.19 Y94.617 E30.2005
