;FLAVOR:Marlin
;TIME:10169
;Filament used: 6.19291m
;Layer height: 0.2
;MINX:53.527
;MINY:69.647
;MINZ:0.2
;MAXX:176.394
;MAXY:181.364
;MAXZ:31.8
;Generated with Cura_SteamEngine 4.9.0
M140 S60
M105
M190 S60
M104 S200
M105
M109 S200
M82 ;absolute extrusion mode
; Ender 3 Custom Start G-code
G92 E0 ; Reset Extruder
G28 ; Home all axes
G1 Z2.0 F3000 ; Move Z Axis up little to prevent scratching of Heat Bed
G1 X0.1 Y20 Z0.3 F5000.0 ; Move to start position
G1 X0.1 Y200.0 Z0.3 F1500.0 E15 ; Draw the first line
G1 X0.4 Y200.0 Z0.3 F5000.0 ; Move to side a little
G1 X0.4 Y20 Z0.3 F1500.0 E30 ; Draw the second line
G92 E0 ; Reset Extruder
G1 Z2.0 F3000 ; Move Z Axis up little to prevent scratching of Heat Bed
G1 X5 Y20 Z0.3 F5000.0 ; Move over to prevent blob squish
G92 E0
G92 E0
G1 F1500 E-6.5
;LAYER_COUNT:159
;LAYER:0
M107
G0 F6000 X129.841 Y99.358 Z0.2
;TYPE:SKIRT
G1 F1500 E0
G1 F1200 X130.38 Y98.781 E0.02626
G1 X130.975 Y98.261 E0.05254
G1 X131.619 Y97.804 E0.07881
G1 X132.306 Y97.415 E0.10507
G1 X133.028 Y97.097 E0.13131
G1 X133.78 Y96.853 E0.1576
G1 X134.552 Y96.687 E0.18387
G1 X135.337 Y96.6 E0.21014
G1 X135.804 Y96.586 E0.22567
G1 X154.794 Y96.586 E0.85728
G1 X154.794 Y77.597 E1.48886
G1 X154.834 Y76.808 E1.51514
G1 X154.953 Y76.028 E1.54138
G1 X155.151 Y75.263 E1.56766
G1 X155.425 Y74.523 E1.59391
G1 X155.773 Y73.814 E1.62018
G1 X156.191 Y73.143 E1.64647
G1 X156.674 Y72.519 E1.67272
G1 X157.217 Y71.946 E1.69897
G1 X157.816 Y71.431 E1.72525
G1 X158.464 Y70.98 E1.7515
G1 X159.155 Y70.596 E1.7778
G1 X159.88 Y70.284 E1.80405
G1 X160.633 Y70.047 E1.83031
G1 X161.407 Y69.888 E1.85659
G1 X161.879 Y69.83 E1.8724
G1 X162.598 Y69.765 E1.89642
G1 X163.21 Y69.721 E1.91682
G1 X163.513 Y69.703 E1.92692
G1 X164.002 Y69.679 E1.9432
G1 X164.646 Y69.657 E1.96463
G1 X165.303 Y69.647 E1.98649
G1 X166.023 Y69.649 E2.01044
G1 X166.532 Y69.657 E2.02737
G1 X167.084 Y69.675 E2.04574
G1 X167.714 Y69.705 E2.06671
G1 X168.222 Y69.737 E2.08364
G1 X169.066 Y69.805 E2.11181
G1 X169.314 Y69.828 E2.12009
G1 X170.096 Y69.941 E2.14637
G1 X170.862 Y70.132 E2.17263
G1 X171.605 Y70.4 E2.1989
G1 X172.317 Y70.741 E2.22516
G1 X172.991 Y71.153 E2.25143
G1 X173.62 Y71.63 E2.27769
G1 X174.197 Y72.169 E2.30395
G1 X174.717 Y72.763 E2.3302
G1 X175.174 Y73.407 E2.35647
G1 X175.564 Y74.094 E2.38274
G1 X175.882 Y74.817 E2.40901
G1 X176.126 Y75.568 E2.43528
G1 X176.292 Y76.34 E2.46154
G1 X176.38 Y77.125 E2.48781
G1 X176.394 Y77.595 E2.50345
G1 X176.394 Y110.386 E3.59409
G1 X176.354 Y111.175 E3.62036
G1 X176.235 Y111.955 E3.64661
G1 X176.037 Y112.72 E3.67289
G1 X175.763 Y113.46 E3.69913
G1 X175.415 Y114.169 E3.7254
G1 X174.997 Y114.84 E3.7517
G1 X174.514 Y115.464 E3.77794
G1 X173.971 Y116.037 E3.8042
G1 X173.372 Y116.552 E3.83047
G1 X172.724 Y117.003 E3.85673
G1 X172.033 Y117.387 E3.88302
G1 X171.308 Y117.699 E3.90928
G1 X170.555 Y117.936 E3.93553
G1 X169.781 Y118.095 E3.96181
G1 X168.996 Y118.176 E3.98806
G1 X168.594 Y118.186 E4.00143
G1 X135.806 Y118.186 E5.09197
G1 X135.017 Y118.146 E5.11824
G1 X134.237 Y118.027 E5.14449
G1 X133.472 Y117.829 E5.17077
G1 X132.732 Y117.555 E5.19701
G1 X132.023 Y117.207 E5.22328
G1 X131.352 Y116.789 E5.24958
G1 X130.728 Y116.306 E5.27582
G1 X130.155 Y115.763 E5.30208
G1 X129.64 Y115.164 E5.32835
G1 X129.189 Y114.516 E5.35461
G1 X128.805 Y113.825 E5.3809
G1 X128.493 Y113.1 E5.40716
G1 X128.256 Y112.347 E5.43341
G1 X128.097 Y111.573 E5.45969
G1 X128.039 Y111.099 E5.47558
G1 X127.974 Y110.382 E5.49952
G1 X127.928 Y109.74 E5.52093
G1 X127.895 Y109.135 E5.54108
G1 X127.878 Y108.714 E5.5551
G1 X127.862 Y108.083 E5.57609
G1 X127.854 Y107.335 E5.60097
G1 X127.857 Y106.941 E5.61407
G1 X127.866 Y106.434 E5.63094
G1 X127.884 Y105.896 E5.64884
G1 X127.914 Y105.266 E5.66982
G1 X127.946 Y104.758 E5.68675
G1 X128.015 Y103.91 E5.71505
G1 X128.038 Y103.663 E5.7233
G1 X128.151 Y102.881 E5.74958
G1 X128.342 Y102.115 E5.77584
G1 X128.61 Y101.372 E5.80211
G1 X128.951 Y100.66 E5.82836
G1 X129.363 Y99.986 E5.85464
G1 X129.841 Y99.358 E5.88089
G0 F6000 X130.225 Y99.525
G1 F1200 X130.76 Y98.972 E5.90648
G1 X131.349 Y98.477 E5.93207
G1 X131.986 Y98.047 E5.95763
G1 X132.665 Y97.685 E5.98322
G1 X133.377 Y97.395 E6.00879
G1 X134.116 Y97.181 E6.03438
G1 X134.873 Y97.045 E6.05996
G1 X135.804 Y96.986 E6.09099
G1 X155.194 Y96.986 E6.73591
G1 X155.194 Y77.597 E7.38079
G1 X155.234 Y76.829 E7.40636
G1 X155.353 Y76.069 E7.43195
G1 X155.551 Y75.326 E7.45752
G1 X155.825 Y74.607 E7.48312
G1 X156.172 Y73.921 E7.50869
G1 X156.588 Y73.274 E7.53427
G1 X157.069 Y72.674 E7.55985
G1 X157.61 Y72.127 E7.58544
G1 X158.205 Y71.639 E7.61103
G1 X158.847 Y71.216 E7.6366
G1 X159.53 Y70.861 E7.6622
G1 X160.245 Y70.58 E7.68775
G1 X160.987 Y70.374 E7.71337
G1 X161.916 Y70.228 E7.74464
G1 X162.627 Y70.164 E7.76839
G1 X163.234 Y70.12 E7.78863
G1 X163.537 Y70.102 E7.79873
G1 X164.016 Y70.079 E7.81468
G1 X164.653 Y70.057 E7.83588
G1 X165.302 Y70.047 E7.85746
G1 X166.016 Y70.049 E7.88121
G1 X166.525 Y70.057 E7.89814
G1 X167.065 Y70.074 E7.91611
G1 X167.689 Y70.105 E7.93689
G1 X168.333 Y70.146 E7.95836
G1 X169.029 Y70.204 E7.98158
G1 X169.277 Y70.227 E7.98987
G1 X170.039 Y70.337 E8.01548
G1 X170.784 Y70.526 E8.04104
G1 X171.506 Y70.792 E8.06663
G1 X172.196 Y71.131 E8.0922
G1 X172.848 Y71.54 E8.1178
G1 X173.453 Y72.014 E8.14336
G1 X174.006 Y72.549 E8.16895
G1 X174.501 Y73.138 E8.19454
G1 X174.932 Y73.775 E8.22012
G1 X175.294 Y74.453 E8.24569
G1 X175.584 Y75.166 E8.27129
G1 X175.798 Y75.905 E8.29688
G1 X175.935 Y76.661 E8.32243
G1 X175.994 Y77.595 E8.35356
G1 X175.994 Y110.386 E9.44419
G1 X175.954 Y111.154 E9.46977
G1 X175.835 Y111.914 E9.49536
G1 X175.637 Y112.657 E9.52093
G1 X175.363 Y113.376 E9.54652
G1 X175.016 Y114.062 E9.57209
G1 X174.6 Y114.709 E9.59768
G1 X174.119 Y115.309 E9.62325
G1 X173.578 Y115.856 E9.64884
G1 X172.983 Y116.344 E9.67444
G1 X172.341 Y116.767 E9.70001
G1 X171.658 Y117.122 E9.72561
G1 X170.943 Y117.403 E9.75116
G1 X170.201 Y117.609 E9.77677
G1 X169.443 Y117.737 E9.80234
G1 X168.594 Y117.786 E9.83063
G1 X135.806 Y117.786 E10.92116
G1 X135.038 Y117.746 E10.94674
G1 X134.278 Y117.627 E10.97232
G1 X133.535 Y117.429 E10.9979
G1 X132.816 Y117.155 E11.02349
G1 X132.13 Y116.808 E11.04906
G1 X131.483 Y116.392 E11.07464
G1 X130.883 Y115.911 E11.10022
G1 X130.336 Y115.37 E11.12581
G1 X129.848 Y114.775 E11.1514
G1 X129.425 Y114.133 E11.17697
G1 X129.07 Y113.45 E11.20258
G1 X128.789 Y112.735 E11.22813
G1 X128.583 Y111.993 E11.25374
G1 X128.437 Y111.063 E11.28505
G1 X128.373 Y110.353 E11.30876
G1 X128.327 Y109.717 E11.32997
G1 X128.295 Y109.118 E11.34992
G1 X128.278 Y108.703 E11.36374
G1 X128.261 Y108.078 E11.38453
G1 X128.254 Y107.338 E11.40914
G1 X128.257 Y106.948 E11.42212
G1 X128.266 Y106.441 E11.43898
G1 X128.283 Y105.915 E11.45649
G1 X128.314 Y105.291 E11.47727
G1 X128.355 Y104.648 E11.4987
G1 X128.413 Y103.947 E11.52209
G1 X128.436 Y103.7 E11.53034
G1 X128.547 Y102.939 E11.55592
G1 X128.736 Y102.193 E11.58152
G1 X129.002 Y101.472 E11.60708
G1 X129.341 Y100.781 E11.63268
G1 X129.75 Y100.13 E11.65825
G1 X130.225 Y99.525 E11.68383
G0 F6000 X130.608 Y99.695
G1 F1200 X131.138 Y99.168 E11.70869
G1 X131.722 Y98.699 E11.7336
G1 X132.352 Y98.296 E11.75848
G1 X133.022 Y97.963 E11.78336
G1 X133.723 Y97.702 E11.80824
G1 X134.448 Y97.519 E11.83311
G1 X135.189 Y97.413 E11.85801
G1 X135.804 Y97.386 E11.87848
G1 X155.594 Y97.386 E12.5367
G1 X155.594 Y77.597 E13.19488
G1 X155.634 Y76.85 E13.21976
G1 X155.753 Y76.112 E13.24463
G1 X155.951 Y75.39 E13.26953
G1 X156.224 Y74.694 E13.29439
G1 X156.571 Y74.031 E13.31928
G1 X156.986 Y73.408 E13.34418
G1 X157.465 Y72.834 E13.36905
G1 X158.002 Y72.313 E13.39393
G1 X158.592 Y71.854 E13.41879
G1 X159.228 Y71.459 E13.4437
G1 X159.902 Y71.135 E13.46857
G1 X160.607 Y70.885 E13.49345
G1 X161.335 Y70.711 E13.51834
G1 X161.953 Y70.626 E13.53909
G1 X162.656 Y70.563 E13.56257
G1 X163.258 Y70.519 E13.58264
G1 X163.561 Y70.501 E13.59274
G1 X164.03 Y70.478 E13.60836
G1 X164.66 Y70.457 E13.62932
G1 X165.301 Y70.447 E13.65064
G1 X166.01 Y70.449 E13.67423
G1 X166.519 Y70.457 E13.69116
G1 X167.046 Y70.474 E13.70869
G1 X167.664 Y70.504 E13.72927
G1 X168.3 Y70.545 E13.75047
G1 X168.992 Y70.602 E13.77356
G1 X169.24 Y70.625 E13.78185
G1 X169.981 Y70.734 E13.80676
G1 X170.705 Y70.921 E13.83163
G1 X171.405 Y71.184 E13.8565
G1 X172.073 Y71.521 E13.88139
G1 X172.701 Y71.927 E13.90626
G1 X173.283 Y72.397 E13.93114
G1 X173.811 Y72.927 E13.95602
G1 X174.279 Y73.511 E13.98091
G1 X174.682 Y74.141 E14.00579
G1 X175.016 Y74.81 E14.03066
G1 X175.277 Y75.511 E14.05554
G1 X175.461 Y76.236 E14.08041
G1 X175.567 Y76.977 E14.10531
G1 X175.594 Y77.595 E14.12589
G1 X175.594 Y110.386 E15.21652
G1 X175.554 Y111.133 E15.2414
G1 X175.435 Y111.871 E15.26626
G1 X175.237 Y112.593 E15.29116
G1 X174.964 Y113.289 E15.31603
G1 X174.617 Y113.952 E15.34092
G1 X174.202 Y114.575 E15.36582
G1 X173.723 Y115.149 E15.39068
G1 X173.186 Y115.67 E15.41557
G1 X172.596 Y116.129 E15.44043
G1 X171.96 Y116.524 E15.46533
G1 X171.286 Y116.848 E15.4902
G1 X170.581 Y117.098 E15.51508
G1 X169.853 Y117.272 E15.53998
G1 X169.111 Y117.367 E15.56486
G1 X168.594 Y117.386 E15.58207
G1 X135.806 Y117.386 E16.6726
G1 X135.059 Y117.346 E16.69748
G1 X134.321 Y117.227 E16.72234
G1 X133.599 Y117.029 E16.74724
G1 X132.903 Y116.756 E16.77211
G1 X132.24 Y116.409 E16.797
G1 X131.617 Y115.994 E16.8219
G1 X131.043 Y115.515 E16.84676
G1 X130.522 Y114.978 E16.87165
G1 X130.063 Y114.388 E16.89651
G1 X129.668 Y113.752 E16.92141
G1 X129.344 Y113.078 E16.94628
G1 X129.094 Y112.373 E16.97116
G1 X128.92 Y111.645 E16.99606
G1 X128.835 Y111.026 E17.01684
G1 X128.772 Y110.324 E17.04028
G1 X128.727 Y109.695 E17.06126
G1 X128.694 Y109.101 E17.08104
G1 X128.678 Y108.692 E17.09466
G1 X128.661 Y108.074 E17.11522
G1 X128.654 Y107.34 E17.13963
G1 X128.657 Y106.955 E17.15244
G1 X128.666 Y106.448 E17.1693
G1 X128.683 Y105.934 E17.18641
G1 X128.713 Y105.316 E17.20699
G1 X128.754 Y104.681 E17.22815
G1 X128.811 Y103.984 E17.25141
G1 X128.834 Y103.737 E17.25966
G1 X128.943 Y102.997 E17.28454
G1 X129.131 Y102.273 E17.30942
G1 X129.394 Y101.573 E17.33429
G1 X129.731 Y100.905 E17.35918
G1 X130.137 Y100.277 E17.38405
G1 X130.608 Y99.695 E17.40895
G0 F6000 X130.991 Y99.87
G1 F1200 X131.516 Y99.369 E17.43309
G1 X132.093 Y98.928 E17.45724
G1 X132.716 Y98.553 E17.48143
G1 X133.375 Y98.249 E17.50557
G1 X134.064 Y98.019 E17.52972
G1 X134.775 Y97.867 E17.55391
G1 X135.804 Y97.786 E17.58824
G1 X155.994 Y97.786 E18.25976
G1 X155.994 Y77.597 E18.93125
G1 X156.034 Y76.872 E18.9554
G1 X156.153 Y76.155 E18.97957
G1 X156.351 Y75.456 E19.00374
G1 X156.624 Y74.783 E19.02789
G1 X156.969 Y74.144 E19.05204
G1 X157.383 Y73.547 E19.07621
G1 X157.859 Y72.999 E19.10035
G1 X158.393 Y72.506 E19.12452
G1 X158.978 Y72.076 E19.14867
G1 X159.607 Y71.712 E19.17284
G1 X160.272 Y71.419 E19.19701
G1 X160.965 Y71.201 E19.22117
G1 X161.989 Y71.025 E19.25573
G1 X162.686 Y70.962 E19.27901
G1 X163.282 Y70.919 E19.29888
G1 X163.891 Y70.885 E19.31917
G1 X164.55 Y70.86 E19.34111
G1 X165.172 Y70.848 E19.3618
G1 X166.004 Y70.849 E19.38947
G1 X166.513 Y70.857 E19.4064
G1 X167.027 Y70.873 E19.4235
G1 X167.639 Y70.903 E19.44388
G1 X168.268 Y70.944 E19.46485
G1 X168.955 Y71 E19.48777
G1 X169.203 Y71.023 E19.49606
G1 X169.922 Y71.13 E19.52024
G1 X170.624 Y71.315 E19.54438
G1 X171.302 Y71.576 E19.56855
G1 X171.947 Y71.91 E19.5927
G1 X172.552 Y72.313 E19.61688
G1 X173.108 Y72.78 E19.64103
G1 X173.61 Y73.305 E19.66519
G1 X174.051 Y73.882 E19.68935
G1 X174.426 Y74.504 E19.7135
G1 X174.73 Y75.164 E19.73767
G1 X174.96 Y75.853 E19.76183
G1 X175.113 Y76.563 E19.78599
G1 X175.194 Y77.595 E19.82042
G1 X175.194 Y110.386 E20.91105
G1 X175.154 Y111.111 E20.9352
G1 X175.035 Y111.828 E20.95937
G1 X174.837 Y112.527 E20.98354
G1 X174.564 Y113.2 E21.00769
G1 X174.219 Y113.839 E21.03185
G1 X173.805 Y114.436 E21.05601
G1 X173.329 Y114.984 E21.08015
G1 X172.795 Y115.477 E21.10433
G1 X172.21 Y115.907 E21.12847
G1 X171.581 Y116.271 E21.15264
G1 X170.916 Y116.564 E21.17681
G1 X170.223 Y116.782 E21.20098
G1 X169.511 Y116.922 E21.22511
G1 X168.594 Y116.986 E21.25569
G1 X135.806 Y116.986 E22.34622
G1 X135.081 Y116.946 E22.37037
G1 X134.364 Y116.827 E22.39454
G1 X133.665 Y116.629 E22.41871
G1 X132.992 Y116.356 E22.44286
G1 X132.353 Y116.011 E22.46701
G1 X131.756 Y115.597 E22.49118
G1 X131.208 Y115.121 E22.51532
G1 X130.715 Y114.587 E22.53949
G1 X130.285 Y114.002 E22.56364
G1 X129.921 Y113.373 E22.58781
G1 X129.628 Y112.708 E22.61198
G1 X129.41 Y112.015 E22.63615
G1 X129.234 Y110.99 E22.67074
G1 X129.171 Y110.294 E22.69398
G1 X129.126 Y109.673 E22.71469
G1 X129.094 Y109.084 E22.73431
G1 X129.078 Y108.681 E22.74772
G1 X129.061 Y108.069 E22.76808
G1 X129.054 Y107.343 E22.79223
G1 X129.057 Y106.962 E22.80491
G1 X129.066 Y106.455 E22.82177
G1 X129.082 Y105.953 E22.83848
G1 X129.112 Y105.341 E22.85886
G1 X129.153 Y104.713 E22.87979
G1 X129.209 Y104.021 E22.90288
G1 X129.232 Y103.774 E22.91113
G1 X129.339 Y103.056 E22.93527
G1 X129.525 Y102.353 E22.95946
G1 X129.786 Y101.676 E22.98359
G1 X130.12 Y101.031 E23.00775
G1 X130.524 Y100.427 E23.03192
G1 X130.991 Y99.87 E23.0561
G0 F6000 X130.909 Y100.58
G1 F1200 X131.372 Y100.05 E23.0795
G1 X131.893 Y99.576 E23.10293
G1 X132.463 Y99.163 E23.12634
G1 X133.077 Y98.818 E23.14977
G1 X133.725 Y98.545 E23.17315
G1 X134.401 Y98.347 E23.19658
G1 X135.095 Y98.227 E23.22001
G1 X135.804 Y98.186 E23.24363
G1 X156.394 Y98.186 E23.92845
G1 X156.394 Y77.597 E24.61325
G1 X156.434 Y76.894 E24.63667
G1 X156.553 Y76.2 E24.66009
G1 X156.751 Y75.525 E24.68348
G1 X157.023 Y74.876 E24.70689
G1 X157.368 Y74.262 E24.73031
G1 X157.779 Y73.691 E24.75371
G1 X158.253 Y73.17 E24.77714
G1 X158.783 Y72.706 E24.80057
G1 X159.362 Y72.306 E24.82397
G1 X159.983 Y71.974 E24.84739
G1 X160.637 Y71.714 E24.8708
G1 X161.317 Y71.53 E24.89423
G1 X162.026 Y71.423 E24.91808
G1 X162.715 Y71.361 E24.94109
G1 X163.305 Y71.318 E24.96077
G1 X163.608 Y71.3 E24.97086
G1 X164.059 Y71.278 E24.98588
G1 X164.675 Y71.257 E25.00638
G1 X165.3 Y71.247 E25.02717
G1 X165.997 Y71.249 E25.05035
G1 X166.506 Y71.257 E25.06728
G1 X167.009 Y71.273 E25.08402
G1 X167.614 Y71.302 E25.10417
G1 X168.235 Y71.342 E25.12486
G1 X168.919 Y71.398 E25.14769
G1 X169.167 Y71.421 E25.15597
G1 X169.863 Y71.526 E25.17939
G1 X170.543 Y71.709 E25.20281
G1 X171.197 Y71.968 E25.2262
G1 X171.818 Y72.299 E25.24961
G1 X172.398 Y72.699 E25.27304
G1 X172.928 Y73.162 E25.29645
G1 X173.403 Y73.682 E25.31987
G1 X173.816 Y74.252 E25.34329
G1 X174.161 Y74.866 E25.36671
G1 X174.434 Y75.514 E25.3901
G1 X174.633 Y76.19 E25.41354
G1 X174.753 Y76.883 E25.43693
G1 X174.794 Y77.595 E25.46065
G1 X174.794 Y110.386 E26.55128
G1 X174.754 Y111.089 E26.5747
G1 X174.635 Y111.783 E26.59812
G1 X174.437 Y112.458 E26.62152
G1 X174.165 Y113.107 E26.64492
G1 X173.82 Y113.721 E26.66835
G1 X173.409 Y114.292 E26.69175
G1 X172.935 Y114.813 E26.71517
G1 X172.405 Y115.277 E26.7386
G1 X171.826 Y115.677 E26.76201
G1 X171.205 Y116.009 E26.78543
G1 X170.551 Y116.269 E26.80884
G1 X169.871 Y116.453 E26.83227
G1 X169.175 Y116.559 E26.85568
G1 X168.594 Y116.586 E26.87503
G1 X135.806 Y116.586 E27.96556
G1 X135.103 Y116.546 E27.98898
G1 X134.409 Y116.427 E28.0124
G1 X133.734 Y116.229 E28.0358
G1 X133.085 Y115.957 E28.0592
G1 X132.471 Y115.612 E28.08263
G1 X131.9 Y115.201 E28.10603
G1 X131.379 Y114.727 E28.12945
G1 X130.915 Y114.197 E28.15288
G1 X130.515 Y113.618 E28.17629
G1 X130.183 Y112.997 E28.19971
G1 X129.923 Y112.343 E28.22312
G1 X129.739 Y111.663 E28.24655
G1 X129.632 Y110.953 E28.27043
G1 X129.57 Y110.265 E28.29341
G1 X129.526 Y109.651 E28.31388
G1 X129.494 Y109.067 E28.33333
G1 X129.477 Y108.67 E28.34655
G1 X129.461 Y108.064 E28.36671
G1 X129.454 Y107.346 E28.39059
G1 X129.457 Y106.969 E28.40313
G1 X129.466 Y106.462 E28.42
G1 X129.482 Y105.971 E28.43634
G1 X129.511 Y105.366 E28.45648
G1 X129.551 Y104.746 E28.47715
G1 X129.608 Y104.058 E28.50011
G1 X129.631 Y103.811 E28.50836
G1 X129.736 Y103.115 E28.53177
G1 X129.919 Y102.435 E28.55519
G1 X130.178 Y101.781 E28.57859
G1 X130.51 Y101.16 E28.60201
G1 X130.909 Y100.58 E28.62542
G0 F6000 X131.295 Y100.738
G1 F1200 X131.753 Y100.235 E28.64805
