;FLAVOR:Marlin
;TIME:13431
;Filament used: 8.25753m
;Layer height: 0.2
;MINX:33.087
;MINY:78.615
;MINZ:0.2
;MAXX:195.945
;MAXY:183.405
;MAXZ:31.8
;Generated with Cura_SteamEngine 4.9.0
M140 S60
M105
M190 S60
M104 S200
M105
M109 S200
M82 ;absolute extrusion mode
; Ender 3 Custom Start G-code
G92 E0 ; Reset Extruder
G28 ; Home all axes
G1 Z2.0 F3000 ; Move Z Axis up little to prevent scratching of Heat Bed
G1 X0.1 Y20 Z0.3 F5000.0 ; Move to start position
G1 X0.1 Y200.0 Z0.3 F1500.0 E15 ; Draw the first line
G1 X0.4 Y200.0 Z0.3 F5000.0 ; Move to side a little
G1 X0.4 Y20 Z0.3 F1500.0 E30 ; Draw the second line
G92 E0 ; Reset Extruder
G1 Z2.0 F3000 ; Move Z Axis up little to prevent scratching of Heat Bed
G1 X5 Y20 Z0.3 F5000.0 ; Move over to prevent blob squish
G92 E0
G92 E0
G1 F1500 E-6.5
;LAYER_COUNT:159
;LAYER:0
M107
G0 F6000 X89.298 Y107.213 Z0.2
;TYPE:SKIRT
G1 F1500 E0
G1 F1200 X89.944 Y106.758 E0.02628
G1 X90.632 Y106.371 E0.05254
G1 X91.356 Y106.056 E0.0788
G1 X92.108 Y105.815 E0.10506
G1 X92.881 Y105.651 E0.13134
G1 X93.666 Y105.567 E0.1576
G1 X94.108 Y105.554 E0.17231
G1 X113.098 Y105.554 E0.80392
G1 X113.098 Y86.566 E1.43546
G1 X113.138 Y85.777 E1.46174
G1 X113.257 Y84.997 E1.48798
G1 X113.455 Y84.232 E1.51426
G1 X113.729 Y83.492 E1.54051
G1 X114.077 Y82.783 E1.56678
G1 X114.495 Y82.112 E1.59307
G1 X114.978 Y81.488 E1.61932
G1 X115.521 Y80.915 E1.64557
G1 X116.12 Y80.4 E1.67185
G1 X116.768 Y79.949 E1.69811
G1 X117.459 Y79.565 E1.7244
G1 X118.184 Y79.253 E1.75065
G1 X118.937 Y79.016 E1.77691
G1 X119.711 Y78.857 E1.80319
G1 X120.183 Y78.799 E1.819
G1 X120.901 Y78.734 E1.84298
G1 X121.403 Y78.697 E1.85972
G1 X122.16 Y78.655 E1.88494
G1 X122.305 Y78.648 E1.88977
G1 X122.949 Y78.626 E1.9112
G1 X123.579 Y78.616 E1.93216
G1 X124.084 Y78.615 E1.94895
G1 X124.839 Y78.626 E1.97407
G1 X125.387 Y78.644 E1.99231
G1 X126.018 Y78.674 E2.01332
G1 X126.525 Y78.706 E2.03021
G1 X127.401 Y78.777 E2.05944
G1 X127.649 Y78.801 E2.06773
G1 X128.43 Y78.917 E2.09399
G1 X129.196 Y79.111 E2.12027
G1 X129.938 Y79.382 E2.14655
G1 X130.649 Y79.726 E2.17282
G1 X131.321 Y80.14 E2.19907
G1 X131.948 Y80.62 E2.22533
G1 X132.523 Y81.161 E2.25159
G1 X133.041 Y81.758 E2.27788
G1 X133.495 Y82.404 E2.30414
G1 X133.882 Y83.092 E2.3304
G1 X134.197 Y83.816 E2.35666
G1 X134.438 Y84.568 E2.38292
G1 X134.601 Y85.341 E2.4092
G1 X134.686 Y86.126 E2.43546
G1 X134.698 Y86.565 E2.45007
G1 X134.698 Y119.354 E3.54063
G1 X134.658 Y120.143 E3.56691
G1 X134.539 Y120.923 E3.59315
G1 X134.341 Y121.688 E3.61943
G1 X134.067 Y122.428 E3.64568
G1 X133.719 Y123.137 E3.67195
G1 X133.301 Y123.808 E3.69824
G1 X132.818 Y124.432 E3.72449
G1 X132.275 Y125.005 E3.75074
G1 X131.676 Y125.52 E3.77702
G1 X131.028 Y125.971 E3.80328
G1 X130.337 Y126.355 E3.82957
G1 X129.612 Y126.667 E3.85582
G1 X128.859 Y126.904 E3.88208
G1 X128.085 Y127.063 E3.90836
G1 X127.3 Y127.144 E3.93461
G1 X126.898 Y127.154 E3.94798
G1 X94.109 Y127.154 E5.03855
G1 X93.32 Y127.114 E5.06482
G1 X92.54 Y126.995 E5.09107
G1 X91.775 Y126.797 E5.11735
G1 X91.035 Y126.523 E5.14359
G1 X90.326 Y126.175 E5.16986
G1 X89.655 Y125.757 E5.19616
G1 X89.031 Y125.274 E5.2224
G1 X88.458 Y124.731 E5.24866
G1 X87.943 Y124.132 E5.27493
G1 X87.492 Y123.484 E5.30119
G1 X87.108 Y122.793 E5.32748
G1 X86.796 Y122.068 E5.35374
G1 X86.559 Y121.315 E5.37999
G1 X86.4 Y120.541 E5.40627
G1 X86.34 Y120.044 E5.42292
G1 X86.256 Y119.08 E5.45511
G1 X86.208 Y118.312 E5.4807
G1 X86.182 Y117.699 E5.50111
G1 X86.164 Y117.039 E5.52307
G1 X86.158 Y116.303 E5.54755
G1 X86.161 Y115.91 E5.56062
G1 X86.174 Y115.266 E5.58204
G1 X86.2 Y114.581 E5.60484
G1 X86.247 Y113.767 E5.63196
G1 X86.26 Y113.584 E5.63806
G1 X86.32 Y112.855 E5.66239
G1 X86.344 Y112.606 E5.67071
G1 X86.459 Y111.824 E5.697
G1 X86.653 Y111.059 E5.72325
G1 X86.924 Y110.317 E5.74952
G1 X87.267 Y109.606 E5.77578
G1 X87.681 Y108.934 E5.80203
G1 X88.161 Y108.306 E5.82832
G1 X88.702 Y107.731 E5.85458
G1 X89.298 Y107.213 E5.88084
G0 F6000 X89.672 Y107.431
G1 F1200 X90.311 Y107.002 E5.90644
G1 X90.991 Y106.643 E5.93202
G1 X91.704 Y106.355 E5.95759
G1 X92.444 Y106.144 E5.98319
G1 X93.201 Y106.01 E6.00876
G1 X94.108 Y105.954 E6.03898
G1 X113.498 Y105.954 E6.6839
G1 X113.498 Y86.566 E7.32874
G1 X113.538 Y85.798 E7.35432
G1 X113.657 Y85.038 E7.37991
G1 X113.855 Y84.295 E7.40548
G1 X114.129 Y83.576 E7.43107
G1 X114.476 Y82.89 E7.45664
G1 X114.892 Y82.243 E7.48223
G1 X115.373 Y81.643 E7.5078
G1 X115.914 Y81.096 E7.53339
G1 X116.509 Y80.608 E7.55899
G1 X117.151 Y80.185 E7.58456
G1 X117.834 Y79.83 E7.61016
G1 X118.549 Y79.549 E7.63571
G1 X119.291 Y79.343 E7.66132
G1 X120.22 Y79.197 E7.6926
G1 X120.93 Y79.133 E7.71631
G1 X121.574 Y79.087 E7.73779
G1 X122.319 Y79.048 E7.7626
G1 X122.956 Y79.026 E7.7838
G1 X123.579 Y79.016 E7.80452
G1 X124.084 Y79.015 E7.82132
G1 X124.833 Y79.026 E7.84623
G1 X125.368 Y79.043 E7.86404
G1 X125.993 Y79.074 E7.88485
G1 X126.633 Y79.115 E7.90618
G1 X127.363 Y79.175 E7.93054
G1 X127.611 Y79.199 E7.93883
G1 X128.371 Y79.313 E7.96439
G1 X129.116 Y79.505 E7.98998
G1 X129.837 Y79.774 E8.01557
G1 X130.526 Y80.115 E8.04114
G1 X131.176 Y80.527 E8.06674
G1 X131.78 Y81.004 E8.09234
G1 X132.331 Y81.54 E8.1179
G1 X132.823 Y82.131 E8.14348
G1 X133.251 Y82.77 E8.16906
G1 X133.611 Y83.45 E8.19465
G1 X133.898 Y84.164 E8.22025
G1 X134.109 Y84.903 E8.24581
G1 X134.243 Y85.661 E8.27141
G1 X134.298 Y86.565 E8.30153
G1 X134.298 Y119.354 E9.3921
G1 X134.258 Y120.122 E9.41768
G1 X134.139 Y120.882 E9.44326
G1 X133.941 Y121.625 E9.46884
G1 X133.667 Y122.344 E9.49443
G1 X133.32 Y123.03 E9.52
G1 X132.904 Y123.677 E9.54558
G1 X132.423 Y124.277 E9.57116
G1 X131.882 Y124.824 E9.59675
G1 X131.287 Y125.312 E9.62234
G1 X130.645 Y125.735 E9.64791
G1 X129.962 Y126.09 E9.67352
G1 X129.247 Y126.371 E9.69907
G1 X128.505 Y126.577 E9.72468
G1 X127.747 Y126.705 E9.75025
G1 X126.898 Y126.754 E9.77853
G1 X94.109 Y126.754 E10.8691
G1 X93.341 Y126.714 E10.89468
G1 X92.581 Y126.595 E10.92026
G1 X91.838 Y126.397 E10.94584
G1 X91.119 Y126.123 E10.97143
G1 X90.433 Y125.776 E10.997
G1 X89.786 Y125.36 E11.02258
G1 X89.186 Y124.879 E11.04816
G1 X88.639 Y124.338 E11.07375
G1 X88.151 Y123.743 E11.09934
G1 X87.728 Y123.101 E11.12491
G1 X87.373 Y122.418 E11.15052
G1 X87.092 Y121.703 E11.17607
G1 X86.886 Y120.961 E11.20168
G1 X86.738 Y120.009 E11.23372
G1 X86.655 Y119.055 E11.26557
G1 X86.616 Y118.452 E11.28567
G1 X86.582 Y117.687 E11.31114
G1 X86.564 Y117.035 E11.33283
G1 X86.558 Y116.306 E11.35708
G1 X86.561 Y115.917 E11.37002
G1 X86.574 Y115.28 E11.39121
G1 X86.599 Y114.604 E11.41371
G1 X86.646 Y113.79 E11.44083
G1 X86.658 Y113.616 E11.44663
G1 X86.718 Y112.893 E11.47076
G1 X86.742 Y112.644 E11.47908
G1 X86.856 Y111.883 E11.50467
G1 X87.047 Y111.138 E11.53025
G1 X87.316 Y110.418 E11.55582
G1 X87.657 Y109.728 E11.58142
G1 X88.068 Y109.078 E11.607
G1 X88.545 Y108.475 E11.63257
G1 X89.081 Y107.923 E11.65816
G1 X89.672 Y107.431 E11.68374
G0 F6000 X90.044 Y107.654
G1 F1200 X90.676 Y107.253 E11.70863
G1 X91.346 Y106.922 E11.73349
G1 X92.049 Y106.664 E11.75839
G1 X92.774 Y106.482 E11.78325
G1 X93.515 Y106.379 E11.80814
G1 X94.108 Y106.354 E11.82788
G1 X113.898 Y106.354 E12.4861
G1 X113.898 Y86.566 E13.14425
G1 X113.938 Y85.819 E13.16913
G1 X114.057 Y85.081 E13.19399
G1 X114.255 Y84.359 E13.21889
G1 X114.528 Y83.663 E13.24376
G1 X114.875 Y83 E13.26865
G1 X115.29 Y82.377 E13.29354
G1 X115.769 Y81.803 E13.31841
G1 X116.306 Y81.282 E13.3433
G1 X116.896 Y80.823 E13.36816
G1 X117.532 Y80.428 E13.39306
G1 X118.206 Y80.104 E13.41793
G1 X118.911 Y79.854 E13.44281
G1 X119.639 Y79.68 E13.46771
G1 X120.257 Y79.595 E13.48845
G1 X120.959 Y79.532 E13.5119
G1 X121.596 Y79.486 E13.53314
G1 X122.334 Y79.447 E13.55772
G1 X122.964 Y79.426 E13.57868
G1 X123.58 Y79.416 E13.59918
G1 X124.085 Y79.415 E13.61597
G1 X124.826 Y79.426 E13.64062
G1 X125.349 Y79.443 E13.65802
G1 X125.968 Y79.473 E13.67864
G1 X126.6 Y79.514 E13.6997
G1 X127.324 Y79.574 E13.72386
G1 X127.572 Y79.598 E13.73215
G1 X128.312 Y79.709 E13.75704
G1 X129.035 Y79.899 E13.7819
G1 X129.735 Y80.165 E13.80681
G1 X130.401 Y80.505 E13.83168
G1 X131.028 Y80.913 E13.85656
G1 X131.608 Y81.386 E13.88145
G1 X132.133 Y81.918 E13.90631
G1 X132.599 Y82.504 E13.93121
G1 X133 Y83.135 E13.95608
G1 X133.331 Y83.806 E13.98097
G1 X133.589 Y84.508 E14.00584
G1 X133.77 Y85.234 E14.03073
G1 X133.873 Y85.975 E14.05561
G1 X133.898 Y86.565 E14.07525
G1 X133.898 Y119.354 E15.16582
G1 X133.858 Y120.101 E15.1907
G1 X133.739 Y120.839 E15.21556
G1 X133.541 Y121.561 E15.24046
G1 X133.268 Y122.257 E15.26533
G1 X132.921 Y122.92 E15.29022
G1 X132.506 Y123.543 E15.31512
G1 X132.027 Y124.117 E15.33998
G1 X131.49 Y124.638 E15.36487
G1 X130.9 Y125.097 E15.38973
G1 X130.264 Y125.492 E15.41463
G1 X129.59 Y125.816 E15.4395
G1 X128.885 Y126.066 E15.46438
G1 X128.157 Y126.24 E15.48928
G1 X127.415 Y126.335 E15.51416
G1 X126.898 Y126.354 E15.53136
G1 X94.109 Y126.354 E16.62193
G1 X93.362 Y126.314 E16.64681
G1 X92.624 Y126.195 E16.67168
G1 X91.902 Y125.997 E16.69658
G1 X91.206 Y125.724 E16.72144
G1 X90.543 Y125.377 E16.74633
G1 X89.92 Y124.962 E16.77123
G1 X89.346 Y124.483 E16.79609
G1 X88.825 Y123.946 E16.82098
G1 X88.366 Y123.356 E16.84584
G1 X87.971 Y122.72 E16.87074
G1 X87.647 Y122.046 E16.89562
G1 X87.397 Y121.341 E16.9205
G1 X87.223 Y120.613 E16.94539
G1 X87.136 Y119.973 E16.96687
G1 X87.067 Y119.196 E16.99282
G1 X87.016 Y118.426 E17.01848
G1 X86.982 Y117.675 E17.04349
G1 X86.964 Y117.031 E17.06492
G1 X86.958 Y116.308 E17.08896
G1 X86.961 Y115.924 E17.10174
G1 X86.973 Y115.294 E17.12269
G1 X86.991 Y114.784 E17.13967
G1 X87.046 Y113.813 E17.17201
G1 X87.057 Y113.649 E17.17748
G1 X87.116 Y112.931 E17.20144
G1 X87.14 Y112.682 E17.20976
G1 X87.252 Y111.943 E17.23462
G1 X87.442 Y111.219 E17.25952
G1 X87.707 Y110.52 E17.28438
G1 X88.046 Y109.853 E17.30927
G1 X88.455 Y109.226 E17.33417
G1 X88.927 Y108.646 E17.35904
G1 X89.459 Y108.12 E17.38392
G1 X90.044 Y107.654 E17.4088
G0 F6000 X89.836 Y108.323
G1 F1200 X90.415 Y107.884 E17.43296
G1 X91.039 Y107.511 E17.45714
G1 X91.699 Y107.209 E17.48128
G1 X92.389 Y106.982 E17.50544
G1 X93.1 Y106.831 E17.52962
G1 X94.108 Y106.754 E17.56324
G1 X114.298 Y106.754 E18.23476
G1 X114.298 Y86.566 E18.90622
G1 X114.338 Y85.841 E18.93037
G1 X114.457 Y85.124 E18.95454
G1 X114.655 Y84.425 E18.97871
G1 X114.928 Y83.752 E19.00286
G1 X115.273 Y83.113 E19.02702
G1 X115.687 Y82.516 E19.05118
G1 X116.163 Y81.968 E19.07532
G1 X116.697 Y81.475 E19.0995
G1 X117.282 Y81.045 E19.12364
G1 X117.911 Y80.681 E19.14781
G1 X118.576 Y80.388 E19.17198
G1 X119.269 Y80.17 E19.19615
G1 X120.293 Y79.994 E19.2307
G1 X120.989 Y79.931 E19.25395
G1 X121.618 Y79.886 E19.27492
G1 X122.348 Y79.847 E19.29924
G1 X122.971 Y79.826 E19.31997
G1 X123.581 Y79.816 E19.34026
G1 X124.086 Y79.815 E19.35706
G1 X124.82 Y79.826 E19.38147
G1 X125.33 Y79.842 E19.39844
G1 X125.943 Y79.872 E19.41886
G1 X126.568 Y79.913 E19.43969
G1 X127.286 Y79.972 E19.46365
G1 X127.534 Y79.996 E19.47194
G1 X128.252 Y80.105 E19.49609
G1 X128.953 Y80.293 E19.52023
G1 X129.63 Y80.557 E19.5444
G1 X130.274 Y80.894 E19.56857
G1 X130.877 Y81.299 E19.59273
G1 X131.431 Y81.768 E19.61688
G1 X131.931 Y82.295 E19.64104
G1 X132.37 Y82.874 E19.66521
G1 X132.742 Y83.498 E19.68937
G1 X133.044 Y84.159 E19.71354
G1 X133.271 Y84.848 E19.73767
G1 X133.421 Y85.559 E19.76184
G1 X133.498 Y86.565 E19.79539
G1 X133.498 Y119.354 E20.88596
G1 X133.458 Y120.079 E20.91011
G1 X133.339 Y120.796 E20.93428
G1 X133.141 Y121.495 E20.95845
G1 X132.868 Y122.168 E20.9826
G1 X132.523 Y122.807 E21.00676
G1 X132.109 Y123.404 E21.03092
G1 X131.633 Y123.952 E21.05506
G1 X131.099 Y124.445 E21.07923
G1 X130.514 Y124.875 E21.10338
G1 X129.885 Y125.239 E21.12755
G1 X129.22 Y125.532 E21.15172
G1 X128.527 Y125.75 E21.17589
G1 X127.815 Y125.89 E21.20002
G1 X126.898 Y125.954 E21.23059
G1 X94.109 Y125.954 E22.32116
G1 X93.384 Y125.914 E22.34531
G1 X92.667 Y125.795 E22.36949
G1 X91.968 Y125.597 E22.39365
G1 X91.295 Y125.324 E22.4178
G1 X90.656 Y124.979 E22.44196
G1 X90.059 Y124.565 E22.46612
G1 X89.511 Y124.089 E22.49026
G1 X89.018 Y123.555 E22.51444
G1 X88.588 Y122.97 E22.53858
G1 X88.224 Y122.341 E22.56276
G1 X87.931 Y121.676 E22.58692
G1 X87.713 Y120.983 E22.61109
G1 X87.535 Y119.938 E22.64635
G1 X87.466 Y119.161 E22.67229
G1 X87.415 Y118.4 E22.69766
G1 X87.407 Y118.26 E22.70232
G1 X87.382 Y117.663 E22.7222
G1 X87.364 Y117.027 E22.74336
G1 X87.358 Y116.311 E22.76717
G1 X87.361 Y115.931 E22.77981
G1 X87.373 Y115.308 E22.80054
G1 X87.398 Y114.651 E22.8224
G1 X87.445 Y113.837 E22.84952
G1 X87.506 Y113.067 E22.87521
G1 X87.538 Y112.721 E22.88677
G1 X87.648 Y112.003 E22.91093
G1 X87.835 Y111.301 E22.93509
G1 X88.099 Y110.624 E22.95926
G1 X88.435 Y109.98 E22.98342
G1 X88.84 Y109.377 E23.00758
G1 X89.309 Y108.823 E23.03172
G1 X89.836 Y108.323 E23.05588
G0 F6000 X90.212 Y108.531
G1 F1200 X90.784 Y108.12 E23.07931
G1 X91.399 Y107.777 E23.10273
G1 X92.048 Y107.506 E23.12612
G1 X92.725 Y107.31 E23.14957
G1 X93.419 Y107.192 E23.17298
G1 X94.108 Y107.154 E23.19593
G1 X114.698 Y107.154 E23.88076
G1 X114.698 Y86.566 E24.56552
G1 X114.738 Y85.863 E24.58894
G1 X114.857 Y85.169 E24.61236
G1 X115.055 Y84.494 E24.63575
G1 X115.327 Y83.845 E24.65916
G1 X115.672 Y83.231 E24.68258
G1 X116.083 Y82.66 E24.70598
G1 X116.557 Y82.139 E24.72941
G1 X117.087 Y81.675 E24.75284
G1 X117.666 Y81.275 E24.77624
G1 X118.287 Y80.943 E24.79967
G1 X118.941 Y80.683 E24.82307
G1 X119.621 Y80.499 E24.8465
G1 X120.33 Y80.392 E24.87035
G1 X121.018 Y80.33 E24.89333
G1 X121.639 Y80.285 E24.91404
G1 X122.362 Y80.247 E24.93812
G1 X122.978 Y80.226 E24.95862
G1 X123.582 Y80.216 E24.97871
G1 X124.087 Y80.215 E24.99551
G1 X124.813 Y80.226 E25.01965
G1 X125.312 Y80.242 E25.03626
G1 X125.918 Y80.271 E25.05644
G1 X126.536 Y80.311 E25.07704
G1 X127.247 Y80.37 E25.10077
G1 X127.495 Y80.394 E25.10905
G1 X128.191 Y80.501 E25.13247
G1 X128.87 Y80.687 E25.15589
G1 X129.524 Y80.948 E25.17931
G1 X130.143 Y81.282 E25.2027
G1 X130.721 Y81.684 E25.22612
G1 X131.25 Y82.149 E25.24955
G1 X131.723 Y82.671 E25.27298
G1 X132.133 Y83.243 E25.29638
G1 X132.476 Y83.858 E25.3198
G1 X132.747 Y84.508 E25.34323
G1 X132.942 Y85.184 E25.36663
G1 X133.06 Y85.878 E25.39004
G1 X133.098 Y86.565 E25.41293
G1 X133.098 Y119.354 E26.50349
G1 X133.058 Y120.057 E26.52691
G1 X132.939 Y120.751 E26.55033
G1 X132.741 Y121.426 E26.57373
G1 X132.469 Y122.075 E26.59713
G1 X132.124 Y122.689 E26.62056
G1 X131.713 Y123.26 E26.64396
G1 X131.239 Y123.781 E26.66738
G1 X130.709 Y124.245 E26.69081
G1 X130.13 Y124.645 E26.71422
G1 X129.509 Y124.977 E26.73764
G1 X128.855 Y125.237 E26.76105
G1 X128.175 Y125.421 E26.78448
G1 X127.479 Y125.527 E26.8079
G1 X126.898 Y125.554 E26.82724
G1 X94.109 Y125.554 E27.91781
G1 X93.406 Y125.514 E27.94123
G1 X92.712 Y125.395 E27.96465
G1 X92.037 Y125.197 E27.98804
G1 X91.388 Y124.925 E28.01145
G1 X90.774 Y124.58 E28.03487
G1 X90.203 Y124.169 E28.05827
G1 X89.682 Y123.695 E28.0817
G1 X89.218 Y123.165 E28.10513
G1 X88.818 Y122.586 E28.12853
G1 X88.486 Y121.965 E28.15195
G1 X88.226 Y121.311 E28.17536
G1 X88.042 Y120.631 E28.19879
G1 X87.933 Y119.902 E28.22331
G1 X87.864 Y119.125 E28.24925
G1 X87.814 Y118.374 E28.27429
G1 X87.785 Y117.736 E28.29553
G1 X87.764 Y117.023 E28.31925
G1 X87.758 Y116.313 E28.34287
G1 X87.761 Y115.938 E28.35534
G1 X87.773 Y115.322 E28.37583
G1 X87.797 Y114.674 E28.3974
G1 X87.854 Y113.714 E28.42939
G1 X87.913 Y113.008 E28.45295
G1 X87.937 Y112.759 E28.46127
G1 X88.044 Y112.063 E28.48469
G1 X88.229 Y111.384 E28.5081
G1 X88.49 Y110.731 E28.53149
G1 X88.824 Y110.111 E28.55491
G1 X89.226 Y109.532 E28.57836
G1 X89.69 Y109.004 E28.60174
G1 X90.212 Y108.531 E28.62516
G0 F6000 X90.586 Y108.745
G1 F1200 X91.151 Y108.365 E28.64781
G1 X91.756 Y108.052 E28.67047
G1 X92.393 Y107.813 E28.6931
G1 X93.055 Y107.65 E28.71577
G1 X93.73 Y107.566 E28.7384
G1 X94.108 Y107.554 E28.75097
G1 X115.098 Y107.554 E29.4491
G1 X115.098 Y86.566 E30.14717
G1 X115.138 Y85.886 E30.16982
G1 X115.257 Y85.216 E30.19246
G1 X115.454 Y84.564 E30.21511
G1 X115.726 Y83.94 E30.23775
G1 X116.07 Y83.352 E30.26041
G1 X116.48 Y82.808 E30.28307
G1 X116.951 Y82.317 E30.3057
G1 X117.476 Y81.883 E30.32835
