;FLAVOR:Marlin
;TIME:8425
;Filament used: 5.61744m
;Layer height: 0.28
;MINX:82.8
;MINY:85.944
;MINZ:0.336
;MAXX:137.185
;MAXY:133.192
;MAXZ:21.346
;Generated with Cura_SteamEngine 4.9.0
M140 S60
M105
M190 S60
M104 S200
M105
M109 S200
M82 ;absolute extrusion mode
; Ender 3 Custom Start G-code
G92 E0 ; Reset Extruder
G28 ; Home all axes
G1 Z2.0 F3000 ; Move Z Axis up little to prevent scratching of Heat Bed
G1 X0.1 Y20 Z0.3 F5000.0 ; Move to start position
G1 X0.1 Y200.0 Z0.3 F1500.0 E15 ; Draw the first line
G1 X0.4 Y200.0 Z0.3 F5000.0 ; Move to side a little
G1 X0.4 Y20 Z0.3 F1500.0 E30 ; Draw the second line
G92 E0 ; Reset Extruder
G1 Z2.0 F3000 ; Move Z Axis up little to prevent scratching of Heat Bed
G1 X5 Y20 Z0.3 F5000.0 ; Move over to prevent blob squish
G92 E0
G92 E0
G1 F1500 E-6.5
;LAYER_COUNT:71
;LAYER:-6
M107
G0 F9000 X96.347 Y87.825 Z0.336
;TYPE:SUPPORT-INTERFACE
G1 F1500 E0
G1 F1125 X96.392 Y87.78 E0.00711
G1 X96.659 Y87.546 E0.04679
G1 X96.696 Y87.518 E0.05197
G1 X97.017 Y87.318 E0.09424
G1 X97.062 Y87.295 E0.09989
G1 X97.411 Y87.15 E0.14212
G1 X97.684 Y87.073 E0.17382
G1 X98.112 Y87.023 E0.22198
G1 X98.38 Y87.008 E0.25197
G1 X121.645 Y87.008 E2.85193
G1 X122.008 Y87.029 E2.89257
G1 X122.377 Y87.09 E2.93436
G1 X122.428 Y87.103 E2.94025
G1 X122.774 Y87.219 E2.98103
G1 X122.823 Y87.241 E2.98703
G1 X123.162 Y87.421 E3.02992
G1 X123.193 Y87.441 E3.03405
G1 X123.492 Y87.67 E3.07614
G1 X123.7 Y87.876 E3.10885
G1 X123.964 Y88.231 E3.15829
G1 X124.099 Y88.436 E3.18572
G1 X135.734 Y108.588 E5.7862
G1 X135.9 Y108.918 E5.82748
G1 X136.03 Y109.265 E5.86889
G1 X136.044 Y109.311 E5.87427
G1 X136.118 Y109.684 E5.91676
G1 X136.122 Y109.718 E5.92059
G1 X136.135 Y110.099 E5.96319
G1 X136.133 Y110.145 E5.96834
G1 X136.083 Y110.528 E6.0115
G1 X136.011 Y110.801 E6.04305
G1 X135.837 Y111.206 E6.09231
G1 X135.721 Y111.436 E6.1211
G1 X124.082 Y131.592 E8.72219
G1 X123.895 Y131.878 E8.76038
G1 X123.652 Y132.175 E8.80326
G1 X123.609 Y132.218 E8.81006
G1 X123.34 Y132.454 E8.85005
G1 X123.303 Y132.482 E8.85523
G1 X122.982 Y132.682 E8.8975
G1 X122.937 Y132.705 E8.90315
G1 X122.588 Y132.85 E8.94538
G1 X122.315 Y132.927 E8.97708
G1 X121.887 Y132.977 E9.02524
G1 X121.619 Y132.992 E9.05523
G1 X98.354 Y132.992 E11.65519
G1 X97.991 Y132.971 E11.69583
G1 X97.622 Y132.91 E11.73762
G1 X97.571 Y132.897 E11.74351
G1 X97.225 Y132.781 E11.78429
G1 X97.176 Y132.759 E11.79029
G1 X96.837 Y132.579 E11.83318
G1 X96.806 Y132.559 E11.83731
G1 X96.507 Y132.33 E11.8794
G1 X96.292 Y132.117 E11.91322
G1 X96.04 Y131.776 E11.9606
G1 X95.897 Y131.558 E11.98974
G1 X84.264 Y111.41 E14.58972
G1 X84.1 Y111.082 E14.6307
G1 X83.97 Y110.735 E14.67211
G1 X83.956 Y110.689 E14.67748
G1 X83.884 Y110.327 E14.71873
G1 X83.877 Y110.27 E14.72515
G1 X83.865 Y109.899 E14.76663
G1 X83.867 Y109.854 E14.77166
G1 X83.916 Y109.479 E14.81393
G1 X83.989 Y109.199 E14.84627
G1 X84.166 Y108.789 E14.89617
G1 X84.279 Y108.564 E14.92431
G1 X95.917 Y88.408 E17.52534
G1 X96.104 Y88.122 E17.56353
G1 X96.347 Y87.825 E17.60641
G0 F9000 X96 Y88.281
G1 F1125 X96 Y131.715 E22.46034
G0 F9000 X97.6 Y132.904
G1 F1125 X97.6 Y87.096 E27.57957
G0 F9000 X99.2 Y87.008
G1 F1125 X99.2 Y132.992 E32.71847
G0 F9000 X100.8 Y132.992
G1 F1125 X100.8 Y87.008 E37.85737
G0 F9000 X102.4 Y87.008
G1 F1125 X102.4 Y132.992 E42.99626
G0 F9000 X104 Y132.992
G1 F1125 X104 Y87.008 E48.13516
G0 F9000 X105.6 Y87.008
G1 F1125 X105.6 Y132.992 E53.27406
G0 F9000 X107.2 Y132.992
G1 F1125 X107.2 Y87.008 E58.41296
G0 F9000 X108.8 Y87.008
G1 F1125 X108.8 Y132.992 E63.55186
G0 F9000 X110.4 Y132.992
G1 F1125 X110.4 Y87.008 E68.69076
G0 F9000 X112 Y87.008
G1 F1125 X112 Y132.992 E73.82965
G0 F9000 X113.6 Y132.992
G1 F1125 X113.6 Y87.008 E78.96855
G0 F9000 X115.2 Y87.008
G1 F1125 X115.2 Y132.992 E84.10745
G0 F9000 X116.8 Y132.992
G1 F1125 X116.8 Y87.008 E89.24635
G0 F9000 X118.4 Y87.008
G1 F1125 X118.4 Y132.992 E94.38525
G0 F9000 X120 Y132.992
G1 F1125 X120 Y87.008 E99.52415
G0 F9000 X121.6 Y87.008
G1 F1125 X121.6 Y132.992 E104.66305
G0 F9000 X123.2 Y132.547
G1 F1125 X123.2 Y87.447 E109.70315
G0 F9000 X124.8 Y89.651
G1 F1125 X124.8 Y130.349 E114.25132
G0 F9000 X126.4 Y127.578
G1 F1125 X126.4 Y92.422 E118.18014
G0 F9000 X128 Y95.193
G1 F1125 X128 Y124.807 E121.48963
G0 F9000 X129.6 Y122.037
G1 F1125 X129.6 Y97.964 E124.17988
G0 F9000 X131.2 Y100.736
G1 F1125 X131.2 Y119.266 E126.25069
G0 F9000 X132.8 Y116.495
G1 F1125 X132.8 Y103.507 E127.70215
G0 F9000 X134.4 Y106.278
G1 F1125 X134.4 Y113.724 E128.53427
G0 F9000 X136 Y110.827
G1 F1125 X136 Y109.185 E128.71777
G1 F1500 E122.21777
G0 F9000 X136.877 Y108.495
G0 X124.83 Y87.612
G0 X124.173 Y86.851
G0 X123.285 Y86.282
G0 X122.592 Y86.046
G0 X121.673 Y85.944
G0 X98.021 Y85.963
G0 X97.21 Y86.096
G0 X96.498 Y86.388
G0 X95.654 Y87.012
G0 X95.132 Y87.692
G0 X93.478 Y90.503
G0 X94.4 Y91.035
G1 F1500 E128.71777
G1 F1125 X94.4 Y128.965 E132.9566
G0 F9000 X92.8 Y126.194
G1 F1125 X92.8 Y93.806 E136.57609
G0 F9000 X91.2 Y96.577
G1 F1125 X91.2 Y123.422 E139.57613
G0 F9000 X89.6 Y120.651
G1 F1125 X89.6 Y99.348 E141.95683
G0 F9000 X88 Y102.119
G1 F1125 X88 Y117.88 E143.71818
G0 F9000 X86.4 Y115.109
G1 F1125 X86.4 Y104.89 E144.8602
G0 F9000 X84.8 Y107.661
G1 F1125 X84.8 Y112.338 E145.38287
G1 F1500 E138.88287
G0 F300 X84.8 Y112.338 Z0.756
G0 F9000 X83.879 Y112.871
G0 X94.557 Y131.366
G0 X95.478 Y130.833
;TIME_ELAPSED:80.769791
;LAYER:-5
;TYPE:SUPPORT
G1 F1500 E145.38287
G1 F1125 X97.525 Y132.88 E145.78726
G1 X97.57 Y132.896 E145.79394
G1 X97.621 Y132.909 E145.80129
G1 X97.99 Y132.97 E145.85353
G1 X98.135 Y132.982 E145.87386
G1 X98.354 Y132.991 E145.90448
G1 X99.05 Y132.991 E146.0017
G1 X93.546 Y127.487 E147.08905
G1 X91.614 Y124.141 E147.62878
G1 X100.464 Y132.991 E149.37714
G1 X101.878 Y132.991 E149.57467
G1 X89.683 Y120.795 E151.98395
G1 X87.75 Y117.449 E152.52376
G1 X103.292 Y132.991 E155.59416
G1 X104.706 Y132.991 E155.79168
G1 X85.818 Y114.102 E159.5232
G1 X84.263 Y111.409 E159.95761
G1 X84.167 Y111.224 E159.98672
G1 X84.099 Y111.081 E160.00884
G1 X84.033 Y110.903 E160.03536
G1 X106.121 Y132.991 E164.39896
G1 X107.535 Y132.991 E164.59648
G1 X83.934 Y109.39 E169.25898
G1 X83.937 Y109.378 E169.26071
G1 X83.988 Y109.198 E169.28684
G1 X84.165 Y108.788 E169.34923
G1 X84.278 Y108.563 E169.3844
G1 X84.367 Y108.408 E169.40937
G1 X108.949 Y132.991 E174.26577
G1 X110.363 Y132.991 E174.46329
G1 X84.885 Y107.512 E179.4967
G1 X85.402 Y106.616 E179.6412
G1 X111.778 Y132.991 E184.85182
G1 X113.192 Y132.991 E185.04935
G1 X85.92 Y105.719 E190.43707
G1 X86.438 Y104.822 E190.58177
G1 X114.606 Y132.991 E196.1466
G1 X116.02 Y132.991 E196.34412
G1 X86.955 Y103.926 E202.08606
G1 X87.473 Y103.029 E202.23076
G1 X117.434 Y132.991 E208.14981
G1 X118.849 Y132.991 E208.34747
G1 X87.99 Y102.133 E214.44373
G1 X88.508 Y101.236 E214.58842
G1 X120.263 Y132.991 E220.86179
G1 X121.619 Y132.991 E221.05121
G1 X121.673 Y132.987 E221.05877
G1 X89.026 Y100.339 E227.50845
G1 X89.543 Y99.443 E227.65296
G1 X122.843 Y132.743 E234.23155
G1 X122.936 Y132.704 E234.24563
G1 X122.982 Y132.68 E234.25288
G1 X123.303 Y132.481 E234.30564
G1 X123.339 Y132.453 E234.31201
G1 X123.609 Y132.217 E234.36211
G1 X123.652 Y132.174 E234.3706
G1 X123.669 Y132.154 E234.37427
G1 X90.061 Y98.546 E241.0137
G1 X90.578 Y97.65 E241.15821
G1 X124.242 Y131.313 E247.8086
G1 X124.76 Y130.417 E247.95318
G1 X91.097 Y96.754 E254.60348
G1 X91.614 Y95.857 E254.7481
G1 X125.278 Y129.52 E261.3985
G1 X125.795 Y128.624 E261.54301
G1 X92.132 Y94.96 E268.1934
G1 X92.65 Y94.064 E268.33798
G1 X126.313 Y127.727 E274.98828
G1 X126.83 Y126.83 E275.13291
G1 X93.167 Y93.167 E281.7832
G1 X93.685 Y92.271 E281.92778
G1 X127.348 Y125.934 E288.57808
G1 X127.866 Y125.037 E288.72278
G1 X94.202 Y91.374 E295.37317
G1 X94.72 Y90.477 E295.51787
G1 X128.384 Y124.141 E302.16836
G1 X128.902 Y123.245 E302.31294
G1 X95.238 Y89.581 E308.96344
G1 X95.755 Y88.684 E309.10806
G1 X129.419 Y122.348 E315.75856
G1 X129.937 Y121.451 E315.90326
G1 X96.329 Y87.844 E322.54259
G1 X96.346 Y87.825 E322.54615
G1 X96.391 Y87.78 E322.55504
G1 X96.657 Y87.546 E322.60453
G1 X96.694 Y87.517 E322.6111
G1 X97.016 Y87.317 E322.66405
G1 X97.061 Y87.295 E322.67105
G1 X97.155 Y87.256 E322.68526
G1 X130.454 Y120.555 E329.26365
G1 X130.972 Y119.658 E329.40835
G1 X98.325 Y87.011 E335.85793
G1 X98.379 Y87.008 E335.86549
G1 X99.735 Y87.008 E336.05491
G1 X131.49 Y118.762 E342.32817
G1 X132.008 Y117.866 E342.47275
G1 X101.15 Y87.008 E348.56891
G1 X102.564 Y87.008 E348.76643
G1 X132.525 Y116.969 E354.68538
G1 X133.043 Y116.072 E354.83008
G1 X103.978 Y87.008 E360.57192
G1 X105.392 Y87.008 E360.76944
G1 X133.561 Y115.176 E366.33427
G1 X134.078 Y114.279 E366.4789
G1 X106.807 Y87.008 E371.86643
G1 X108.221 Y87.008 E372.06395
G1 X134.596 Y113.383 E377.27447
G1 X135.113 Y112.486 E377.4191
G1 X109.635 Y87.008 E382.45241
G1 X111.049 Y87.008 E382.64993
G1 X135.632 Y111.59 E387.50633
G1 X135.72 Y111.435 E387.53123
G1 X135.835 Y111.205 E387.56715
G1 X136.01 Y110.8 E387.62878
G1 X136.065 Y110.609 E387.65655
G1 X112.463 Y87.008 E392.31914
G1 X113.878 Y87.008 E392.51681
G1 X135.966 Y109.095 E396.88031
G1 X135.899 Y108.917 E396.90688
G1 X135.831 Y108.774 E396.929
G1 X135.733 Y108.587 E396.95849
G1 X134.178 Y105.894 E397.39289
G1 X115.292 Y87.008 E401.12392
G1 X116.706 Y87.008 E401.32144
G1 X132.245 Y102.547 E404.39125
G1 X130.314 Y99.201 E404.93091
G1 X118.12 Y87.008 E407.3398
G1 X119.534 Y87.008 E407.53733
G1 X128.381 Y95.854 E409.285
G1 X126.449 Y92.508 E409.82473
G1 X120.949 Y87.008 E410.91129
G1 X121.644 Y87.007 E411.00837
G1 X121.863 Y87.017 E411.039
G1 X122.007 Y87.029 E411.05918
G1 X122.376 Y87.09 E411.11143
G1 X122.427 Y87.102 E411.11875
G1 X122.474 Y87.119 E411.12573
G1 X122.773 Y87.218 E411.16973
G1 X122.822 Y87.24 E411.17723
G1 X123.161 Y87.421 E411.23091
G1 X123.192 Y87.44 E411.23599
G1 X123.491 Y87.67 E411.28869
G1 X123.553 Y87.725 E411.30027
G1 X123.699 Y87.875 E411.32951
G1 X123.963 Y88.23 E411.39131
G1 X124.097 Y88.435 E411.42552
G0 F9000 X124.517 Y89.161
G1 F1125 X122.474 Y87.119 E411.82903
G1 F1500 E405.32903
G0 F9000 X122.592 Y86.046
G0 X121.673 Y85.944
G0 X98.021 Y85.963
G0 X97.21 Y86.096
G0 X96.498 Y86.388
G0 X95.654 Y87.012
G0 X95.009 Y87.852
G0 X83.198 Y108.346
G0 X82.902 Y109.133
G0 X82.8 Y109.895
G0 X82.922 Y110.944
G0 X83.25 Y111.732
G0 X94.975 Y132.09
G0 X95.896 Y131.557
G1 F1500 E411.82903
G1 F1125 X96.039 Y131.775 E411.86545
G1 X96.291 Y132.116 E411.92468
G1 X96.445 Y132.272 E411.9553
G1 X96.507 Y132.329 E411.96706
G1 X96.805 Y132.558 E412.01956
G1 X96.836 Y132.578 E412.02472
G1 X97.176 Y132.757 E412.07839
G1 X97.225 Y132.779 E412.0859
G1 X97.525 Y132.88 E412.13012
G0 F300 X97.525 Y132.88 Z1.036
G0 F9000 X97.095 Y132.943
;TIME_ELAPSED:186.274240
;LAYER:-4
;TYPE:SUPPORT-INTERFACE
G1 F1500 X97.145 Y132.965 E412.13266
G1 X97.521 Y133.091 E412.15112
G1 X97.587 Y133.108 E412.1543
G1 X97.965 Y133.171 E412.17214
G1 X98.117 Y133.183 E412.17924
G1 X98.345 Y133.192 E412.18987
G1 X121.613 Y133.192 E413.27332
G1 X121.904 Y133.175 E413.28689
G1 X122.351 Y133.124 E413.30784
G1 X122.552 Y133.072 E413.31751
G1 X122.652 Y133.039 E413.32242
G1 X123.032 Y132.881 E413.34158
G1 X123.071 Y132.861 E413.34362
G1 X123.168 Y132.8 E413.34895
G1 X96.826 Y132.8 E414.57555
G1 X96.731 Y132.749 E414.58057
G1 X96.689 Y132.722 E414.58289
G1 X96.379 Y132.484 E414.60109
G1 X96.297 Y132.41 E414.60624
G1 X96.287 Y132.4 E414.60689
G1 X123.703 Y132.4 E415.8835
G1 X123.757 Y132.353 E415.88683
G1 X123.793 Y132.317 E415.8892
G1 X124.052 Y132 E415.90826
G1 X95.956 Y132 E417.21653
G1 X95.874 Y131.889 E417.22296
G1 X95.72 Y131.654 E417.23604
G1 X95.688 Y131.6 E417.23896
G1 X124.307 Y131.6 E418.57158
G1 X124.538 Y131.2 E418.59309
G1 X95.457 Y131.2 E419.94722
G1 X95.226 Y130.8 E419.96873
G1 X124.769 Y130.8 E421.34438
G1 X125 Y130.4 E421.36589
G1 X94.996 Y130.4 E422.763
G1 X94.765 Y130 E422.78451
G1 X125.231 Y130 E424.20313
G1 X125.462 Y129.6 E424.22464
G1 X94.534 Y129.6 E425.66478
G1 X94.303 Y129.2 E425.68629
G1 X125.693 Y129.2 E427.14794
G1 X125.924 Y128.8 E427.16945
G1 X94.072 Y128.8 E428.65261
G1 X93.841 Y128.4 E428.67412
G1 X126.155 Y128.4 E430.17879
G1 X126.386 Y128 E430.2003
G1 X93.61 Y128 E431.72649
G1 X93.379 Y127.6 E431.748
G1 X126.617 Y127.6 E433.2957
G1 X126.847 Y127.2 E433.31718
G1 X93.148 Y127.2 E434.88635
G1 X92.917 Y126.8 E434.90786
G1 X127.078 Y126.8 E436.49854
G1 X127.309 Y126.4 E436.52004
G1 X92.686 Y126.4 E438.13224
G1 X92.455 Y126 E438.15375
G1 X127.54 Y126 E439.78745
G1 X127.771 Y125.6 E439.80896
G1 X92.224 Y125.6 E441.46418
G1 X91.993 Y125.2 E441.48568
G1 X128.002 Y125.2 E443.16241
G1 X128.233 Y124.8 E443.18392
G1 X91.762 Y124.8 E444.88216
G1 X91.531 Y124.4 E444.90367
G1 X128.464 Y124.4 E446.62343
G1 X128.695 Y124 E446.64494
G1 X91.3 Y124 E448.3862
G1 X91.07 Y123.6 E448.40769
G1 X128.926 Y123.6 E450.17042
G1 X129.157 Y123.2 E450.19193
G1 X90.839 Y123.2 E451.97618
G1 X90.608 Y122.8 E451.99769
G1 X129.388 Y122.8 E453.80345
G1 X129.619 Y122.4 E453.82496
G1 X90.377 Y122.4 E455.65223
G1 X90.146 Y122 E455.67374
G1 X129.85 Y122 E457.52252
G1 X130.081 Y121.6 E457.54403
G1 X89.915 Y121.6 E459.41433
G1 X89.684 Y121.2 E459.43583
G1 X130.312 Y121.2 E461.32764
G1 X130.543 Y120.8 E461.34915
G1 X89.453 Y120.8 E463.26248
G1 X89.222 Y120.4 E463.28398
G1 X130.774 Y120.4 E465.21882
G1 X131.004 Y120 E465.2403
G1 X88.991 Y120 E467.19661
G1 X88.76 Y119.6 E467.21811
G1 X131.236 Y119.6 E469.19597
G1 X131.467 Y119.2 E469.21748
G1 X88.529 Y119.2 E471.21686
G1 X88.299 Y118.8 E471.23834
G1 X131.698 Y118.8 E473.25918
G1 X131.929 Y118.4 E473.28069
G1 X88.068 Y118.4 E475.32304
G1 X87.837 Y118 E475.34455
G1 X132.16 Y118 E477.40841
G1 X132.391 Y117.6 E477.42992
G1 X87.606 Y117.6 E479.5153
G1 X87.376 Y117.2 E479.53678
G1 X132.622 Y117.2 E481.64363
G1 X132.853 Y116.8 E481.66514
G1 X87.145 Y116.8 E483.79349
G1 X86.914 Y116.4 E483.815
G1 X133.084 Y116.4 E485.96487
G1 X133.315 Y116 E485.98638
G1 X86.683 Y116 E488.15776
G1 X86.452 Y115.6 E488.17927
G1 X133.546 Y115.6 E490.37216
G1 X133.777 Y115.2 E490.39367
G1 X86.221 Y115.2 E492.60808
G1 X85.99 Y114.8 E492.62959
G1 X134.008 Y114.8 E494.8655
G1 X134.239 Y114.4 E494.88701
G1 X85.759 Y114.4 E497.14444
G1 X85.528 Y114 E497.16595
G1 X134.47 Y114 E499.4449
G1 X134.701 Y113.6 E499.46641
G1 X85.297 Y113.6 E501.76686
G1 X85.066 Y113.2 E501.78837
G1 X134.931 Y113.2 E504.1103
G1 X135.162 Y112.8 E504.1318
G1 X84.835 Y112.8 E506.47524
G1 X84.604 Y112.4 E506.49675
G1 X135.393 Y112.4 E508.8617
G1 X135.624 Y112 E508.88321
G1 X84.373 Y112 E511.26967
G1 X84.142 Y111.6 E511.29117
G1 X135.855 Y111.6 E513.69915
G1 X135.895 Y111.532 E513.70282
G1 X136.021 Y111.282 E513.71586
G1 X136.056 Y111.2 E513.72001
G1 X83.934 Y111.2 E516.14703
G1 X83.916 Y111.16 E516.14907
G1 X83.78 Y110.8 E516.16699
G1 X136.218 Y110.8 E518.60872
G1 X136.262 Y110.645 E518.61623
G1 X136.283 Y110.544 E518.62103
G1 X136.301 Y110.4 E518.62779
G1 X83.694 Y110.4 E521.07739
G1 X83.685 Y110.355 E521.07953
G1 X83.677 Y110.279 E521.08308
G1 X83.668 Y110 E521.09608
G1 X136.333 Y110 E523.54839
G1 X136.323 Y109.719 E523.56148
G1 X136.314 Y109.639 E523.56523
G1 X136.307 Y109.6 E523.56707
G1 X83.698 Y109.6 E526.01677
G1 X83.718 Y109.445 E526.02404
G1 X83.74 Y109.347 E526.02872
G1 X83.782 Y109.2 E526.03584
G1 X136.22 Y109.2 E528.47757
G0 F9000 X136.219 Y109.197
G1 F1500 X136.084 Y108.839 E528.49539
G1 X136.066 Y108.8 E528.49739
G1 X83.944 Y108.8 E530.92441
G1 X83.979 Y108.717 E530.9286
G1 X84.105 Y108.467 E530.94164
G1 X84.144 Y108.4 E530.94525
G1 X135.858 Y108.4 E533.35327
G1 X135.627 Y108 E533.37478
G1 X84.375 Y108 E535.76129
G1 X84.606 Y107.6 E535.78279
G1 X135.396 Y107.6 E538.14779
G1 X135.165 Y107.2 E538.1693
G1 X84.837 Y107.2 E540.51278
G1 X85.068 Y106.8 E540.53429
G1 X134.934 Y106.8 E542.85626
G1 X134.703 Y106.4 E542.87777
G1 X85.299 Y106.4 E545.17822
G1 X85.53 Y106 E545.19973
G1 X134.472 Y106 E547.47868
G1 X134.241 Y105.6 E547.50019
G1 X85.761 Y105.6 E549.75762
G1 X85.992 Y105.2 E549.77913
G1 X134.01 Y105.2 E552.01504
G1 X133.779 Y104.8 E552.03655
G1 X86.223 Y104.8 E554.25096
G1 X86.454 Y104.4 E554.27247
G1 X133.548 Y104.4 E556.46536
G1 X133.317 Y104 E556.48687
