;FLAVOR:Marlin
;TIME:3980
;Filament used: 1.63125m
;Layer height: 0.12
;MINX:92.2
;MINY:92.2
;MINZ:0.12
;MAXX:127.8
;MAXY:127.8
;MAXZ:19.92
;Generated with Cura_SteamEngine 4.8.0
M140 S60
M105
M190 S60
M104 S200
M105
M109 S200
M82 ;absolute extrusion mode
; Ender 3 Custom Start G-code
G92 E0 ; Reset Extruder
G28 ; Home all axes
G1 Z2.0 F3000 ; Move Z Axis up little to prevent scratching of Heat Bed
G1 X0.1 Y20 Z0.3 F5000.0 ; Move to start position
G1 X0.1 Y200.0 Z0.3 F1500.0 E15 ; Draw the first line
G1 X0.4 Y200.0 Z0.3 F5000.0 ; Move to side a little
G1 X0.4 Y20 Z0.3 F1500.0 E30 ; Draw the second line
G92 E0 ; Reset Extruder
G1 Z2.0 F3000 ; Move Z Axis up little to prevent scratching of Heat Bed
G1 X5 Y20 Z0.3 F5000.0 ; Move over to prevent blob squish
G92 E0
G92 E0
G1 F1500 E-6.5
;LAYER_COUNT:166
;LAYER:0
M107
G0 F6000 X94.623 Y94.349 Z0.12
;TYPE:SKIRT
G1 F1500 E0
G1 F1200 X95.222 Y93.834 E0.01576
G1 X95.87 Y93.383 E0.03152
G1 X96.561 Y92.999 E0.0473
G1 X97.286 Y92.687 E0.06305
G1 X98.039 Y92.45 E0.0788
G1 X98.813 Y92.291 E0.09457
G1 X99.598 Y92.21 E0.11032
G1 X100 Y92.2 E0.11834
G1 X120 Y92.2 E0.51746
G1 X120.789 Y92.24 E0.53323
G1 X121.569 Y92.359 E0.54898
G1 X122.334 Y92.557 E0.56474
G1 X123.074 Y92.831 E0.58049
G1 X123.783 Y93.179 E0.59625
G1 X124.454 Y93.597 E0.61203
G1 X125.078 Y94.08 E0.62778
G1 X125.651 Y94.623 E0.64353
G1 X126.166 Y95.222 E0.65929
G1 X126.617 Y95.87 E0.67505
G1 X127.001 Y96.561 E0.69083
G1 X127.313 Y97.286 E0.70658
G1 X127.55 Y98.039 E0.72233
G1 X127.709 Y98.813 E0.7381
G1 X127.79 Y99.598 E0.75385
G1 X127.8 Y100 E0.76187
G1 X127.8 Y120 E1.16099
G1 X127.76 Y120.789 E1.17676
G1 X127.641 Y121.569 E1.19251
G1 X127.443 Y122.334 E1.20828
G1 X127.169 Y123.074 E1.22402
G1 X126.821 Y123.783 E1.23978
G1 X126.403 Y124.454 E1.25556
G1 X125.92 Y125.078 E1.27131
G1 X125.377 Y125.651 E1.28706
G1 X124.778 Y126.166 E1.30283
G1 X124.13 Y126.617 E1.31858
G1 X123.439 Y127.001 E1.33436
G1 X122.714 Y127.313 E1.35011
G1 X121.961 Y127.55 E1.36586
G1 X121.187 Y127.709 E1.38163
G1 X120.402 Y127.79 E1.39738
G1 X120 Y127.8 E1.4054
G1 X100 Y127.8 E1.80452
G1 X99.211 Y127.76 E1.82029
G1 X98.431 Y127.641 E1.83604
G1 X97.666 Y127.443 E1.85181
G1 X96.926 Y127.169 E1.86755
G1 X96.217 Y126.821 E1.88331
G1 X95.546 Y126.403 E1.89909
G1 X94.922 Y125.92 E1.91484
G1 X94.349 Y125.377 E1.93059
G1 X93.834 Y124.778 E1.94636
G1 X93.383 Y124.13 E1.96211
G1 X92.999 Y123.439 E1.97789
G1 X92.687 Y122.714 E1.99364
G1 X92.45 Y121.961 E2.00939
G1 X92.291 Y121.187 E2.02516
G1 X92.21 Y120.402 E2.04091
G1 X92.2 Y120 E2.04893
G1 X92.2 Y100 E2.44806
G1 X92.24 Y99.211 E2.46382
G1 X92.359 Y98.431 E2.47957
G1 X92.557 Y97.666 E2.49534
G1 X92.831 Y96.926 E2.51108
G1 X93.179 Y96.217 E2.52684
G1 X93.597 Y95.546 E2.54262
G1 X94.08 Y94.922 E2.55837
G1 X94.623 Y94.349 E2.57412
G0 F6000 X95.016 Y94.53
G1 F1200 X95.611 Y94.042 E2.58948
G1 X96.253 Y93.619 E2.60482
G1 X96.936 Y93.264 E2.62018
G1 X97.651 Y92.983 E2.63551
G1 X98.393 Y92.777 E2.65088
G1 X99.151 Y92.649 E2.66622
G1 X100 Y92.6 E2.68319
G1 X120 Y92.6 E3.08231
G1 X120.768 Y92.64 E3.09766
G1 X121.528 Y92.759 E3.11301
G1 X122.271 Y92.957 E3.12836
G1 X122.99 Y93.231 E3.14371
G1 X123.676 Y93.578 E3.15905
G1 X124.323 Y93.994 E3.1744
G1 X124.923 Y94.475 E3.18975
G1 X125.47 Y95.016 E3.2051
G1 X125.958 Y95.611 E3.22046
G1 X126.381 Y96.253 E3.2358
G1 X126.736 Y96.936 E3.25116
G1 X127.017 Y97.651 E3.2665
G1 X127.223 Y98.393 E3.28186
G1 X127.351 Y99.151 E3.2972
G1 X127.4 Y100 E3.31417
G1 X127.4 Y120 E3.7133
G1 X127.36 Y120.768 E3.72864
G1 X127.241 Y121.528 E3.74399
G1 X127.043 Y122.271 E3.75934
G1 X126.769 Y122.99 E3.77469
G1 X126.422 Y123.676 E3.79004
G1 X126.006 Y124.323 E3.80539
G1 X125.525 Y124.923 E3.82073
G1 X124.984 Y125.47 E3.83609
G1 X124.389 Y125.958 E3.85144
G1 X123.747 Y126.381 E3.86678
G1 X123.064 Y126.736 E3.88215
G1 X122.349 Y127.017 E3.89748
G1 X121.607 Y127.223 E3.91284
G1 X120.849 Y127.351 E3.92819
G1 X120 Y127.4 E3.94516
G1 X100 Y127.4 E4.34428
G1 X99.232 Y127.36 E4.35962
G1 X98.472 Y127.241 E4.37498
G1 X97.729 Y127.043 E4.39032
G1 X97.01 Y126.769 E4.40568
G1 X96.324 Y126.422 E4.42102
G1 X95.677 Y126.006 E4.43637
G1 X95.077 Y125.525 E4.45171
G1 X94.53 Y124.984 E4.46707
G1 X94.042 Y124.389 E4.48242
G1 X93.619 Y123.747 E4.49777
G1 X93.264 Y123.064 E4.51313
G1 X92.983 Y122.349 E4.52846
G1 X92.777 Y121.607 E4.54383
G1 X92.649 Y120.849 E4.55917
G1 X92.6 Y120 E4.57614
G1 X92.6 Y100 E4.97526
G1 X92.64 Y99.232 E4.99061
G1 X92.759 Y98.472 E5.00596
G1 X92.957 Y97.729 E5.0213
G1 X93.231 Y97.01 E5.03666
G1 X93.578 Y96.324 E5.052
G1 X93.994 Y95.677 E5.06735
G1 X94.475 Y95.077 E5.0827
G1 X95.016 Y94.53 E5.09805
G0 F6000 X95.408 Y94.716
G1 F1200 X95.998 Y94.257 E5.11297
G1 X96.634 Y93.862 E5.12791
G1 X97.308 Y93.538 E5.14283
G1 X98.013 Y93.288 E5.15776
G1 X98.741 Y93.114 E5.1727
G1 X99.483 Y93.019 E5.18762
G1 X100 Y93 E5.19795
G1 X120 Y93 E5.59707
G1 X120.747 Y93.04 E5.612
G1 X121.485 Y93.159 E5.62692
G1 X122.207 Y93.357 E5.64186
G1 X122.903 Y93.63 E5.65678
G1 X123.566 Y93.977 E5.67171
G1 X124.189 Y94.392 E5.68665
G1 X124.763 Y94.871 E5.70157
G1 X125.284 Y95.408 E5.7165
G1 X125.743 Y95.998 E5.73142
G1 X126.138 Y96.634 E5.74636
G1 X126.462 Y97.308 E5.76128
G1 X126.712 Y98.013 E5.77621
G1 X126.886 Y98.741 E5.79115
G1 X126.981 Y99.483 E5.80607
G1 X127 Y100 E5.8164
G1 X127 Y120 E6.21552
G1 X126.96 Y120.747 E6.23045
G1 X126.841 Y121.485 E6.24537
G1 X126.643 Y122.207 E6.26031
G1 X126.37 Y122.903 E6.27523
G1 X126.023 Y123.566 E6.29016
G1 X125.608 Y124.189 E6.3051
G1 X125.129 Y124.763 E6.32002
G1 X124.592 Y125.284 E6.33495
G1 X124.002 Y125.743 E6.34987
G1 X123.366 Y126.138 E6.36481
G1 X122.692 Y126.462 E6.37973
G1 X121.987 Y126.712 E6.39466
G1 X121.259 Y126.886 E6.4096
G1 X120.517 Y126.981 E6.42452
G1 X120 Y127 E6.43485
G1 X100 Y127 E6.83397
G1 X99.253 Y126.96 E6.8489
G1 X98.515 Y126.841 E6.86382
G1 X97.793 Y126.643 E6.87876
G1 X97.097 Y126.37 E6.89368
G1 X96.434 Y126.023 E6.90861
G1 X95.811 Y125.608 E6.92355
G1 X95.237 Y125.129 E6.93847
G1 X94.716 Y124.592 E6.9534
G1 X94.257 Y124.002 E6.96832
G1 X93.862 Y123.366 E6.98326
G1 X93.538 Y122.692 E6.99818
G1 X93.288 Y121.987 E7.01311
G1 X93.114 Y121.259 E7.02804
G1 X93.019 Y120.517 E7.04297
G1 X93 Y120 E7.0533
G1 X93 Y100 E7.45242
G1 X93.04 Y99.253 E7.46735
G1 X93.159 Y98.515 E7.48227
G1 X93.357 Y97.793 E7.49721
G1 X93.63 Y97.097 E7.51213
G1 X93.977 Y96.434 E7.52706
G1 X94.392 Y95.811 E7.542
G1 X94.871 Y95.237 E7.55692
G1 X95.408 Y94.716 E7.57185
G0 F6000 X95.265 Y95.402
G1 F1200 X95.799 Y94.909 E7.58635
G1 X96.384 Y94.479 E7.60084
G1 X97.013 Y94.115 E7.61534
G1 X97.678 Y93.822 E7.62984
G1 X98.371 Y93.604 E7.64434
G1 X99.083 Y93.464 E7.65882
G1 X100 Y93.4 E7.67717
G1 X120 Y93.4 E8.07629
G1 X120.725 Y93.44 E8.09078
G1 X121.442 Y93.559 E8.10528
G1 X122.141 Y93.757 E8.11978
G1 X122.814 Y94.03 E8.13427
G1 X123.453 Y94.375 E8.14877
G1 X124.05 Y94.789 E8.16326
G1 X124.598 Y95.265 E8.17775
G1 X125.091 Y95.799 E8.19225
G1 X125.521 Y96.384 E8.20674
G1 X125.885 Y97.013 E8.22125
G1 X126.178 Y97.678 E8.23575
G1 X126.396 Y98.371 E8.25024
G1 X126.536 Y99.083 E8.26473
G1 X126.6 Y100 E8.28307
G1 X126.6 Y120 E8.68219
G1 X126.56 Y120.725 E8.69668
G1 X126.441 Y121.442 E8.71119
G1 X126.243 Y122.141 E8.72568
G1 X125.97 Y122.814 E8.74018
G1 X125.625 Y123.453 E8.75467
G1 X125.211 Y124.05 E8.76917
G1 X124.735 Y124.598 E8.78365
G1 X124.201 Y125.091 E8.79816
G1 X123.616 Y125.521 E8.81265
G1 X122.987 Y125.885 E8.82715
G1 X122.322 Y126.178 E8.84165
G1 X121.629 Y126.396 E8.85615
G1 X120.917 Y126.536 E8.87063
G1 X120 Y126.6 E8.88897
G1 X100 Y126.6 E9.28809
G1 X99.275 Y126.56 E9.30258
G1 X98.558 Y126.441 E9.31709
G1 X97.859 Y126.243 E9.33159
G1 X97.186 Y125.97 E9.34608
G1 X96.547 Y125.625 E9.36057
G1 X95.95 Y125.211 E9.37507
G1 X95.402 Y124.735 E9.38956
G1 X94.909 Y124.201 E9.40406
G1 X94.479 Y123.616 E9.41855
G1 X94.115 Y122.987 E9.43305
G1 X93.822 Y122.322 E9.44755
G1 X93.604 Y121.629 E9.46205
G1 X93.464 Y120.917 E9.47653
G1 X93.4 Y120 E9.49488
G1 X93.4 Y100 E9.894
G1 X93.44 Y99.275 E9.90849
G1 X93.559 Y98.558 E9.92299
G1 X93.757 Y97.859 E9.93749
G1 X94.03 Y97.186 E9.95198
G1 X94.375 Y96.547 E9.96647
G1 X94.789 Y95.95 E9.98097
G1 X95.265 Y95.402 E9.99546
G0 F6000 X95.659 Y95.573
G1 F1200 X96.189 Y95.109 E10.00952
G1 X96.768 Y94.709 E10.02356
G1 X97.389 Y94.377 E10.03761
G1 X98.043 Y94.117 E10.05166
G1 X98.723 Y93.933 E10.06571
G1 X99.419 Y93.827 E10.07976
G1 X100 Y93.8 E10.09137
G1 X120 Y93.8 E10.49049
G1 X120.703 Y93.84 E10.50454
G1 X121.397 Y93.959 E10.5186
G1 X122.072 Y94.157 E10.53263
G1 X122.721 Y94.429 E10.54668
G1 X123.335 Y94.774 E10.56073
G1 X123.906 Y95.185 E10.57477
G1 X124.427 Y95.659 E10.58883
G1 X124.891 Y96.189 E10.60289
G1 X125.291 Y96.768 E10.61693
G1 X125.623 Y97.389 E10.63098
G1 X125.883 Y98.043 E10.64503
G1 X126.067 Y98.723 E10.65908
G1 X126.173 Y99.419 E10.67313
G1 X126.2 Y100 E10.68474
G1 X126.2 Y120 E11.08386
G1 X126.16 Y120.703 E11.09791
G1 X126.041 Y121.397 E11.11197
G1 X125.843 Y122.072 E11.126
G1 X125.571 Y122.721 E11.14005
G1 X125.226 Y123.335 E11.1541
G1 X124.815 Y123.906 E11.16814
G1 X124.341 Y124.427 E11.1822
G1 X123.811 Y124.891 E11.19626
G1 X123.232 Y125.291 E11.2103
G1 X122.611 Y125.623 E11.22435
G1 X121.957 Y125.883 E11.2384
G1 X121.277 Y126.067 E11.25245
G1 X120.581 Y126.173 E11.2665
G1 X120 Y126.2 E11.27811
G1 X100 Y126.2 E11.67723
G1 X99.297 Y126.16 E11.69128
G1 X98.603 Y126.041 E11.70534
G1 X97.928 Y125.843 E11.71937
G1 X97.279 Y125.571 E11.73342
G1 X96.665 Y125.226 E11.74747
G1 X96.094 Y124.815 E11.76151
G1 X95.573 Y124.341 E11.77557
G1 X95.109 Y123.811 E11.78963
G1 X94.709 Y123.232 E11.80367
G1 X94.377 Y122.611 E11.81772
G1 X94.117 Y121.957 E11.83177
G1 X93.933 Y121.277 E11.84582
G1 X93.827 Y120.581 E11.85987
G1 X93.8 Y120 E11.87148
G1 X93.8 Y100 E12.2706
G1 X93.84 Y99.297 E12.28465
G1 X93.959 Y98.603 E12.29871
G1 X94.157 Y97.928 E12.31274
G1 X94.429 Y97.279 E12.32679
G1 X94.774 Y96.665 E12.34084
G1 X95.185 Y96.094 E12.35488
G1 X95.659 Y95.573 E12.36894
G0 F6000 X96.053 Y95.751
G1 F1200 X96.578 Y95.317 E12.38253
G1 X97.15 Y94.948 E12.39612
G1 X97.762 Y94.649 E12.40971
G1 X98.404 Y94.424 E12.42328
G1 X99.069 Y94.275 E12.43688
G1 X100 Y94.2 E12.45552
G1 X120 Y94.2 E12.85464
G1 X120.68 Y94.24 E12.86824
G1 X121.35 Y94.359 E12.88182
G1 X122.002 Y94.556 E12.89541
G1 X122.626 Y94.828 E12.90899
G1 X123.214 Y95.172 E12.92259
G1 X123.758 Y95.582 E12.93618
G1 X124.249 Y96.053 E12.94976
G1 X124.683 Y96.578 E12.96335
G1 X125.052 Y97.15 E12.97694
G1 X125.351 Y97.762 E12.99053
G1 X125.576 Y98.404 E13.00411
G1 X125.725 Y99.069 E13.01771
G1 X125.8 Y100 E13.03635
G1 X125.8 Y120 E13.43547
G1 X125.76 Y120.68 E13.44906
G1 X125.641 Y121.35 E13.46264
G1 X125.444 Y122.002 E13.47623
G1 X125.172 Y122.626 E13.48982
G1 X124.828 Y123.214 E13.50341
G1 X124.418 Y123.758 E13.51701
G1 X123.947 Y124.249 E13.53058
G1 X123.422 Y124.683 E13.54418
G1 X122.85 Y125.052 E13.55776
G1 X122.238 Y125.351 E13.57135
G1 X121.596 Y125.576 E13.58493
G1 X120.931 Y125.725 E13.59853
G1 X120 Y125.8 E13.61717
G1 X100 Y125.8 E14.01629
G1 X99.32 Y125.76 E14.02988
G1 X98.65 Y125.641 E14.04346
G1 X97.998 Y125.444 E14.05706
G1 X97.374 Y125.172 E14.07064
G1 X96.786 Y124.828 E14.08424
G1 X96.242 Y124.418 E14.09783
G1 X95.751 Y123.947 E14.11141
G1 X95.317 Y123.422 E14.125
G1 X94.948 Y122.85 E14.13859
G1 X94.649 Y122.238 E14.15218
G1 X94.424 Y121.596 E14.16575
G1 X94.275 Y120.931 E14.17935
G1 X94.2 Y120 E14.19799
G1 X94.2 Y100 E14.59711
G1 X94.24 Y99.32 E14.61071
G1 X94.359 Y98.65 E14.62429
G1 X94.556 Y97.998 E14.63788
G1 X94.828 Y97.374 E14.65146
G1 X95.172 Y96.786 E14.66506
G1 X95.582 Y96.242 E14.67865
G1 X96.053 Y95.751 E14.69223
G0 F6000 X96.445 Y95.935
G1 F1200 X96.965 Y95.534 E14.70534
G1 X97.529 Y95.198 E14.71844
G1 X98.131 Y94.934 E14.73155
G1 X98.76 Y94.744 E14.74467
G1 X99.407 Y94.633 E14.75777
G1 X100 Y94.6 E14.76962
G1 X120 Y94.6 E15.16874
G1 X120.656 Y94.64 E15.18186
G1 X121.302 Y94.759 E15.19497
G1 X121.929 Y94.956 E15.20808
G1 X122.527 Y95.228 E15.22119
G1 X123.088 Y95.57 E15.2343
G1 X123.603 Y95.978 E15.24741
G1 X124.065 Y96.445 E15.26052
G1 X124.466 Y96.965 E15.27363
G1 X124.802 Y97.529 E15.28673
G1 X125.066 Y98.131 E15.29985
G1 X125.256 Y98.76 E15.31296
G1 X125.367 Y99.407 E15.32606
G1 X125.4 Y100 E15.33791
G1 X125.4 Y120 E15.73703
G1 X125.36 Y120.656 E15.75015
G1 X125.241 Y121.302 E15.76326
G1 X125.044 Y121.929 E15.77637
G1 X124.772 Y122.527 E15.78948
G1 X124.43 Y123.088 E15.8026
G1 X124.022 Y123.603 E15.81571
G1 X123.555 Y124.065 E15.82882
G1 X123.035 Y124.466 E15.84192
G1 X122.471 Y124.802 E15.85502
G1 X121.869 Y125.066 E15.86814
G1 X121.24 Y125.256 E15.88125
G1 X120.593 Y125.367 E15.89435
G1 X120 Y125.4 E15.90621
G1 X100 Y125.4 E16.30533
G1 X99.344 Y125.36 E16.31844
G1 X98.698 Y125.241 E16.33155
G1 X98.071 Y125.044 E16.34467
G1 X97.473 Y124.772 E16.35778
G1 X96.912 Y124.43 E16.37089
G1 X96.397 Y124.022 E16.384
G1 X95.935 Y123.555 E16.39711
G1 X95.534 Y123.035 E16.41021
G1 X95.198 Y122.471 E16.42332
G1 X94.934 Y121.869 E16.43643
G1 X94.744 Y121.24 E16.44955
G1 X94.633 Y120.593 E16.46265
G1 X94.6 Y120 E16.4745
G1 X94.6 Y100 E16.87362
G1 X94.64 Y99.344 E16.88674
G1 X94.759 Y98.698 E16.89984
G1 X94.956 Y98.071 E16.91296
G1 X95.228 Y97.473 E16.92607
G1 X95.57 Y96.912 E16.93918
G1 X95.978 Y96.397 E16.95229
G1 X96.445 Y95.935 E16.9654
G0 F6000 X96.373 Y96.559
G1 F1200 X96.836 Y96.129 E16.97801
G1 X97.35 Y95.76 E16.99064
G1 X97.906 Y95.46 E17.00325
G1 X98.495 Y95.232 E17.01585
G1 X99.109 Y95.08 E17.02847
G1 X100 Y95 E17.04633
G1 X120 Y95 E17.44545
G1 X120.631 Y95.04 E17.45807
G1 X121.252 Y95.159 E17.47068
G1 X121.852 Y95.356 E17.48329
G1 X122.424 Y95.627 E17.49592
G1 X122.956 Y95.967 E17.50852
G1 X123.441 Y96.373 E17.52114
G1 X123.871 Y96.836 E17.53375
G1 X124.24 Y97.35 E17.54638
G1 X124.54 Y97.906 E17.55898
G1 X124.768 Y98.495 E17.57159
G1 X124.92 Y99.109 E17.58421
G1 X125 Y100 E17.60206
G1 X125 Y120 E18.00118
G1 X124.96 Y120.631 E18.0138
G1 X124.841 Y121.252 E18.02642
G1 X124.644 Y121.852 E18.03902
G1 X124.373 Y122.424 E18.05165
G1 X124.033 Y122.956 E18.06425
G1 X123.627 Y123.441 E18.07688
G1 X123.164 Y123.871 E18.08949
G1 X122.65 Y124.24 E18.10211
G1 X122.094 Y124.54 E18.11472
G1 X121.505 Y124.768 E18.12732
G1 X120.891 Y124.92 E18.13995
G1 X120 Y125 E18.1578
G1 X100 Y125 E18.55692
G1 X99.369 Y124.96 E18.56954
G1 X98.748 Y124.841 E18.58216
G1 X98.148 Y124.644 E18.59476
G1 X97.576 Y124.373 E18.60739
G1 X97.044 Y124.033 E18.61999
G1 X96.559 Y123.627 E18.63261
G1 X96.129 Y123.164 E18.64522
G1 X95.76 Y122.65 E18.65785
G1 X95.46 Y122.094 E18.67046
G1 X95.232 Y121.505 E18.68306
G1 X95.08 Y120.891 E18.69568
G1 X95 Y120 E18.71354
G1 X95 Y100 E19.11266
G1 X95.04 Y99.369 E19.12528
G1 X95.159 Y98.748 E19.13789
G1 X95.356 Y98.148 E19.1505
G1 X95.627 Y97.576 E19.16313
G1 X95.967 Y97.044 E19.17573
G1 X96.373 Y96.559 E19.18835
G0 F6000 X96.767 Y96.728
G1 F1200 X97.225 Y96.331 E19.20045
G1 X97.732 Y95.998 E19.21255
G1 X98.278 Y95.734 E19.22465
G1 X98.854 Y95.545 E19.23675
G1 X99.45 Y95.433 E19.24885
G1 X100 Y95.4 E19.25985
G1 X120 Y95.4 E19.65897
G1 X120.605 Y95.44 E19.67107
G1 X121.199 Y95.559 E19.68316
G1 X121.773 Y95.755 E19.69526
G1 X122.316 Y96.026 E19.70737
G1 X122.819 Y96.365 E19.71948
G1 X123.272 Y96.767 E19.73157
G1 X123.669 Y97.225 E19.74366
G1 X124.002 Y97.732 E19.75577
G1 X124.266 Y98.278 E19.76787
G1 X124.455 Y98.854 E19.77997
G1 X124.567 Y99.45 E19.79207
G1 X124.6 Y100 E19.80306
G1 X124.6 Y120 E20.20219
G1 X124.56 Y120.605 E20.21429
G1 X124.441 Y121.199 E20.22637
G1 X124.245 Y121.773 E20.23848
G1 X123.974 Y122.316 E20.25059
G1 X123.635 Y122.819 E20.26269
G1 X123.233 Y123.272 E20.27478
G1 X122.775 Y123.669 E20.28688
G1 X122.268 Y124.002 E20.29898
G1 X121.722 Y124.266 E20.31108
G1 X121.146 Y124.455 E20.32318
G1 X120.55 Y124.567 E20.33528
G1 X120 Y124.6 E20.34628
G1 X100 Y124.6 E20.7454
G1 X99.395 Y124.56 E20.7575
G1 X98.801 Y124.441 E20.76959
G1 X98.227 Y124.245 E20.78169
G1 X97.684 Y123.974 E20.79381
G1 X97.181 Y123.635 E20.80591
G1 X96.728 Y123.233 E20.818
G1 X96.331 Y122.775 E20.83009
G1 X95.998 Y122.268 E20.8422
G1 X95.734 Y121.722 E20.8543
G1 X95.545 Y121.146 E20.8664
