;FLAVOR:Marlin
;TIME:1293
;Filament used: 1.43367m
;Layer height: 0.28
;MINX:92.2
;MINY:92.2
;MINZ:0.28
;MAXX:127.8
;MAXY:127.8
;MAXZ:19.88
;Generated with Cura_SteamEngine 4.8.0
M140 S60
M105
M190 S60
M104 S200
M105
M109 S200
M82 ;absolute extrusion mode
; Ender 3 Custom Start G-code
G92 E0 ; Reset Extruder
G28 ; Home all axes
G1 Z2.0 F3000 ; Move Z Axis up little to prevent scratching of Heat Bed
G1 X0.1 Y20 Z0.3 F5000.0 ; Move to start position
G1 X0.1 Y200.0 Z0.3 F1500.0 E15 ; Draw the first line
G1 X0.4 Y200.0 Z0.3 F5000.0 ; Move to side a little
G1 X0.4 Y20 Z0.3 F1500.0 E30 ; Draw the second line
G92 E0 ; Reset Extruder
G1 Z2.0 F3000 ; Move Z Axis up little to prevent scratching of Heat Bed
G1 X5 Y20 Z0.3 F5000.0 ; Move over to prevent blob squish
G92 E0
G92 E0
G1 F1500 E-6.5
;LAYER_COUNT:71
;LAYER:0
M107
G0 F6000 X94.485 Y94.602 Z0.28
;TYPE:SKIRT
G1 F1500 E0
G1 F1200 X94.602 Y94.485 E0.0077
G1 X95.188 Y93.955 E0.0445
G1 X95.824 Y93.488 E0.08124
G1 X96.504 Y93.087 E0.118
G1 X97.222 Y92.757 E0.15479
G1 X97.969 Y92.502 E0.19155
G1 X98.738 Y92.323 E0.22831
G1 X99.522 Y92.223 E0.26511
G1 X100.117 Y92.2 E0.29284
G1 X119.883 Y92.2 E1.21323
G1 X120.672 Y92.24 E1.25001
G1 X121.452 Y92.359 E1.28675
G1 X122.217 Y92.557 E1.32355
G1 X122.957 Y92.831 E1.36029
G1 X123.666 Y93.179 E1.39707
G1 X124.337 Y93.597 E1.43388
G1 X124.961 Y94.08 E1.47062
G1 X125.398 Y94.485 E1.49837
G1 X125.515 Y94.602 E1.50607
G1 X126.045 Y95.188 E1.54286
G1 X126.512 Y95.824 E1.5796
G1 X126.913 Y96.504 E1.61636
G1 X127.243 Y97.222 E1.65316
G1 X127.498 Y97.969 E1.68991
G1 X127.677 Y98.738 E1.72668
G1 X127.777 Y99.522 E1.76348
G1 X127.8 Y100.117 E1.79121
G1 X127.8 Y119.883 E2.71159
G1 X127.76 Y120.672 E2.74838
G1 X127.641 Y121.452 E2.78512
G1 X127.443 Y122.217 E2.82192
G1 X127.169 Y122.957 E2.85866
G1 X126.821 Y123.666 E2.89544
G1 X126.403 Y124.337 E2.93225
G1 X125.92 Y124.961 E2.96899
G1 X125.515 Y125.398 E2.99674
G1 X125.398 Y125.515 E3.00444
G1 X124.812 Y126.045 E3.04123
G1 X124.176 Y126.512 E3.07797
G1 X123.496 Y126.913 E3.11473
G1 X122.778 Y127.243 E3.15153
G1 X122.031 Y127.498 E3.18828
G1 X121.262 Y127.677 E3.22505
G1 X120.478 Y127.777 E3.26185
G1 X119.883 Y127.8 E3.28957
G1 X100.117 Y127.8 E4.20996
G1 X99.328 Y127.76 E4.24675
G1 X98.548 Y127.641 E4.28349
G1 X97.783 Y127.443 E4.32028
G1 X97.043 Y127.169 E4.35703
G1 X96.334 Y126.821 E4.3938
G1 X95.663 Y126.403 E4.43062
G1 X95.039 Y125.92 E4.46736
G1 X94.602 Y125.515 E4.4951
G1 X94.485 Y125.398 E4.50281
G1 X93.955 Y124.812 E4.5396
G1 X93.488 Y124.176 E4.57634
G1 X93.087 Y123.496 E4.6131
G1 X92.757 Y122.778 E4.64989
G1 X92.502 Y122.031 E4.68665
G1 X92.323 Y121.262 E4.72341
G1 X92.223 Y120.478 E4.76022
G1 X92.2 Y119.883 E4.78794
G1 X92.2 Y100.117 E5.70833
G1 X92.24 Y99.328 E5.74512
G1 X92.359 Y98.548 E5.78186
G1 X92.557 Y97.783 E5.81865
G1 X92.831 Y97.043 E5.8554
G1 X93.179 Y96.334 E5.89217
G1 X93.597 Y95.663 E5.92898
G1 X94.08 Y95.039 E5.96573
G1 X94.485 Y94.602 E5.99347
G0 F6000 X94.767 Y94.884
G1 F1200 X94.884 Y94.767 E6.00118
G1 X95.456 Y94.253 E6.03698
G1 X96.078 Y93.8 E6.07281
G1 X96.743 Y93.414 E6.10862
G1 X97.445 Y93.099 E6.14445
G1 X98.176 Y92.859 E6.18027
G1 X98.927 Y92.696 E6.21606
G1 X99.692 Y92.612 E6.25189
G1 X100.117 Y92.6 E6.27169
G1 X119.883 Y92.6 E7.19208
G1 X120.651 Y92.64 E7.22789
G1 X121.411 Y92.759 E7.26371
G1 X122.154 Y92.957 E7.29951
G1 X122.873 Y93.231 E7.33534
G1 X123.559 Y93.578 E7.37114
G1 X124.206 Y93.994 E7.40695
G1 X124.806 Y94.475 E7.44276
G1 X125.116 Y94.767 E7.46259
G1 X125.233 Y94.884 E7.4703
G1 X125.747 Y95.456 E7.5061
G1 X126.2 Y96.078 E7.54193
G1 X126.586 Y96.743 E7.57774
G1 X126.901 Y97.445 E7.61357
G1 X127.141 Y98.176 E7.64939
G1 X127.304 Y98.927 E7.68518
G1 X127.388 Y99.692 E7.72101
G1 X127.4 Y100.117 E7.74081
G1 X127.4 Y119.883 E8.6612
G1 X127.36 Y120.651 E8.69701
G1 X127.241 Y121.411 E8.73283
G1 X127.043 Y122.154 E8.76863
G1 X126.769 Y122.873 E8.80446
G1 X126.422 Y123.559 E8.84026
G1 X126.006 Y124.206 E8.87607
G1 X125.525 Y124.806 E8.91188
G1 X125.233 Y125.116 E8.93171
G1 X125.116 Y125.233 E8.93942
G1 X124.544 Y125.747 E8.97523
G1 X123.922 Y126.2 E9.01106
G1 X123.257 Y126.586 E9.04686
G1 X122.555 Y126.901 E9.08269
G1 X121.824 Y127.141 E9.11851
G1 X121.073 Y127.304 E9.1543
G1 X120.308 Y127.388 E9.19013
G1 X119.883 Y127.4 E9.20993
G1 X100.117 Y127.4 E10.13032
G1 X99.349 Y127.36 E10.16613
G1 X98.589 Y127.241 E10.20195
G1 X97.846 Y127.043 E10.23775
G1 X97.127 Y126.769 E10.27358
G1 X96.441 Y126.422 E10.30938
G1 X95.794 Y126.006 E10.34519
G1 X95.194 Y125.525 E10.381
G1 X94.884 Y125.233 E10.40083
G1 X94.767 Y125.116 E10.40854
G1 X94.253 Y124.544 E10.44435
G1 X93.8 Y123.922 E10.48018
G1 X93.414 Y123.257 E10.51598
G1 X93.099 Y122.555 E10.55181
G1 X92.859 Y121.824 E10.58763
G1 X92.696 Y121.073 E10.62342
G1 X92.612 Y120.308 E10.65925
G1 X92.6 Y119.883 E10.67905
G1 X92.6 Y100.117 E11.59944
G1 X92.64 Y99.349 E11.63525
G1 X92.759 Y98.589 E11.67107
G1 X92.957 Y97.846 E11.70687
G1 X93.231 Y97.127 E11.7427
G1 X93.578 Y96.441 E11.7785
G1 X93.994 Y95.794 E11.81432
G1 X94.475 Y95.194 E11.85012
G1 X94.767 Y94.884 E11.86995
G0 F6000 X95.05 Y95.167
G1 F1200 X95.167 Y95.05 E11.87766
G1 X95.724 Y94.55 E11.91251
G1 X96.33 Y94.113 E11.9473
G1 X96.98 Y93.742 E11.98215
G1 X97.666 Y93.443 E12.017
G1 X98.38 Y93.219 E12.05184
G1 X99.113 Y93.072 E12.08665
G1 X100.117 Y93 E12.13352
G1 X119.883 Y93 E13.05391
G1 X120.63 Y93.04 E13.08874
G1 X121.368 Y93.159 E13.12355
G1 X122.09 Y93.357 E13.15841
G1 X122.786 Y93.63 E13.19322
G1 X123.449 Y93.977 E13.22807
G1 X124.072 Y94.392 E13.26293
G1 X124.833 Y95.05 E13.30977
G1 X124.95 Y95.167 E13.31748
G1 X125.45 Y95.724 E13.35233
G1 X125.887 Y96.33 E13.38712
G1 X126.258 Y96.98 E13.42197
G1 X126.557 Y97.666 E13.45681
G1 X126.781 Y98.38 E13.49166
G1 X126.928 Y99.113 E13.52647
G1 X127 Y100.117 E13.57334
G1 X127 Y119.883 E14.49373
G1 X126.96 Y120.63 E14.52856
G1 X126.841 Y121.368 E14.56337
G1 X126.643 Y122.09 E14.59823
G1 X126.37 Y122.786 E14.63304
G1 X126.023 Y123.449 E14.66789
G1 X125.608 Y124.072 E14.70274
G1 X124.95 Y124.833 E14.74959
G1 X124.833 Y124.95 E14.75729
G1 X124.276 Y125.45 E14.79215
G1 X123.67 Y125.887 E14.82694
G1 X123.02 Y126.258 E14.86179
G1 X122.334 Y126.557 E14.89663
G1 X121.62 Y126.781 E14.93148
G1 X120.887 Y126.928 E14.96629
G1 X119.883 Y127 E15.01316
G1 X100.117 Y127 E15.93354
G1 X99.37 Y126.96 E15.96838
G1 X98.632 Y126.841 E16.00319
G1 X97.91 Y126.643 E16.03805
G1 X97.214 Y126.37 E16.07286
G1 X96.551 Y126.023 E16.1077
G1 X95.928 Y125.608 E16.14256
G1 X95.167 Y124.95 E16.18941
G1 X95.05 Y124.833 E16.19711
G1 X94.55 Y124.276 E16.23196
G1 X94.113 Y123.67 E16.26675
G1 X93.742 Y123.02 E16.3016
G1 X93.443 Y122.334 E16.33645
G1 X93.219 Y121.62 E16.37129
G1 X93.072 Y120.887 E16.4061
G1 X93 Y119.883 E16.45297
G1 X93 Y100.117 E17.37336
G1 X93.04 Y99.37 E17.4082
G1 X93.159 Y98.632 E17.443
G1 X93.357 Y97.91 E17.47786
G1 X93.63 Y97.214 E17.51268
G1 X93.977 Y96.551 E17.54752
G1 X94.392 Y95.928 E17.58238
G1 X95.05 Y95.167 E17.62922
G0 F6000 X95.333 Y95.45
G1 F1200 X95.45 Y95.333 E17.63693
G1 X95.991 Y94.849 E17.67073
G1 X96.582 Y94.426 E17.70457
G1 X97.216 Y94.072 E17.73838
G1 X97.885 Y93.789 E17.77221
G1 X98.581 Y93.581 E17.80603
G1 X99.296 Y93.451 E17.83987
G1 X100.117 Y93.4 E17.87817
G1 X119.883 Y93.4 E18.79856
G1 X120.608 Y93.44 E18.83237
G1 X121.325 Y93.559 E18.86621
G1 X122.024 Y93.757 E18.90004
G1 X122.697 Y94.03 E18.93386
G1 X123.336 Y94.375 E18.96768
G1 X123.933 Y94.789 E19.0015
G1 X124.55 Y95.333 E19.03981
G1 X124.667 Y95.45 E19.04751
G1 X125.151 Y95.991 E19.08131
G1 X125.574 Y96.582 E19.11516
G1 X125.928 Y97.216 E19.14897
G1 X126.211 Y97.885 E19.18279
G1 X126.419 Y98.581 E19.21662
G1 X126.549 Y99.296 E19.25046
G1 X126.6 Y100.117 E19.28876
G1 X126.6 Y119.883 E20.20915
G1 X126.56 Y120.608 E20.24296
G1 X126.441 Y121.325 E20.2768
G1 X126.243 Y122.024 E20.31063
G1 X125.97 Y122.697 E20.34445
G1 X125.625 Y123.336 E20.37826
G1 X125.211 Y123.933 E20.41209
G1 X124.667 Y124.55 E20.45039
G1 X124.55 Y124.667 E20.4581
G1 X124.009 Y125.151 E20.4919
G1 X123.418 Y125.574 E20.52574
G1 X122.784 Y125.928 E20.55955
G1 X122.115 Y126.211 E20.59338
G1 X121.419 Y126.419 E20.6272
G1 X120.704 Y126.549 E20.66104
G1 X119.883 Y126.6 E20.69934
G1 X100.117 Y126.6 E21.61973
G1 X99.392 Y126.56 E21.65354
G1 X98.675 Y126.441 E21.68738
G1 X97.976 Y126.243 E21.72121
G1 X97.303 Y125.97 E21.75503
G1 X96.664 Y125.625 E21.78884
G1 X96.067 Y125.211 E21.82267
G1 X95.45 Y124.667 E21.86098
G1 X95.333 Y124.55 E21.86868
G1 X94.849 Y124.009 E21.90248
G1 X94.426 Y123.418 E21.93632
G1 X94.072 Y122.784 E21.97014
G1 X93.789 Y122.115 E22.00396
G1 X93.581 Y121.419 E22.03778
G1 X93.451 Y120.704 E22.07162
G1 X93.4 Y119.883 E22.10993
G1 X93.4 Y100.117 E23.03031
G1 X93.44 Y99.392 E23.06413
G1 X93.559 Y98.675 E23.09797
G1 X93.757 Y97.976 E23.1318
G1 X94.03 Y97.303 E23.16562
G1 X94.375 Y96.664 E23.19943
G1 X94.789 Y96.067 E23.23326
G1 X95.333 Y95.45 E23.27156
G0 F6000 X95.616 Y95.733
G1 F1200 X95.733 Y95.616 E23.27927
G1 X96.258 Y95.147 E23.31205
G1 X96.833 Y94.741 E23.34482
G1 X97.451 Y94.403 E23.37762
G1 X98.102 Y94.136 E23.41039
G1 X98.78 Y93.946 E23.44317
G1 X99.475 Y93.833 E23.47596
G1 X100.117 Y93.8 E23.50589
G1 X119.883 Y93.8 E24.42628
G1 X120.586 Y93.84 E24.45907
G1 X121.28 Y93.959 E24.49186
G1 X121.955 Y94.157 E24.52461
G1 X122.604 Y94.429 E24.55738
G1 X123.218 Y94.774 E24.59017
G1 X123.789 Y95.185 E24.62293
G1 X124.267 Y95.616 E24.6529
G1 X124.384 Y95.733 E24.66061
G1 X124.853 Y96.258 E24.69339
G1 X125.259 Y96.833 E24.72616
G1 X125.597 Y97.451 E24.75896
G1 X125.864 Y98.102 E24.79172
G1 X126.054 Y98.78 E24.82451
G1 X126.167 Y99.475 E24.8573
G1 X126.2 Y100.117 E24.88723
G1 X126.2 Y119.883 E25.80762
G1 X126.16 Y120.586 E25.84041
G1 X126.041 Y121.28 E25.87319
G1 X125.843 Y121.955 E25.90595
G1 X125.571 Y122.604 E25.93872
G1 X125.226 Y123.218 E25.97151
G1 X124.815 Y123.789 E26.00427
G1 X124.384 Y124.267 E26.03424
G1 X124.267 Y124.384 E26.04195
G1 X123.742 Y124.853 E26.07473
G1 X123.167 Y125.259 E26.1075
G1 X122.549 Y125.597 E26.1403
G1 X121.898 Y125.864 E26.17306
G1 X121.22 Y126.054 E26.20585
G1 X120.525 Y126.167 E26.23864
G1 X119.883 Y126.2 E26.26857
G1 X100.117 Y126.2 E27.18896
G1 X99.414 Y126.16 E27.22175
G1 X98.72 Y126.041 E27.25453
G1 X98.045 Y125.843 E27.28729
G1 X97.396 Y125.571 E27.32006
G1 X96.782 Y125.226 E27.35285
G1 X96.211 Y124.815 E27.38561
G1 X95.733 Y124.384 E27.41558
G1 X95.616 Y124.267 E27.42329
G1 X95.147 Y123.742 E27.45607
G1 X94.741 Y123.167 E27.48884
G1 X94.403 Y122.549 E27.52164
G1 X94.136 Y121.898 E27.5544
G1 X93.946 Y121.22 E27.58719
G1 X93.833 Y120.525 E27.61998
G1 X93.8 Y119.883 E27.64991
G1 X93.8 Y100.117 E28.5703
G1 X93.84 Y99.414 E28.60309
G1 X93.959 Y98.72 E28.63587
G1 X94.157 Y98.045 E28.66863
G1 X94.429 Y97.396 E28.7014
G1 X94.774 Y96.782 E28.73419
G1 X95.185 Y96.211 E28.76695
G1 X95.616 Y95.733 E28.79692
G0 F6000 X95.899 Y96.016
G1 F1200 X96.016 Y95.899 E28.80463
G1 X96.525 Y95.446 E28.83635
G1 X97.083 Y95.057 E28.86803
G1 X97.683 Y94.735 E28.89973
G1 X98.317 Y94.486 E28.93145
G1 X98.976 Y94.313 E28.96318
G1 X99.65 Y94.219 E28.99487
G1 X100.117 Y94.2 E29.01663
G1 X119.883 Y94.2 E29.93702
G1 X120.563 Y94.24 E29.96873
G1 X121.233 Y94.359 E30.00042
G1 X121.885 Y94.556 E30.03214
G1 X122.509 Y94.828 E30.06383
G1 X123.097 Y95.172 E30.09555
G1 X123.641 Y95.582 E30.12727
G1 X123.984 Y95.899 E30.14902
G1 X124.101 Y96.016 E30.15673
G1 X124.554 Y96.525 E30.18845
G1 X124.943 Y97.083 E30.22013
G1 X125.265 Y97.683 E30.25184
G1 X125.514 Y98.317 E30.28355
G1 X125.687 Y98.976 E30.31528
G1 X125.781 Y99.65 E30.34697
G1 X125.8 Y100.117 E30.36873
G1 X125.8 Y119.883 E31.28912
G1 X125.76 Y120.563 E31.32084
G1 X125.641 Y121.233 E31.35252
G1 X125.444 Y121.885 E31.38424
G1 X125.172 Y122.509 E31.41593
G1 X124.828 Y123.097 E31.44765
G1 X124.418 Y123.641 E31.47937
G1 X124.101 Y123.984 E31.50112
G1 X123.984 Y124.101 E31.50883
G1 X123.475 Y124.554 E31.54056
G1 X122.917 Y124.943 E31.57223
G1 X122.317 Y125.265 E31.60394
G1 X121.683 Y125.514 E31.63565
G1 X121.024 Y125.687 E31.66738
G1 X120.35 Y125.781 E31.69907
G1 X119.883 Y125.8 E31.72083
G1 X100.117 Y125.8 E32.64122
G1 X99.437 Y125.76 E32.67294
G1 X98.767 Y125.641 E32.70462
G1 X98.115 Y125.444 E32.73634
G1 X97.491 Y125.172 E32.76803
G1 X96.903 Y124.828 E32.79976
G1 X96.359 Y124.418 E32.83148
G1 X96.016 Y124.101 E32.85322
G1 X95.899 Y123.984 E32.86093
G1 X95.446 Y123.475 E32.89266
G1 X95.057 Y122.917 E32.92433
G1 X94.735 Y122.317 E32.95604
G1 X94.486 Y121.683 E32.98775
G1 X94.313 Y121.024 E33.01948
G1 X94.219 Y120.35 E33.05117
G1 X94.2 Y119.883 E33.07293
G1 X94.2 Y100.117 E33.99332
G1 X94.24 Y99.437 E34.02504
G1 X94.359 Y98.767 E34.05672
G1 X94.556 Y98.115 E34.08844
G1 X94.828 Y97.491 E34.12014
G1 X95.172 Y96.903 E34.15186
G1 X95.582 Y96.359 E34.18358
G1 X95.899 Y96.016 E34.20532
G0 F6000 X96.182 Y96.299
G1 F1200 X96.299 Y96.182 E34.21303
G1 X96.791 Y95.746 E34.24364
G1 X97.332 Y95.374 E34.27421
G1 X97.914 Y95.07 E34.30479
G1 X98.529 Y94.839 E34.33538
G1 X99.168 Y94.684 E34.36599
G1 X100.117 Y94.6 E34.41036
G1 X119.883 Y94.6 E35.33074
G1 X120.539 Y94.64 E35.36135
G1 X121.185 Y94.759 E35.39193
G1 X121.812 Y94.956 E35.42254
G1 X122.41 Y95.228 E35.45313
G1 X122.971 Y95.57 E35.48372
G1 X123.701 Y96.182 E35.52808
G1 X123.818 Y96.299 E35.53578
G1 X124.254 Y96.791 E35.56639
G1 X124.626 Y97.332 E35.59696
G1 X124.93 Y97.914 E35.62754
G1 X125.161 Y98.529 E35.65813
G1 X125.316 Y99.168 E35.68875
G1 X125.4 Y100.117 E35.73311
G1 X125.4 Y119.883 E36.6535
G1 X125.36 Y120.539 E36.6841
G1 X125.241 Y121.185 E36.71469
G1 X125.044 Y121.812 E36.74529
G1 X124.772 Y122.41 E36.77588
G1 X124.43 Y122.971 E36.80647
G1 X123.818 Y123.701 E36.85083
G1 X123.701 Y123.818 E36.85854
G1 X123.209 Y124.254 E36.88915
G1 X122.668 Y124.626 E36.91972
G1 X122.086 Y124.93 E36.95029
G1 X121.471 Y125.161 E36.98088
G1 X120.832 Y125.316 E37.0115
G1 X119.883 Y125.4 E37.05586
G1 X100.117 Y125.4 E37.97625
G1 X99.461 Y125.36 E38.00685
G1 X98.815 Y125.241 E38.03744
G1 X98.188 Y125.044 E38.06804
G1 X97.59 Y124.772 E38.09863
G1 X97.029 Y124.43 E38.12923
G1 X96.299 Y123.818 E38.17358
G1 X96.182 Y123.701 E38.18129
G1 X95.746 Y123.209 E38.2119
G1 X95.374 Y122.668 E38.24247
G1 X95.07 Y122.086 E38.27305
G1 X94.839 Y121.471 E38.30364
G1 X94.684 Y120.832 E38.33425
G1 X94.6 Y119.883 E38.37862
G1 X94.6 Y100.117 E39.299
G1 X94.64 Y99.461 E39.32961
G1 X94.759 Y98.815 E39.36019
G1 X94.956 Y98.188 E39.3908
G1 X95.228 Y97.59 E39.42139
G1 X95.57 Y97.029 E39.45198
G1 X96.182 Y96.299 E39.49634
G0 F6000 X96.464 Y96.581
G1 F1200 X96.581 Y96.464 E39.50404
G1 X97.056 Y96.047 E39.53347
G1 X97.579 Y95.692 E39.56291
G1 X98.143 Y95.406 E39.59235
G1 X98.738 Y95.194 E39.62177
G1 X99.356 Y95.058 E39.65123
G1 X100.117 Y95 E39.68677
G1 X119.883 Y95 E40.60716
G1 X120.514 Y95.04 E40.6366
G1 X121.135 Y95.159 E40.66604
G1 X121.735 Y95.356 E40.69545
G1 X122.307 Y95.627 E40.72492
G1 X122.839 Y95.967 E40.75432
G1 X123.419 Y96.464 E40.78988
G1 X123.536 Y96.581 E40.79759
G1 X123.953 Y97.056 E40.82702
G1 X124.308 Y97.579 E40.85645
G1 X124.594 Y98.143 E40.8859
G1 X124.806 Y98.738 E40.91531
G1 X124.942 Y99.356 E40.94478
G1 X125 Y100.117 E40.98032
G1 X125 Y119.883 E41.9007
G1 X124.96 Y120.514 E41.93014
G1 X124.841 Y121.135 E41.95959
G1 X124.644 Y121.735 E41.98899
G1 X124.373 Y122.307 E42.01847
G1 X124.033 Y122.839 E42.04786
G1 X123.536 Y123.419 E42.08343
G1 X123.419 Y123.536 E42.09114
G1 X122.944 Y123.953 E42.12057
G1 X122.421 Y124.308 E42.15
G1 X121.857 Y124.594 E42.17945
G1 X121.262 Y124.806 E42.20886
G1 X120.644 Y124.942 E42.23832
G1 X119.883 Y125 E42.27386
G1 X100.117 Y125 E43.19425
G1 X99.486 Y124.96 E43.22369
G1 X98.865 Y124.841 E43.25313
G1 X98.265 Y124.644 E43.28254
G1 X97.693 Y124.373 E43.31201
G1 X97.161 Y124.033 E43.34141
G1 X96.581 Y123.536 E43.37698
G1 X96.464 Y123.419 E43.38468
G1 X96.047 Y122.944 E43.41411
G1 X95.692 Y122.421 E43.44355
G1 X95.406 Y121.857 E43.47299
G1 X95.194 Y121.262 E43.5024
G1 X95.058 Y120.644 E43.53187
G1 X95 Y119.883 E43.56741
G1 X95 Y100.117 E44.4878
G1 X95.04 Y99.486 E44.51724
G1 X95.159 Y98.865 E44.54668
G1 X95.356 Y98.265 E44.57608
G1 X95.627 Y97.693 E44.60556
