;FLAVOR:Marlin
;TIME:5880
;Filament used: 2.08272m
;Layer height: 0.12
;MINX:62.2
;MINY:92.2
;MINZ:0.12
;MAXX:157.8
;MAXY:128.3
;MAXZ:19.92
;Generated with Cura_SteamEngine 4.8.0
M140 S60
M105
M190 S60
M104 S200
M105
M109 S200
M82 ;absolute extrusion mode
; Ender 3 Custom Start G-code
G92 E0 ; Reset Extruder
G28 ; Home all axes
G1 Z2.0 F3000 ; Move Z Axis up little to prevent scratching of Heat Bed
G1 X0.1 Y20 Z0.3 F5000.0 ; Move to start position
G1 X0.1 Y200.0 Z0.3 F1500.0 E15 ; Draw the first line
G1 X0.4 Y200.0 Z0.3 F5000.0 ; Move to side a little
G1 X0.4 Y20 Z0.3 F1500.0 E30 ; Draw the second line
G92 E0 ; Reset Extruder
G1 Z2.0 F3000 ; Move Z Axis up little to prevent scratching of Heat Bed
G1 X5 Y20 Z0.3 F5000.0 ; Move over to prevent blob squish
G92 E0
G92 E0
G1 F1500 E-6.5
;LAYER_COUNT:166
;LAYER:0
M107
G0 F6000 X123.597 Y95.546 Z0.12
;TYPE:SKIRT
G1 F1500 E0
G1 F1200 X124.08 Y94.922 E0.01575
G1 X124.623 Y94.349 E0.0315
G1 X125.222 Y93.834 E0.04727
G1 X125.87 Y93.383 E0.06302
G1 X126.561 Y92.999 E0.0788
G1 X127.286 Y92.687 E0.09455
G1 X128.039 Y92.45 E0.1103
G1 X128.813 Y92.291 E0.12607
G1 X129.598 Y92.21 E0.14182
G1 X130 Y92.2 E0.14984
G1 X150 Y92.2 E0.54896
G1 X150.789 Y92.24 E0.56473
G1 X151.569 Y92.359 E0.58048
G1 X152.334 Y92.557 E0.59625
G1 X153.074 Y92.831 E0.61199
G1 X153.783 Y93.179 E0.62775
G1 X154.454 Y93.597 E0.64353
G1 X155.078 Y94.08 E0.65928
G1 X155.651 Y94.623 E0.67503
G1 X156.166 Y95.222 E0.6908
G1 X156.617 Y95.87 E0.70655
G1 X157.001 Y96.561 E0.72233
G1 X157.313 Y97.286 E0.73808
G1 X157.55 Y98.039 E0.75383
G1 X157.709 Y98.813 E0.7696
G1 X157.79 Y99.598 E0.78535
G1 X157.8 Y100 E0.79337
G1 X157.8 Y120 E1.1925
G1 X157.76 Y120.789 E1.20826
G1 X157.641 Y121.569 E1.22401
G1 X157.443 Y122.334 E1.23978
G1 X157.169 Y123.074 E1.25552
G1 X156.821 Y123.783 E1.27128
G1 X156.403 Y124.454 E1.28706
G1 X155.92 Y125.078 E1.30281
G1 X155.377 Y125.651 E1.31856
G1 X154.778 Y126.166 E1.33433
G1 X154.13 Y126.617 E1.35008
G1 X153.439 Y127.001 E1.36586
G1 X152.714 Y127.313 E1.38161
G1 X151.961 Y127.55 E1.39736
G1 X151.187 Y127.709 E1.41313
G1 X150.402 Y127.79 E1.42888
G1 X150 Y127.8 E1.4369
G1 X130 Y127.8 E1.83603
G1 X129.211 Y127.76 E1.85179
G1 X128.431 Y127.641 E1.86754
G1 X127.666 Y127.443 E1.88331
G1 X126.926 Y127.169 E1.89905
G1 X126.217 Y126.821 E1.91482
G1 X125.546 Y126.403 E1.93059
G1 X124.922 Y125.92 E1.94634
G1 X124.349 Y125.377 E1.96209
G1 X123.834 Y124.778 E1.97786
G1 X123.383 Y124.13 E1.99361
G1 X122.999 Y123.439 E2.00939
G1 X122.687 Y122.714 E2.02514
G1 X122.45 Y121.961 E2.04089
G1 X122.291 Y121.187 E2.05666
G1 X122.21 Y120.402 E2.07241
G1 X122.2 Y120 E2.08043
G1 X122.2 Y100 E2.47956
G1 X122.24 Y99.211 E2.49532
G1 X122.359 Y98.431 E2.51107
G1 X122.557 Y97.666 E2.52684
G1 X122.831 Y96.926 E2.54258
G1 X123.179 Y96.217 E2.55835
G1 X123.597 Y95.546 E2.57412
G0 F6000 X123.994 Y95.677
G1 F1200 X124.475 Y95.077 E2.58947
G1 X125.016 Y94.53 E2.60482
G1 X125.611 Y94.042 E2.62018
G1 X126.253 Y93.619 E2.63552
G1 X126.936 Y93.264 E2.65088
G1 X127.651 Y92.983 E2.66621
G1 X128.393 Y92.777 E2.68158
G1 X129.151 Y92.649 E2.69692
G1 X130 Y92.6 E2.71389
G1 X150 Y92.6 E3.11301
G1 X150.768 Y92.64 E3.12836
G1 X151.528 Y92.759 E3.14371
G1 X152.271 Y92.957 E3.15906
G1 X152.99 Y93.231 E3.17441
G1 X153.676 Y93.578 E3.18975
G1 X154.323 Y93.994 E3.2051
G1 X154.923 Y94.475 E3.22045
G1 X155.47 Y95.016 E3.2358
G1 X155.958 Y95.611 E3.25116
G1 X156.381 Y96.253 E3.2665
G1 X156.736 Y96.936 E3.28186
G1 X157.017 Y97.651 E3.29719
G1 X157.223 Y98.393 E3.31256
G1 X157.351 Y99.151 E3.3279
G1 X157.4 Y100 E3.34487
G1 X157.4 Y120 E3.744
G1 X157.36 Y120.768 E3.75934
G1 X157.241 Y121.528 E3.77469
G1 X157.043 Y122.271 E3.79004
G1 X156.769 Y122.99 E3.80539
G1 X156.422 Y123.676 E3.82074
G1 X156.006 Y124.323 E3.83609
G1 X155.525 Y124.923 E3.85143
G1 X154.984 Y125.47 E3.86678
G1 X154.389 Y125.958 E3.88214
G1 X153.747 Y126.381 E3.89748
G1 X153.064 Y126.736 E3.91285
G1 X152.349 Y127.017 E3.92818
G1 X151.607 Y127.223 E3.94354
G1 X150.849 Y127.351 E3.95888
G1 X150 Y127.4 E3.97586
G1 X130 Y127.4 E4.37498
G1 X129.232 Y127.36 E4.39032
G1 X128.472 Y127.241 E4.40568
G1 X127.729 Y127.043 E4.42102
G1 X127.01 Y126.769 E4.43638
G1 X126.324 Y126.422 E4.45172
G1 X125.677 Y126.006 E4.46707
G1 X125.077 Y125.525 E4.48241
G1 X124.53 Y124.984 E4.49777
G1 X124.042 Y124.389 E4.51312
G1 X123.619 Y123.747 E4.52847
G1 X123.264 Y123.064 E4.54383
G1 X122.983 Y122.349 E4.55916
G1 X122.777 Y121.607 E4.57453
G1 X122.649 Y120.849 E4.58987
G1 X122.6 Y120 E4.60684
G1 X122.6 Y100 E5.00596
G1 X122.64 Y99.232 E5.02131
G1 X122.759 Y98.472 E5.03666
G1 X122.957 Y97.729 E5.052
G1 X123.231 Y97.01 E5.06736
G1 X123.578 Y96.324 E5.0827
G1 X123.994 Y95.677 E5.09805
G0 F6000 X124.392 Y95.811
G1 F1200 X124.871 Y95.237 E5.11297
G1 X125.408 Y94.716 E5.1279
G1 X125.998 Y94.257 E5.14282
G1 X126.634 Y93.862 E5.15776
G1 X127.308 Y93.538 E5.17268
G1 X128.013 Y93.288 E5.18761
G1 X128.741 Y93.114 E5.20255
G1 X129.483 Y93.019 E5.21747
G1 X130 Y93 E5.2278
G1 X150 Y93 E5.62692
G1 X150.747 Y93.04 E5.64185
G1 X151.485 Y93.159 E5.65677
G1 X152.207 Y93.357 E5.67171
G1 X152.903 Y93.63 E5.68663
G1 X153.566 Y93.977 E5.70156
G1 X154.189 Y94.392 E5.7165
G1 X154.763 Y94.871 E5.73142
G1 X155.284 Y95.408 E5.74635
G1 X155.743 Y95.998 E5.76127
G1 X156.138 Y96.634 E5.77621
G1 X156.462 Y97.308 E5.79113
G1 X156.712 Y98.013 E5.80606
G1 X156.886 Y98.741 E5.821
G1 X156.981 Y99.483 E5.83592
G1 X157 Y100 E5.84625
G1 X157 Y120 E6.24537
G1 X156.96 Y120.747 E6.2603
G1 X156.841 Y121.485 E6.27522
G1 X156.643 Y122.207 E6.29016
G1 X156.37 Y122.903 E6.30508
G1 X156.023 Y123.566 E6.32001
G1 X155.608 Y124.189 E6.33495
G1 X155.129 Y124.763 E6.34987
G1 X154.592 Y125.284 E6.3648
G1 X154.002 Y125.743 E6.37972
G1 X153.366 Y126.138 E6.39466
G1 X152.692 Y126.462 E6.40958
G1 X151.987 Y126.712 E6.42451
G1 X151.259 Y126.886 E6.43945
G1 X150.517 Y126.981 E6.45437
G1 X150 Y127 E6.4647
G1 X130 Y127 E6.86382
G1 X129.253 Y126.96 E6.87875
G1 X128.515 Y126.841 E6.89367
G1 X127.793 Y126.643 E6.90861
G1 X127.097 Y126.37 E6.92353
G1 X126.434 Y126.023 E6.93846
G1 X125.811 Y125.608 E6.9534
G1 X125.237 Y125.129 E6.96832
G1 X124.716 Y124.592 E6.98325
G1 X124.257 Y124.002 E6.99817
G1 X123.862 Y123.366 E7.01311
G1 X123.538 Y122.692 E7.02803
G1 X123.288 Y121.987 E7.04296
G1 X123.114 Y121.259 E7.0579
G1 X123.019 Y120.517 E7.07282
G1 X123 Y120 E7.08315
G1 X123 Y100 E7.48227
G1 X123.04 Y99.253 E7.4972
G1 X123.159 Y98.515 E7.51212
G1 X123.357 Y97.793 E7.52706
G1 X123.63 Y97.097 E7.54198
G1 X123.977 Y96.434 E7.55691
G1 X124.392 Y95.811 E7.57185
G0 F6000 X124.789 Y95.95
G1 F1200 X125.265 Y95.402 E7.58633
G1 X125.799 Y94.909 E7.60084
G1 X126.384 Y94.479 E7.61533
G1 X127.013 Y94.115 E7.62983
G1 X127.678 Y93.822 E7.64433
G1 X128.371 Y93.604 E7.65883
G1 X129.083 Y93.464 E7.67331
G1 X130 Y93.4 E7.69165
G1 X150 Y93.4 E8.09077
G1 X150.725 Y93.44 E8.10526
G1 X151.442 Y93.559 E8.11977
G1 X152.141 Y93.757 E8.13427
G1 X152.814 Y94.03 E8.14876
G1 X153.453 Y94.375 E8.16325
G1 X154.05 Y94.789 E8.17775
G1 X154.598 Y95.265 E8.19224
G1 X155.091 Y95.799 E8.20674
G1 X155.521 Y96.384 E8.22123
G1 X155.885 Y97.013 E8.23573
G1 X156.178 Y97.678 E8.25023
G1 X156.396 Y98.371 E8.26473
G1 X156.536 Y99.083 E8.27921
G1 X156.6 Y100 E8.29756
G1 X156.6 Y120 E8.69668
G1 X156.56 Y120.725 E8.71117
G1 X156.441 Y121.442 E8.72567
G1 X156.243 Y122.141 E8.74017
G1 X155.97 Y122.814 E8.75466
G1 X155.625 Y123.453 E8.76915
G1 X155.211 Y124.05 E8.78365
G1 X154.735 Y124.598 E8.79814
G1 X154.201 Y125.091 E8.81264
G1 X153.616 Y125.521 E8.82713
G1 X152.987 Y125.885 E8.84163
G1 X152.322 Y126.178 E8.85614
G1 X151.629 Y126.396 E8.87063
G1 X150.917 Y126.536 E8.88511
G1 X150 Y126.6 E8.90346
G1 X130 Y126.6 E9.30258
G1 X129.275 Y126.56 E9.31707
G1 X128.558 Y126.441 E9.33157
G1 X127.859 Y126.243 E9.34607
G1 X127.186 Y125.97 E9.36057
G1 X126.547 Y125.625 E9.37506
G1 X125.95 Y125.211 E9.38956
G1 X125.402 Y124.735 E9.40404
G1 X124.909 Y124.201 E9.41854
G1 X124.479 Y123.616 E9.43303
G1 X124.115 Y122.987 E9.44754
G1 X123.822 Y122.322 E9.46204
G1 X123.604 Y121.629 E9.47654
G1 X123.464 Y120.917 E9.49102
G1 X123.4 Y120 E9.50936
G1 X123.4 Y100 E9.90848
G1 X123.44 Y99.275 E9.92297
G1 X123.559 Y98.558 E9.93748
G1 X123.757 Y97.859 E9.95197
G1 X124.03 Y97.186 E9.96647
G1 X124.375 Y96.547 E9.98096
G1 X124.789 Y95.95 E9.99546
G0 F6000 X124.774 Y96.665
G1 F1200 X125.185 Y96.094 E10.0095
G1 X125.659 Y95.573 E10.02355
G1 X126.189 Y95.109 E10.03761
G1 X126.768 Y94.709 E10.05165
G1 X127.389 Y94.377 E10.06571
G1 X128.043 Y94.117 E10.07975
G1 X128.723 Y93.933 E10.09381
G1 X129.419 Y93.827 E10.10786
G1 X130 Y93.8 E10.11947
G1 X150 Y93.8 E10.51859
G1 X150.703 Y93.84 E10.53264
G1 X151.397 Y93.959 E10.54669
G1 X152.072 Y94.157 E10.56073
G1 X152.721 Y94.429 E10.57477
G1 X153.335 Y94.774 E10.58883
G1 X153.906 Y95.185 E10.60287
G1 X154.427 Y95.659 E10.61692
G1 X154.891 Y96.189 E10.63098
G1 X155.291 Y96.768 E10.64502
G1 X155.623 Y97.389 E10.65908
G1 X155.883 Y98.043 E10.67312
G1 X156.067 Y98.723 E10.68718
G1 X156.173 Y99.419 E10.70123
G1 X156.2 Y100 E10.71284
G1 X156.2 Y120 E11.11196
G1 X156.16 Y120.703 E11.12601
G1 X156.041 Y121.397 E11.14006
G1 X155.843 Y122.072 E11.1541
G1 X155.571 Y122.721 E11.16814
G1 X155.226 Y123.335 E11.1822
G1 X154.815 Y123.906 E11.19624
G1 X154.341 Y124.427 E11.21029
G1 X153.811 Y124.891 E11.22435
G1 X153.232 Y125.291 E11.2384
G1 X152.611 Y125.623 E11.25245
G1 X151.957 Y125.883 E11.26649
G1 X151.277 Y126.067 E11.28055
G1 X150.581 Y126.173 E11.2946
G1 X150 Y126.2 E11.30621
G1 X130 Y126.2 E11.70533
G1 X129.297 Y126.16 E11.71938
G1 X128.603 Y126.041 E11.73343
G1 X127.928 Y125.843 E11.74747
G1 X127.279 Y125.571 E11.76151
G1 X126.665 Y125.226 E11.77557
G1 X126.094 Y124.815 E11.78961
G1 X125.573 Y124.341 E11.80366
G1 X125.109 Y123.811 E11.81772
G1 X124.709 Y123.232 E11.83177
G1 X124.377 Y122.611 E11.84582
G1 X124.117 Y121.957 E11.85986
G1 X123.933 Y121.277 E11.87392
G1 X123.827 Y120.581 E11.88797
G1 X123.8 Y120 E11.89958
G1 X123.8 Y100 E12.2987
G1 X123.84 Y99.297 E12.31275
G1 X123.959 Y98.603 E12.3268
G1 X124.157 Y97.928 E12.34084
G1 X124.429 Y97.279 E12.35488
G1 X124.774 Y96.665 E12.36894
G0 F6000 X125.172 Y96.786
G1 F1200 X125.582 Y96.242 E12.38253
G1 X126.053 Y95.751 E12.39611
G1 X126.578 Y95.317 E12.4097
G1 X127.15 Y94.948 E12.42329
G1 X127.762 Y94.649 E12.43688
G1 X128.404 Y94.424 E12.45046
G1 X129.069 Y94.275 E12.46406
G1 X130 Y94.2 E12.48269
G1 X150 Y94.2 E12.88182
G1 X150.68 Y94.24 E12.89541
G1 X151.35 Y94.359 E12.90899
G1 X152.002 Y94.556 E12.92258
G1 X152.626 Y94.828 E12.93617
G1 X153.214 Y95.172 E12.94976
G1 X153.758 Y95.582 E12.96336
G1 X154.249 Y96.053 E12.97693
G1 X154.683 Y96.578 E12.99053
G1 X155.052 Y97.15 E13.00411
G1 X155.351 Y97.762 E13.0177
G1 X155.576 Y98.404 E13.03128
G1 X155.725 Y99.069 E13.04488
G1 X155.8 Y100 E13.06352
G1 X155.8 Y120 E13.46264
G1 X155.76 Y120.68 E13.47623
G1 X155.641 Y121.35 E13.48981
G1 X155.444 Y122.002 E13.50341
G1 X155.172 Y122.626 E13.51699
G1 X154.828 Y123.214 E13.53058
G1 X154.418 Y123.758 E13.54418
G1 X153.947 Y124.249 E13.55776
G1 X153.422 Y124.683 E13.57135
G1 X152.85 Y125.052 E13.58493
G1 X152.238 Y125.351 E13.59853
G1 X151.596 Y125.576 E13.6121
G1 X150.931 Y125.725 E13.6257
G1 X150 Y125.8 E13.64434
G1 X130 Y125.8 E14.04346
G1 X129.32 Y125.76 E14.05706
G1 X128.65 Y125.641 E14.07064
G1 X127.998 Y125.444 E14.08423
G1 X127.374 Y125.172 E14.09781
G1 X126.786 Y124.828 E14.11141
G1 X126.242 Y124.418 E14.125
G1 X125.751 Y123.947 E14.13858
G1 X125.317 Y123.422 E14.15217
G1 X124.948 Y122.85 E14.16576
G1 X124.649 Y122.238 E14.17935
G1 X124.424 Y121.596 E14.19293
G1 X124.275 Y120.931 E14.20653
G1 X124.2 Y120 E14.22516
G1 X124.2 Y100 E14.62429
G1 X124.24 Y99.32 E14.63788
G1 X124.359 Y98.65 E14.65146
G1 X124.556 Y97.998 E14.66505
G1 X124.828 Y97.374 E14.67864
G1 X125.172 Y96.786 E14.69223
G0 F6000 X125.57 Y96.912
G1 F1200 X125.978 Y96.397 E14.70534
G1 X126.445 Y95.935 E14.71845
G1 X126.965 Y95.534 E14.73156
G1 X127.529 Y95.198 E14.74466
G1 X128.131 Y94.934 E14.75778
G1 X128.76 Y94.744 E14.77089
G1 X129.407 Y94.633 E14.78399
G1 X130 Y94.6 E14.79584
G1 X150 Y94.6 E15.19496
G1 X150.656 Y94.64 E15.20808
G1 X151.302 Y94.759 E15.22119
G1 X151.929 Y94.956 E15.2343
G1 X152.527 Y95.228 E15.24741
G1 X153.088 Y95.57 E15.26052
G1 X153.603 Y95.978 E15.27364
G1 X154.065 Y96.445 E15.28675
G1 X154.466 Y96.965 E15.29985
G1 X154.802 Y97.529 E15.31295
G1 X155.066 Y98.131 E15.32607
G1 X155.256 Y98.76 E15.33918
G1 X155.367 Y99.407 E15.35228
G1 X155.4 Y100 E15.36413
G1 X155.4 Y120 E15.76326
G1 X155.36 Y120.656 E15.77637
G1 X155.241 Y121.302 E15.78948
G1 X155.044 Y121.929 E15.80259
G1 X154.772 Y122.527 E15.81571
G1 X154.43 Y123.088 E15.82882
G1 X154.022 Y123.603 E15.84193
G1 X153.555 Y124.065 E15.85504
G1 X153.035 Y124.466 E15.86814
G1 X152.471 Y124.802 E15.88124
G1 X151.869 Y125.066 E15.89436
G1 X151.24 Y125.256 E15.90747
G1 X150.593 Y125.367 E15.92057
G1 X150 Y125.4 E15.93243
G1 X130 Y125.4 E16.33155
G1 X129.344 Y125.36 E16.34466
G1 X128.698 Y125.241 E16.35777
G1 X128.071 Y125.044 E16.37089
G1 X127.473 Y124.772 E16.384
G1 X126.912 Y124.43 E16.39711
G1 X126.397 Y124.022 E16.41022
G1 X125.935 Y123.555 E16.42333
G1 X125.534 Y123.035 E16.43644
G1 X125.198 Y122.471 E16.44954
G1 X124.934 Y121.869 E16.46265
G1 X124.744 Y121.24 E16.47577
G1 X124.633 Y120.593 E16.48887
G1 X124.6 Y120 E16.50072
G1 X124.6 Y100 E16.89984
G1 X124.64 Y99.344 E16.91296
G1 X124.759 Y98.698 E16.92606
G1 X124.956 Y98.071 E16.93918
G1 X125.228 Y97.473 E16.95229
G1 X125.57 Y96.912 E16.9654
G0 F6000 X125.967 Y97.044
G1 F1200 X126.373 Y96.559 E16.97802
G1 X126.836 Y96.129 E16.99063
G1 X127.35 Y95.76 E17.00326
G1 X127.906 Y95.46 E17.01587
G1 X128.495 Y95.232 E17.02847
G1 X129.109 Y95.08 E17.0411
G1 X130 Y95 E17.05895
G1 X150 Y95 E17.45807
G1 X150.631 Y95.04 E17.47069
G1 X151.252 Y95.159 E17.48331
G1 X151.852 Y95.356 E17.49591
G1 X152.424 Y95.627 E17.50854
G1 X152.956 Y95.967 E17.52114
G1 X153.441 Y96.373 E17.53376
G1 X153.871 Y96.836 E17.54637
G1 X154.24 Y97.35 E17.559
G1 X154.54 Y97.906 E17.57161
G1 X154.768 Y98.495 E17.58421
G1 X154.92 Y99.109 E17.59683
G1 X155 Y100 E17.61469
G1 X155 Y120 E18.01381
G1 X154.96 Y120.631 E18.02642
G1 X154.841 Y121.252 E18.03904
G1 X154.644 Y121.852 E18.05165
G1 X154.373 Y122.424 E18.06428
G1 X154.033 Y122.956 E18.07688
G1 X153.627 Y123.441 E18.0895
G1 X153.164 Y123.871 E18.10211
G1 X152.65 Y124.24 E18.11474
G1 X152.094 Y124.54 E18.12734
G1 X151.505 Y124.768 E18.13995
G1 X150.891 Y124.92 E18.15257
G1 X150 Y125 E18.17042
G1 X130 Y125 E18.56954
G1 X129.369 Y124.96 E18.58216
G1 X128.748 Y124.841 E18.59478
G1 X128.148 Y124.644 E18.60738
G1 X127.576 Y124.373 E18.62001
G1 X127.044 Y124.033 E18.63261
G1 X126.559 Y123.627 E18.64524
G1 X126.129 Y123.164 E18.65784
G1 X125.76 Y122.65 E18.67047
G1 X125.46 Y122.094 E18.68308
G1 X125.232 Y121.505 E18.69568
G1 X125.08 Y120.891 E18.70831
G1 X125 Y120 E18.72616
G1 X125 Y100 E19.12528
G1 X125.04 Y99.369 E19.1379
G1 X125.159 Y98.748 E19.15052
G1 X125.356 Y98.148 E19.16312
G1 X125.627 Y97.576 E19.17575
G1 X125.967 Y97.044 E19.18835
G0 F6000 X126.365 Y97.181
G1 F1200 X126.767 Y96.728 E19.20044
G1 X127.225 Y96.331 E19.21253
G1 X127.732 Y95.998 E19.22464
G1 X128.278 Y95.734 E19.23674
G1 X128.854 Y95.545 E19.24884
G1 X129.45 Y95.433 E19.26094
G1 X130 Y95.4 E19.27193
G1 X150 Y95.4 E19.67106
G1 X150.605 Y95.44 E19.68316
G1 X151.199 Y95.559 E19.69525
G1 X151.773 Y95.755 E19.70735
G1 X152.316 Y96.026 E19.71946
G1 X152.819 Y96.365 E19.73157
G1 X153.272 Y96.767 E19.74365
G1 X153.669 Y97.225 E19.75575
G1 X154.002 Y97.732 E19.76785
G1 X154.266 Y98.278 E19.77996
G1 X154.455 Y98.854 E19.79205
G1 X154.567 Y99.45 E19.80415
G1 X154.6 Y100 E19.81515
G1 X154.6 Y120 E20.21427
G1 X154.56 Y120.605 E20.22637
G1 X154.441 Y121.199 E20.23846
G1 X154.245 Y121.773 E20.25057
G1 X153.974 Y122.316 E20.26268
G1 X153.635 Y122.819 E20.27478
G1 X153.233 Y123.272 E20.28687
G1 X152.775 Y123.669 E20.29896
G1 X152.268 Y124.002 E20.31107
G1 X151.722 Y124.266 E20.32317
G1 X151.146 Y124.455 E20.33527
G1 X150.55 Y124.567 E20.34737
G1 X150 Y124.6 E20.35837
G1 X130 Y124.6 E20.75749
G1 X129.395 Y124.56 E20.76959
