;FLAVOR:Marlin
;TIME:3316
;Filament used: 3.0044m
;Layer height: 0.2
;MINX:87.201
;MINY:87.201
;MINZ:0.2
;MAXX:132.799
;MAXY:132.799
;MAXZ:30
;Generated with Cura_SteamEngine 4.8.0
M140 S60
M105
M190 S60
M104 S200
M105
M109 S200
M82 ;absolute extrusion mode
; Ender 3 Custom Start G-code
G92 E0 ; Reset Extruder
G28 ; Home all axes
G1 Z2.0 F3000 ; Move Z Axis up little to prevent scratching of Heat Bed
G1 X0.1 Y20 Z0.3 F5000.0 ; Move to start position
G1 X0.1 Y200.0 Z0.3 F1500.0 E15 ; Draw the first line
G1 X0.4 Y200.0 Z0.3 F5000.0 ; Move to side a little
G1 X0.4 Y20 Z0.3 F1500.0 E30 ; Draw the second line
G92 E0 ; Reset Extruder
G1 Z2.0 F3000 ; Move Z Axis up little to prevent scratching of Heat Bed
G1 X5 Y20 Z0.3 F5000.0 ; Move over to prevent blob squish
G92 E0
G92 E0
G1 F1500 E-6.5
;LAYER_COUNT:150
;LAYER:0
M107
G0 F6000 X93.948 Y93.808 Z0.2
;TYPE:SKIRT
G1 F1500 E0
G1 F1200 X94.226 Y93.537 E0.01291
G1 X94.371 Y93.399 E0.01957
G1 X94.655 Y93.136 E0.03244
G1 X94.823 Y92.985 E0.03996
G1 X95.116 Y92.729 E0.0529
G1 X95.557 Y92.36 E0.07202
G1 X95.693 Y92.248 E0.07788
G1 X95.995 Y92.008 E0.09071
G1 X96.174 Y91.87 E0.09823
G1 X96.484 Y91.638 E0.11111
G1 X96.651 Y91.517 E0.11797
G1 X96.966 Y91.294 E0.13081
G1 X97.433 Y90.977 E0.14958
G1 X97.607 Y90.863 E0.1565
G1 X97.931 Y90.657 E0.16927
G1 X98.109 Y90.547 E0.17623
G1 X98.438 Y90.35 E0.18898
G1 X98.92 Y90.074 E0.20745
G1 X99.115 Y89.966 E0.21487
G1 X99.452 Y89.787 E0.22756
G1 X99.944 Y89.538 E0.2459
G1 X100.136 Y89.445 E0.253
G1 X100.647 Y89.207 E0.27174
G1 X100.99 Y89.056 E0.28421
G1 X101.164 Y88.982 E0.2905
G1 X101.509 Y88.84 E0.30291
G1 X101.712 Y88.76 E0.31016
G1 X102.06 Y88.628 E0.32254
G1 X102.575 Y88.444 E0.34073
G1 X102.758 Y88.381 E0.34717
G1 X103.108 Y88.267 E0.35941
G1 X103.626 Y88.11 E0.37742
G1 X103.81 Y88.057 E0.38378
G1 X104.16 Y87.961 E0.39586
G1 X104.357 Y87.91 E0.40262
G1 X104.859 Y87.787 E0.41981
G1 X105.21 Y87.708 E0.43178
G1 X105.77 Y87.596 E0.45078
G1 X105.941 Y87.564 E0.45656
G1 X106.486 Y87.472 E0.47494
G1 X106.998 Y87.399 E0.49215
G1 X107.519 Y87.336 E0.5096
G1 X108.037 Y87.285 E0.52691
G1 X108.556 Y87.246 E0.54422
G1 X108.894 Y87.227 E0.55548
G1 X109.413 Y87.208 E0.57276
G1 X109.909 Y87.201 E0.58926
G1 X110.096 Y87.201 E0.59548
G1 X110.589 Y87.208 E0.61187
G1 X111.109 Y87.227 E0.62918
G1 X111.621 Y87.258 E0.64624
G1 X111.963 Y87.285 E0.65765
G1 X112.485 Y87.337 E0.6751
G1 X113.004 Y87.4 E0.69249
G1 X113.165 Y87.421 E0.69789
G1 X113.513 Y87.472 E0.70959
G1 X114.058 Y87.564 E0.72797
G1 X114.242 Y87.598 E0.73419
G1 X114.591 Y87.667 E0.74603
G1 X115.125 Y87.784 E0.76421
G1 X115.623 Y87.904 E0.78125
G1 X115.86 Y87.965 E0.78938
G1 X116.362 Y88.106 E0.80673
G1 X116.713 Y88.211 E0.81891
G1 X116.913 Y88.274 E0.82589
G1 X117.424 Y88.444 E0.8438
G1 X117.939 Y88.628 E0.86199
G1 X118.287 Y88.76 E0.87437
G1 X118.475 Y88.834 E0.88109
G1 X118.822 Y88.976 E0.89356
G1 X119.018 Y89.06 E0.90065
G1 X119.515 Y89.281 E0.91874
G1 X119.857 Y89.441 E0.9313
G1 X120.065 Y89.542 E0.93899
G1 X120.54 Y89.783 E0.95671
G1 X120.876 Y89.961 E0.96935
G1 X121.084 Y90.075 E0.97724
G1 X121.416 Y90.264 E0.98995
G1 X121.894 Y90.549 E1.00846
G1 X122.069 Y90.657 E1.0153
G1 X122.393 Y90.863 E1.02807
G1 X122.567 Y90.977 E1.03499
G1 X123.034 Y91.294 E1.05376
G1 X123.349 Y91.517 E1.0666
G1 X123.525 Y91.645 E1.07383
G1 X123.834 Y91.877 E1.08669
G1 X124.293 Y92.238 E1.10611
G1 X124.444 Y92.36 E1.11256
G1 X124.743 Y92.609 E1.12551
G1 X124.894 Y92.738 E1.13211
G1 X125.186 Y92.994 E1.14503
G1 X125.323 Y93.117 E1.15115
G1 X125.608 Y93.379 E1.16403
G1 X125.784 Y93.546 E1.1721
G1 X126.192 Y93.948 E1.19115
G1 X126.463 Y94.226 E1.20406
G1 X126.601 Y94.371 E1.21072
G1 X126.864 Y94.655 E1.22359
G1 X127.015 Y94.823 E1.2311
G1 X127.271 Y95.116 E1.24405
G1 X127.64 Y95.557 E1.26317
G1 X127.752 Y95.693 E1.26903
G1 X127.992 Y95.995 E1.28186
G1 X128.13 Y96.174 E1.28938
G1 X128.362 Y96.484 E1.30226
G1 X128.483 Y96.651 E1.30912
G1 X128.706 Y96.966 E1.32195
G1 X129.023 Y97.433 E1.34073
G1 X129.137 Y97.607 E1.34764
G1 X129.343 Y97.931 E1.36041
G1 X129.453 Y98.109 E1.36737
G1 X129.65 Y98.438 E1.38013
G1 X129.928 Y98.924 E1.39875
G1 X130.034 Y99.116 E1.40604
G1 X130.212 Y99.451 E1.41866
G1 X130.462 Y99.944 E1.43705
G1 X130.552 Y100.128 E1.44386
G1 X130.712 Y100.468 E1.45636
G1 X130.947 Y100.998 E1.47564
G1 X131.018 Y101.164 E1.48165
G1 X131.16 Y101.509 E1.49405
G1 X131.24 Y101.712 E1.50131
G1 X131.372 Y102.06 E1.51369
G1 X131.556 Y102.575 E1.53188
G1 X131.73 Y103.101 E1.55031
G1 X131.787 Y103.282 E1.55662
G1 X131.942 Y103.804 E1.57473
G1 X132.038 Y104.153 E1.58677
G1 X132.092 Y104.361 E1.59392
G1 X132.213 Y104.859 E1.61096
G1 X132.292 Y105.21 E1.62293
G1 X132.404 Y105.77 E1.64192
G1 X132.436 Y105.941 E1.64771
G1 X132.528 Y106.486 E1.66609
G1 X132.579 Y106.834 E1.67779
G1 X132.643 Y107.338 E1.69469
G1 X132.664 Y107.521 E1.70081
G1 X132.715 Y108.037 E1.71806
G1 X132.754 Y108.555 E1.73534
G1 X132.773 Y108.892 E1.74656
G1 X132.792 Y109.414 E1.76394
G1 X132.799 Y109.909 E1.7804
G1 X132.799 Y110.096 E1.78662
G1 X132.792 Y110.588 E1.80299
G1 X132.773 Y111.105 E1.8202
G1 X132.742 Y111.625 E1.83752
G1 X132.699 Y112.14 E1.85471
G1 X132.644 Y112.658 E1.87204
G1 X132.578 Y113.172 E1.88927
G1 X132.527 Y113.518 E1.9009
G1 X132.497 Y113.706 E1.90724
G1 X132.437 Y114.054 E1.91898
G1 X132.403 Y114.238 E1.9252
G1 X132.334 Y114.588 E1.93707
G1 X132.216 Y115.126 E1.95539
G1 X132.089 Y115.648 E1.97326
G1 X132.039 Y115.84 E1.97986
G1 X131.943 Y116.19 E1.99193
G1 X131.89 Y116.374 E1.9983
G1 X131.733 Y116.892 E2.0163
G1 X131.619 Y117.242 E2.02854
G1 X131.435 Y117.768 E2.04708
G1 X131.364 Y117.962 E2.05395
G1 X131.232 Y118.307 E2.06623
G1 X131.163 Y118.481 E2.07246
G1 X131.021 Y118.827 E2.0849
G1 X130.94 Y119.018 E2.0918
G1 X130.788 Y119.362 E2.10431
G1 X130.558 Y119.857 E2.12246
G1 X130.465 Y120.049 E2.12956
G1 X130.221 Y120.533 E2.14758
G1 X130.044 Y120.868 E2.16019
G1 X129.926 Y121.083 E2.16834
G1 X129.737 Y121.415 E2.18105
G1 X129.448 Y121.9 E2.19983
G1 X129.137 Y122.393 E2.21922
G1 X129.023 Y122.567 E2.22613
G1 X128.706 Y123.034 E2.24491
G1 X128.483 Y123.349 E2.25774
G1 X128.355 Y123.525 E2.26498
G1 X128.123 Y123.834 E2.27783
G1 X127.762 Y124.293 E2.29726
G1 X127.64 Y124.444 E2.30371
G1 X127.391 Y124.743 E2.31665
G1 X127.262 Y124.894 E2.32326
G1 X127.006 Y125.186 E2.33618
G1 X126.883 Y125.323 E2.3423
G1 X126.621 Y125.608 E2.35518
G1 X126.454 Y125.784 E2.36324
G1 X126.052 Y126.192 E2.3823
G1 X125.774 Y126.463 E2.39521
G1 X125.629 Y126.601 E2.40187
G1 X125.345 Y126.864 E2.41474
G1 X125.177 Y127.015 E2.42225
G1 X124.884 Y127.271 E2.43519
G1 X124.443 Y127.64 E2.45432
G1 X124.307 Y127.752 E2.46018
G1 X124.005 Y127.992 E2.47301
G1 X123.826 Y128.13 E2.48053
G1 X123.516 Y128.362 E2.4934
G1 X123.349 Y128.483 E2.50026
G1 X123.034 Y128.706 E2.5131
G1 X122.567 Y129.023 E2.53187
G1 X122.393 Y129.137 E2.53879
G1 X122.069 Y129.343 E2.55156
G1 X121.891 Y129.453 E2.55852
G1 X121.562 Y129.65 E2.57128
G1 X121.08 Y129.926 E2.58975
G1 X120.885 Y130.034 E2.59716
G1 X120.548 Y130.213 E2.60986
G1 X120.056 Y130.462 E2.6282
G1 X119.864 Y130.555 E2.63529
G1 X119.353 Y130.793 E2.65404
G1 X119.01 Y130.944 E2.6665
G1 X118.836 Y131.018 E2.67279
G1 X118.491 Y131.16 E2.6852
G1 X118.288 Y131.24 E2.69246
G1 X117.94 Y131.372 E2.70484
G1 X117.425 Y131.556 E2.72303
G1 X117.242 Y131.619 E2.72947
G1 X116.892 Y131.733 E2.74171
G1 X116.374 Y131.89 E2.75971
G1 X116.19 Y131.943 E2.76608
G1 X115.84 Y132.039 E2.77815
G1 X115.643 Y132.09 E2.78492
G1 X115.141 Y132.213 E2.80211
G1 X114.79 Y132.292 E2.81408
G1 X114.23 Y132.404 E2.83307
G1 X114.059 Y132.436 E2.83886
G1 X113.514 Y132.528 E2.85724
G1 X113.002 Y132.601 E2.87444
G1 X112.481 Y132.664 E2.8919
G1 X111.963 Y132.715 E2.90921
G1 X111.444 Y132.754 E2.92652
G1 X111.106 Y132.773 E2.93778
G1 X110.587 Y132.792 E2.95505
G1 X110.091 Y132.799 E2.97155
G1 X109.904 Y132.799 E2.97777
G1 X109.412 Y132.792 E2.99414
G1 X108.895 Y132.773 E3.01134
G1 X108.375 Y132.742 E3.02867
G1 X107.86 Y132.699 E3.04586
G1 X107.342 Y132.644 E3.06318
G1 X106.828 Y132.578 E3.08042
G1 X106.482 Y132.527 E3.09205
G1 X106.294 Y132.497 E3.09838
G1 X105.946 Y132.437 E3.11013
G1 X105.762 Y132.403 E3.11635
G1 X105.412 Y132.334 E3.12822
G1 X104.874 Y132.216 E3.14654
G1 X104.352 Y132.089 E3.1644
G1 X104.16 Y132.039 E3.171
G1 X103.81 Y131.943 E3.18307
G1 X103.626 Y131.89 E3.18944
G1 X103.108 Y131.733 E3.20745
G1 X102.758 Y131.619 E3.21969
G1 X102.232 Y131.435 E3.23822
G1 X102.038 Y131.364 E3.24509
G1 X101.693 Y131.232 E3.25738
G1 X101.519 Y131.163 E3.26361
G1 X101.173 Y131.021 E3.27605
G1 X100.982 Y130.94 E3.28295
G1 X100.638 Y130.788 E3.29545
G1 X100.143 Y130.558 E3.31361
G1 X99.951 Y130.465 E3.3207
G1 X99.46 Y130.217 E3.339
G1 X99.124 Y130.039 E3.35165
G1 X98.923 Y129.928 E3.35928
G1 X98.428 Y129.645 E3.37825
G1 X98.1 Y129.448 E3.39097
G1 X97.607 Y129.137 E3.41036
G1 X97.433 Y129.023 E3.41728
G1 X97.114 Y128.808 E3.43008
G1 X96.962 Y128.703 E3.43622
G1 X96.646 Y128.479 E3.4491
G1 X96.477 Y128.356 E3.45605
G1 X96.169 Y128.125 E3.46886
G1 X96.006 Y127.999 E3.47571
G1 X95.703 Y127.759 E3.48857
G1 X95.259 Y127.392 E3.50773
G1 X95.106 Y127.262 E3.51441
G1 X94.814 Y127.006 E3.52732
G1 X94.676 Y126.882 E3.53349
G1 X94.39 Y126.619 E3.54641
G1 X94.215 Y126.453 E3.55444
G1 X93.808 Y126.052 E3.57344
G1 X93.537 Y125.774 E3.58635
G1 X93.4 Y125.63 E3.59296
G1 X93.136 Y125.345 E3.60589
G1 X92.983 Y125.175 E3.61349
G1 X92.728 Y124.883 E3.62639
G1 X92.36 Y124.443 E3.64546
G1 X92.25 Y124.309 E3.65123
G1 X92.009 Y124.006 E3.66411
G1 X91.867 Y123.821 E3.67186
G1 X91.636 Y123.512 E3.6847
G1 X91.517 Y123.349 E3.69141
G1 X91.195 Y122.891 E3.71003
G1 X90.979 Y122.571 E3.72287
G1 X90.858 Y122.387 E3.7302
G1 X90.653 Y122.064 E3.74292
G1 X90.35 Y121.562 E3.76242
G1 X90.072 Y121.076 E3.78104
G1 X89.966 Y120.884 E3.78834
G1 X89.788 Y120.549 E3.80096
G1 X89.538 Y120.056 E3.81934
G1 X89.445 Y119.864 E3.82644
G1 X89.207 Y119.353 E3.84519
G1 X89.056 Y119.01 E3.85765
G1 X88.982 Y118.836 E3.86394
G1 X88.84 Y118.491 E3.87635
G1 X88.76 Y118.288 E3.8836
G1 X88.628 Y117.94 E3.89598
G1 X88.444 Y117.425 E3.91417
G1 X88.381 Y117.242 E3.92061
G1 X88.267 Y116.892 E3.93285
G1 X88.11 Y116.374 E3.95086
G1 X88.057 Y116.19 E3.95722
G1 X87.961 Y115.84 E3.9693
G1 X87.91 Y115.643 E3.97606
G1 X87.787 Y115.141 E3.99325
G1 X87.708 Y114.79 E4.00522
G1 X87.596 Y114.23 E4.02422
G1 X87.564 Y114.059 E4.03
G1 X87.472 Y113.514 E4.04838
G1 X87.399 Y113.002 E4.06559
G1 X87.336 Y112.481 E4.08304
G1 X87.285 Y111.963 E4.10035
G1 X87.246 Y111.444 E4.11766
G1 X87.227 Y111.106 E4.12892
G1 X87.208 Y110.587 E4.1462
G1 X87.201 Y110.091 E4.1627
G1 X87.201 Y109.904 E4.16892
G1 X87.208 Y109.412 E4.18528
G1 X87.227 Y108.895 E4.20249
G1 X87.258 Y108.375 E4.21981
G1 X87.301 Y107.86 E4.237
G1 X87.356 Y107.342 E4.25433
G1 X87.422 Y106.828 E4.27156
G1 X87.473 Y106.482 E4.2832
G1 X87.503 Y106.294 E4.28953
G1 X87.563 Y105.946 E4.30127
G1 X87.597 Y105.762 E4.3075
G1 X87.666 Y105.412 E4.31936
G1 X87.784 Y104.874 E4.33768
G1 X87.911 Y104.352 E4.35555
G1 X87.961 Y104.16 E4.36215
G1 X88.057 Y103.81 E4.37422
G1 X88.11 Y103.626 E4.38059
G1 X88.267 Y103.108 E4.39859
G1 X88.381 Y102.758 E4.41083
G1 X88.565 Y102.232 E4.42937
G1 X88.636 Y102.038 E4.43624
G1 X88.768 Y101.693 E4.44853
G1 X88.837 Y101.519 E4.45475
G1 X88.979 Y101.173 E4.46719
G1 X89.06 Y100.982 E4.47409
G1 X89.212 Y100.638 E4.4866
G1 X89.442 Y100.143 E4.50475
G1 X89.535 Y99.951 E4.51185
G1 X89.779 Y99.467 E4.52988
G1 X89.956 Y99.132 E4.54248
G1 X90.074 Y98.917 E4.55064
G1 X90.263 Y98.585 E4.56334
G1 X90.552 Y98.1 E4.58212
G1 X90.863 Y97.607 E4.60151
G1 X90.977 Y97.433 E4.60843
G1 X91.294 Y96.966 E4.6272
G1 X91.517 Y96.651 E4.64004
G1 X91.645 Y96.475 E4.64727
G1 X91.877 Y96.166 E4.66013
G1 X92.238 Y95.707 E4.67955
G1 X92.36 Y95.556 E4.68601
G1 X92.609 Y95.257 E4.69895
G1 X92.738 Y95.106 E4.70555
G1 X92.994 Y94.814 E4.71847
G1 X93.117 Y94.677 E4.72459
G1 X93.379 Y94.392 E4.73747
G1 X93.546 Y94.216 E4.74554
G1 X93.948 Y93.808 E4.76459
G0 F6000 X94.228 Y94.094
G1 F1200 X94.506 Y93.823 E4.7775
G1 X94.643 Y93.693 E4.78378
G1 X94.927 Y93.43 E4.79666
G1 X95.086 Y93.286 E4.80379
G1 X95.379 Y93.03 E4.81673
G1 X95.812 Y92.667 E4.83552
G1 X96.244 Y92.322 E4.85391
G1 X96.414 Y92.19 E4.86107
G1 X96.724 Y91.958 E4.87395
G1 X96.882 Y91.843 E4.88045
G1 X97.197 Y91.62 E4.89329
G1 X97.656 Y91.309 E4.91173
G1 X97.822 Y91.2 E4.91833
G1 X98.146 Y90.994 E4.9311
G1 X98.314 Y90.89 E4.93767
G1 X98.643 Y90.693 E4.95043
G1 X99.117 Y90.422 E4.96859
G1 X99.303 Y90.32 E4.97564
G1 X99.786 Y90.065 E4.99381
G1 X100.124 Y89.895 E5.00639
G1 X100.306 Y89.807 E5.01312
G1 X100.808 Y89.573 E5.03154
G1 X101.151 Y89.422 E5.044
G1 X101.661 Y89.21 E5.06237
G1 X101.854 Y89.134 E5.06927
G1 X102.36 Y88.944 E5.08725
G1 X102.708 Y88.821 E5.09953
G1 X102.882 Y88.762 E5.10564
G1 X103.392 Y88.598 E5.12345
G1 X103.741 Y88.493 E5.13558
G1 X104.266 Y88.347 E5.1537
G1 X104.452 Y88.298 E5.1601
G1 X104.947 Y88.178 E5.17704
G1 X105.298 Y88.099 E5.189
G1 X105.5 Y88.056 E5.19587
G1 X106.009 Y87.958 E5.21311
G1 X106.356 Y87.898 E5.22483
G1 X106.544 Y87.868 E5.23116
G1 X107.047 Y87.796 E5.24806
G1 X107.391 Y87.753 E5.25959
G1 X107.904 Y87.699 E5.27675
G1 X108.41 Y87.657 E5.29363
G1 X108.917 Y87.627 E5.31053
G1 X109.09 Y87.619 E5.31629
G1 X109.579 Y87.605 E5.33256
G1 X110.091 Y87.601 E5.34959
G1 X110.576 Y87.608 E5.36572
G1 X110.912 Y87.619 E5.3769
G1 X111.424 Y87.646 E5.39395
G1 X111.931 Y87.684 E5.41086
G1 X112.102 Y87.699 E5.41657
G1 X112.611 Y87.753 E5.4336
G1 X113.107 Y87.817 E5.45023
G1 X113.455 Y87.868 E5.46193
G1 X113.643 Y87.898 E5.46826
G1 X113.99 Y87.958 E5.47997
G1 X114.513 Y88.06 E5.4977
G1 X114.688 Y88.096 E5.50364
G1 X115.179 Y88.207 E5.52038
G1 X115.528 Y88.292 E5.53233
G1 X115.753 Y88.351 E5.54007
G1 X116.248 Y88.489 E5.55716
G1 X116.599 Y88.594 E5.56934
G1 X117.135 Y88.768 E5.58809
G1 X117.639 Y88.944 E5.60584
G1 X118.145 Y89.134 E5.62382
G1 X118.324 Y89.204 E5.63021
G1 X118.671 Y89.346 E5.64268
G1 X118.857 Y89.425 E5.6494
G1 X119.346 Y89.643 E5.66721
G1 X119.688 Y89.803 E5.67977
G1 X119.885 Y89.899 E5.68706
G1 X120.353 Y90.137 E5.70452
G1 X120.689 Y90.315 E5.71717
G1 X120.886 Y90.423 E5.72464
G1 X121.218 Y90.612 E5.73735
G1 X121.688 Y90.892 E5.75554
G1 X121.854 Y90.994 E5.76202
G1 X122.178 Y91.2 E5.77479
G1 X122.344 Y91.309 E5.7814
G1 X122.803 Y91.62 E5.79984
G1 X123.118 Y91.843 E5.81267
G1 X123.285 Y91.965 E5.81955
G1 X123.594 Y92.197 E5.83241
G1 X123.743 Y92.312 E5.83867
G1 X124.045 Y92.551 E5.85147
G1 X124.487 Y92.917 E5.87056
G1 X124.63 Y93.039 E5.87681
G1 X125.052 Y93.411 E5.89552
G1 X125.337 Y93.673 E5.9084
G1 X125.504 Y93.832 E5.91607
G1 X125.906 Y94.228 E5.93484
G1 X126.177 Y94.506 E5.94775
G1 X126.307 Y94.643 E5.95403
G1 X126.57 Y94.927 E5.96691
G1 X126.714 Y95.086 E5.97404
G1 X126.97 Y95.379 E5.98698
G1 X127.333 Y95.812 E6.00577
G1 X127.678 Y96.244 E6.02416
G1 X127.81 Y96.414 E6.03132
G1 X128.042 Y96.724 E6.0442
G1 X128.157 Y96.882 E6.0507
G1 X128.38 Y97.197 E6.06354
G1 X128.691 Y97.656 E6.08198
G1 X128.8 Y97.822 E6.08858
G1 X129.006 Y98.146 E6.10135
G1 X129.11 Y98.314 E6.10792
G1 X129.393 Y98.79 E6.12634
G1 X129.581 Y99.121 E6.139
G1 X129.681 Y99.304 E6.14594
G1 X129.935 Y99.786 E6.16406
G1 X130.105 Y100.124 E6.17664
G1 X130.19 Y100.298 E6.18308
G1 X130.35 Y100.638 E6.19558
G1 X130.581 Y101.159 E6.21454
G1 X130.648 Y101.316 E6.22022
G1 X130.79 Y101.661 E6.23262
G1 X130.866 Y101.854 E6.23952
G1 X131.056 Y102.36 E6.2575
G1 X131.179 Y102.708 E6.26978
G1 X131.35 Y103.225 E6.28789
G1 X131.404 Y103.397 E6.29388
G1 X131.556 Y103.91 E6.31168
G1 X131.652 Y104.259 E6.32372
G1 X131.703 Y104.456 E6.33049
G1 X131.822 Y104.947 E6.34729
G1 X131.901 Y105.298 E6.35926
G1 X131.944 Y105.5 E6.36613
G1 X132.042 Y106.009 E6.38337
G1 X132.102 Y106.356 E6.39508
G1 X132.132 Y106.544 E6.40141
G1 X132.204 Y107.045 E6.41825
G1 X132.247 Y107.388 E6.42974
G1 X132.301 Y107.906 E6.44707
G1 X132.343 Y108.41 E6.46389
G1 X132.373 Y108.914 E6.48068
G1 X132.381 Y109.09 E6.48654
G1 X132.395 Y109.579 E6.50281
G1 X132.399 Y110.091 E6.51984
G1 X132.392 Y110.575 E6.53594
G1 X132.381 Y110.911 E6.54712
G1 X132.354 Y111.422 E6.56414
