;FLAVOR:Marlin
;TIME:4021
;Filament used: 3.12814m
;Layer height: 0.2
;MINX:91.488
;MINY:88.875
;MINZ:0.2
;MAXX:128.511
;MAXY:134.475
;MAXZ:30
;Generated with Cura_SteamEngine 4.8.0
M140 S60
M105
M190 S60
M104 S200
M105
M109 S200
M82 ;absolute extrusion mode
; Ender 3 Custom Start G-code
G92 E0 ; Reset Extruder
G28 ; Home all axes
G1 Z2.0 F3000 ; Move Z Axis up little to prevent scratching of Heat Bed
G1 X0.1 Y20 Z0.3 F5000.0 ; Move to start position
G1 X0.1 Y200.0 Z0.3 F1500.0 E15 ; Draw the first line
G1 X0.4 Y200.0 Z0.3 F5000.0 ; Move to side a little
G1 X0.4 Y20 Z0.3 F1500.0 E30 ; Draw the second line
G92 E0 ; Reset Extruder
G1 Z2.0 F3000 ; Move Z Axis up little to prevent scratching of Heat Bed
G1 X5 Y20 Z0.3 F5000.0 ; Move over to prevent blob squish
G92 E0
G92 E0
G1 F1500 E-6.5
;LAYER_COUNT:150
;LAYER:0
M107
G0 F6000 X93.774 Y91.277 Z0.2
;TYPE:SKIRT
G1 F1500 E0
G1 F1200 X93.891 Y91.16 E0.0055
G1 X94.477 Y90.63 E0.03178
G1 X95.113 Y90.163 E0.05803
G1 X95.793 Y89.762 E0.08428
G1 X96.511 Y89.432 E0.11057
G1 X97.258 Y89.177 E0.13682
G1 X98.027 Y88.998 E0.16308
G1 X98.811 Y88.898 E0.18937
G1 X99.406 Y88.875 E0.20917
G1 X107.134 Y88.875 E0.46621
G1 X107.737 Y88.906 E0.48629
G1 X107.797 Y88.898 E0.4883
G1 X108.392 Y88.875 E0.50811
G1 X111.608 Y88.875 E0.61507
G1 X112.312 Y88.911 E0.63852
G1 X112.867 Y88.875 E0.65701
G1 X120.594 Y88.875 E0.91402
G1 X121.383 Y88.915 E0.94029
G1 X122.163 Y89.034 E0.96653
G1 X122.928 Y89.232 E0.99282
G1 X123.668 Y89.506 E1.01906
G1 X124.377 Y89.854 E1.04533
G1 X125.048 Y90.272 E1.07162
G1 X125.672 Y90.755 E1.09787
G1 X126.109 Y91.16 E1.11769
G1 X126.226 Y91.277 E1.12319
G1 X126.756 Y91.863 E1.14947
G1 X127.223 Y92.499 E1.17571
G1 X127.624 Y93.179 E1.20197
G1 X127.954 Y93.897 E1.22825
G1 X128.209 Y94.644 E1.25451
G1 X128.388 Y95.413 E1.28077
G1 X128.488 Y96.197 E1.30705
G1 X128.511 Y96.792 E1.32686
G1 X128.511 Y126.558 E2.31688
G1 X128.471 Y127.347 E2.34316
G1 X128.352 Y128.127 E2.3694
G1 X128.154 Y128.892 E2.39568
G1 X127.88 Y129.632 E2.42193
G1 X127.532 Y130.341 E2.44819
G1 X127.114 Y131.012 E2.47449
G1 X126.631 Y131.636 E2.50073
G1 X126.226 Y132.073 E2.52055
G1 X126.109 Y132.19 E2.52605
G1 X125.523 Y132.72 E2.55233
G1 X124.887 Y133.187 E2.57858
G1 X124.207 Y133.588 E2.60483
G1 X123.489 Y133.918 E2.63112
G1 X122.742 Y134.173 E2.65737
G1 X121.973 Y134.352 E2.68363
G1 X121.189 Y134.452 E2.70992
G1 X120.594 Y134.475 E2.72972
G1 X112.866 Y134.475 E2.98676
G1 X112.263 Y134.444 E3.00684
G1 X112.203 Y134.452 E3.00885
G1 X111.608 Y134.475 E3.02866
G1 X108.391 Y134.475 E3.13565
G1 X107.687 Y134.439 E3.1591
G1 X107.133 Y134.475 E3.17756
G1 X99.405 Y134.475 E3.4346
G1 X98.616 Y134.435 E3.46088
G1 X97.836 Y134.316 E3.48712
G1 X97.071 Y134.118 E3.5134
G1 X96.331 Y133.844 E3.53965
G1 X95.622 Y133.496 E3.56592
G1 X94.951 Y133.078 E3.59221
G1 X94.327 Y132.595 E3.61845
G1 X93.89 Y132.19 E3.63827
G1 X93.773 Y132.073 E3.64377
G1 X93.243 Y131.487 E3.67005
G1 X92.776 Y130.851 E3.6963
G1 X92.375 Y130.171 E3.72255
G1 X92.045 Y129.453 E3.74884
G1 X91.79 Y128.706 E3.77509
G1 X91.611 Y127.937 E3.80135
G1 X91.511 Y127.153 E3.82764
G1 X91.488 Y126.558 E3.84744
G1 X91.489 Y96.792 E4.83746
G1 X91.529 Y96.003 E4.86374
G1 X91.649 Y95.222 E4.89002
G1 X91.846 Y94.458 E4.91626
G1 X92.121 Y93.717 E4.94255
G1 X92.468 Y93.008 E4.9688
G1 X92.886 Y92.338 E4.99507
G1 X93.369 Y91.713 E5.02134
G1 X93.774 Y91.277 E5.04113
G0 F6000 X94.056 Y91.559
G1 F1200 X94.173 Y91.442 E5.04664
G1 X94.745 Y90.928 E5.07221
G1 X95.367 Y90.475 E5.09781
G1 X96.032 Y90.089 E5.12338
G1 X96.734 Y89.774 E5.14897
G1 X97.465 Y89.534 E5.17456
G1 X98.216 Y89.371 E5.20012
G1 X98.981 Y89.287 E5.22572
G1 X99.406 Y89.275 E5.23986
G1 X107.134 Y89.275 E5.4969
G1 X107.773 Y89.308 E5.51818
G1 X107.967 Y89.287 E5.52467
G1 X108.392 Y89.275 E5.53881
G1 X111.608 Y89.275 E5.64577
G1 X112.233 Y89.308 E5.66659
G1 X112.361 Y89.292 E5.67088
G1 X112.867 Y89.275 E5.68772
G1 X120.594 Y89.275 E5.94472
G1 X121.362 Y89.315 E5.9703
G1 X122.122 Y89.434 E5.99588
G1 X122.865 Y89.632 E6.02146
G1 X123.584 Y89.906 E6.04705
G1 X124.27 Y90.253 E6.07262
G1 X124.917 Y90.669 E6.0982
G1 X125.517 Y91.15 E6.12378
G1 X125.827 Y91.442 E6.13795
G1 X125.944 Y91.559 E6.14345
G1 X126.458 Y92.131 E6.16903
G1 X126.911 Y92.753 E6.19462
G1 X127.297 Y93.418 E6.22019
G1 X127.612 Y94.12 E6.24578
G1 X127.852 Y94.851 E6.27137
G1 X128.015 Y95.602 E6.29693
G1 X128.099 Y96.367 E6.32253
G1 X128.111 Y96.792 E6.33667
G1 X128.111 Y126.558 E7.32669
G1 X128.071 Y127.326 E7.35227
G1 X127.952 Y128.086 E7.37786
G1 X127.754 Y128.829 E7.40343
G1 X127.48 Y129.548 E7.42902
G1 X127.133 Y130.234 E7.45459
G1 X126.717 Y130.881 E7.48018
G1 X126.236 Y131.481 E7.50575
G1 X125.944 Y131.791 E7.51992
G1 X125.827 Y131.908 E7.52542
G1 X125.255 Y132.422 E7.551
G1 X124.633 Y132.875 E7.57659
G1 X123.968 Y133.261 E7.60217
G1 X123.266 Y133.576 E7.62776
G1 X122.535 Y133.816 E7.65335
G1 X121.784 Y133.979 E7.67891
G1 X121.019 Y134.063 E7.7045
G1 X120.594 Y134.075 E7.71865
G1 X112.866 Y134.075 E7.97568
G1 X112.227 Y134.042 E7.99696
G1 X112.033 Y134.063 E8.00345
G1 X111.608 Y134.075 E8.01759
G1 X108.391 Y134.075 E8.12459
G1 X107.767 Y134.042 E8.14537
G1 X107.639 Y134.058 E8.14966
G1 X107.133 Y134.075 E8.1665
G1 X99.405 Y134.075 E8.42354
G1 X98.637 Y134.035 E8.44912
G1 X97.877 Y133.916 E8.4747
G1 X97.134 Y133.718 E8.50028
G1 X96.415 Y133.444 E8.52587
G1 X95.729 Y133.097 E8.55144
G1 X95.082 Y132.681 E8.57702
G1 X94.482 Y132.2 E8.6026
G1 X94.172 Y131.908 E8.61676
G1 X94.055 Y131.791 E8.62227
G1 X93.541 Y131.219 E8.64784
G1 X93.088 Y130.597 E8.67344
G1 X92.702 Y129.932 E8.69901
G1 X92.387 Y129.23 E8.7246
G1 X92.147 Y128.499 E8.75019
G1 X91.984 Y127.748 E8.77575
G1 X91.9 Y126.983 E8.80135
G1 X91.888 Y126.558 E8.81549
G1 X91.889 Y96.792 E9.80551
G1 X91.929 Y96.024 E9.83109
G1 X92.049 Y95.264 E9.85668
G1 X92.246 Y94.521 E9.88225
G1 X92.52 Y93.802 E9.90784
G1 X92.867 Y93.115 E9.93344
G1 X93.283 Y92.469 E9.95899
G1 X93.765 Y91.869 E9.98459
G1 X94.056 Y91.559 E9.99873
G0 F6000 X94.339 Y91.842
G1 F1200 X94.456 Y91.725 E10.00424
G1 X95.013 Y91.225 E10.02913
G1 X95.619 Y90.788 E10.05398
G1 X96.269 Y90.417 E10.07887
G1 X96.955 Y90.118 E10.10376
G1 X97.669 Y89.894 E10.12865
G1 X98.402 Y89.747 E10.15352
G1 X99.406 Y89.675 E10.187
G1 X107.134 Y89.675 E10.44403
G1 X107.854 Y89.714 E10.46801
G1 X108.392 Y89.675 E10.48595
G1 X111.608 Y89.675 E10.59292
G1 X112.249 Y89.709 E10.61427
G1 X112.867 Y89.675 E10.63485
G1 X120.594 Y89.675 E10.89185
G1 X121.341 Y89.715 E10.91674
G1 X122.079 Y89.834 E10.9416
G1 X122.801 Y90.032 E10.9665
G1 X123.497 Y90.305 E10.99137
G1 X124.16 Y90.652 E11.01625
G1 X124.783 Y91.067 E11.04115
G1 X125.544 Y91.725 E11.07461
G1 X125.661 Y91.842 E11.08012
G1 X126.161 Y92.399 E11.10501
G1 X126.598 Y93.005 E11.12986
G1 X126.969 Y93.655 E11.15475
G1 X127.268 Y94.341 E11.17964
G1 X127.492 Y95.055 E11.20453
G1 X127.639 Y95.788 E11.2294
G1 X127.711 Y96.792 E11.26288
G1 X127.711 Y126.558 E12.2529
G1 X127.671 Y127.305 E12.27778
G1 X127.552 Y128.043 E12.30264
G1 X127.354 Y128.765 E12.32754
G1 X127.081 Y129.461 E12.35241
G1 X126.734 Y130.124 E12.3773
G1 X126.319 Y130.747 E12.40219
G1 X125.661 Y131.508 E12.43565
G1 X125.544 Y131.625 E12.44116
G1 X124.987 Y132.125 E12.46605
G1 X124.381 Y132.562 E12.4909
G1 X123.731 Y132.933 E12.5158
G1 X123.045 Y133.232 E12.54069
G1 X122.331 Y133.456 E12.56557
G1 X121.598 Y133.603 E12.59044
G1 X120.594 Y133.675 E12.62392
G1 X112.866 Y133.675 E12.88095
G1 X112.146 Y133.636 E12.90494
G1 X111.608 Y133.675 E12.92288
G1 X108.391 Y133.675 E13.02987
G1 X107.751 Y133.641 E13.05119
G1 X107.133 Y133.675 E13.07178
G1 X99.405 Y133.675 E13.32881
G1 X98.658 Y133.635 E13.35369
G1 X97.92 Y133.516 E13.37855
G1 X97.198 Y133.318 E13.40345
G1 X96.502 Y133.045 E13.42832
G1 X95.839 Y132.698 E13.45321
G1 X95.216 Y132.283 E13.47811
G1 X94.455 Y131.625 E13.51157
G1 X94.338 Y131.508 E13.51707
G1 X93.838 Y130.951 E13.54197
G1 X93.401 Y130.345 E13.56682
G1 X93.03 Y129.695 E13.59171
G1 X92.731 Y129.009 E13.6166
G1 X92.507 Y128.295 E13.64149
G1 X92.36 Y127.562 E13.66635
G1 X92.288 Y126.558 E13.69983
G1 X92.289 Y96.792 E14.68985
G1 X92.329 Y96.045 E14.71473
G1 X92.448 Y95.306 E14.73963
G1 X92.646 Y94.585 E14.7645
G1 X92.92 Y93.889 E14.78938
G1 X93.266 Y93.225 E14.81428
G1 X93.681 Y92.603 E14.83915
G1 X94.339 Y91.842 E14.87261
G0 F6000 X94.622 Y92.125
G1 F1200 X94.739 Y92.008 E14.87811
G1 X95.28 Y91.524 E14.90226
G1 X95.871 Y91.101 E14.92643
G1 X96.505 Y90.747 E14.95058
G1 X97.174 Y90.464 E14.97474
G1 X97.87 Y90.256 E14.9989
G1 X98.585 Y90.126 E15.02307
G1 X99.406 Y90.075 E15.05043
G1 X107.134 Y90.075 E15.30747
G1 X107.8 Y90.112 E15.32965
G1 X108.392 Y90.075 E15.34938
G1 X111.608 Y90.075 E15.45634
G1 X112.338 Y90.116 E15.48066
G1 X112.867 Y90.075 E15.49831
G1 X120.594 Y90.075 E15.75531
G1 X121.319 Y90.115 E15.77946
G1 X122.036 Y90.234 E15.80363
G1 X122.735 Y90.432 E15.8278
G1 X123.408 Y90.705 E15.85195
G1 X124.047 Y91.05 E15.87611
G1 X124.644 Y91.464 E15.90027
G1 X125.261 Y92.008 E15.92763
G1 X125.378 Y92.125 E15.93313
G1 X125.862 Y92.666 E15.95728
G1 X126.285 Y93.257 E15.98145
G1 X126.639 Y93.891 E16.0056
G1 X126.922 Y94.56 E16.02976
G1 X127.13 Y95.256 E16.05392
G1 X127.26 Y95.971 E16.07809
G1 X127.311 Y96.792 E16.10545
G1 X127.311 Y126.558 E17.09547
G1 X127.271 Y127.283 E17.11962
G1 X127.152 Y128 E17.1438
G1 X126.954 Y128.699 E17.16796
G1 X126.681 Y129.372 E17.19212
G1 X126.336 Y130.011 E17.21627
G1 X125.922 Y130.608 E17.24043
G1 X125.378 Y131.225 E17.26779
G1 X125.261 Y131.342 E17.27329
G1 X124.72 Y131.826 E17.29744
G1 X124.129 Y132.249 E17.32161
G1 X123.495 Y132.603 E17.34576
G1 X122.826 Y132.886 E17.36992
G1 X122.13 Y133.094 E17.39408
G1 X121.415 Y133.224 E17.41825
G1 X120.594 Y133.275 E17.44561
G1 X112.866 Y133.275 E17.70265
G1 X112.2 Y133.238 E17.72483
G1 X111.608 Y133.275 E17.74456
G1 X108.391 Y133.275 E17.85156
G1 X107.662 Y133.234 E17.87584
G1 X107.133 Y133.275 E17.89349
G1 X99.405 Y133.275 E18.15053
G1 X98.68 Y133.235 E18.17468
G1 X97.963 Y133.116 E18.19885
G1 X97.264 Y132.918 E18.22301
G1 X96.591 Y132.645 E18.24717
G1 X95.952 Y132.3 E18.27132
G1 X95.355 Y131.886 E18.29549
G1 X94.738 Y131.342 E18.32284
G1 X94.621 Y131.225 E18.32835
G1 X94.137 Y130.684 E18.35249
G1 X93.714 Y130.093 E18.37666
G1 X93.36 Y129.459 E18.40082
G1 X93.077 Y128.79 E18.42498
G1 X92.869 Y128.094 E18.44914
G1 X92.739 Y127.379 E18.47331
G1 X92.688 Y126.558 E18.50067
G1 X92.689 Y96.792 E19.49069
G1 X92.729 Y96.067 E19.51484
G1 X92.848 Y95.35 E19.53901
G1 X93.046 Y94.651 E19.56318
G1 X93.319 Y93.978 E19.58733
G1 X93.664 Y93.339 E19.61148
G1 X94.078 Y92.742 E19.63565
G1 X94.622 Y92.125 E19.66301
G0 F6000 X94.905 Y92.408
G1 F1200 X95.022 Y92.291 E19.66851
G1 X95.547 Y91.822 E19.69192
G1 X96.122 Y91.416 E19.71534
G1 X96.74 Y91.078 E19.73876
G1 X97.391 Y90.811 E19.76217
G1 X98.069 Y90.621 E19.78559
G1 X98.764 Y90.508 E19.809
G1 X99.406 Y90.475 E19.83039
G1 X107.134 Y90.475 E20.08742
G1 X107.741 Y90.51 E20.10764
G1 X107.75 Y90.508 E20.10795
G1 X108.392 Y90.475 E20.12933
G1 X111.608 Y90.475 E20.2363
G1 X112.246 Y90.511 E20.25755
G1 X112.347 Y90.497 E20.26094
G1 X112.867 Y90.475 E20.27825
G1 X120.594 Y90.475 E20.53525
G1 X121.297 Y90.515 E20.55867
G1 X121.991 Y90.634 E20.58209
G1 X122.666 Y90.832 E20.60549
G1 X123.315 Y91.104 E20.62889
G1 X123.929 Y91.449 E20.65232
G1 X124.5 Y91.86 E20.67572
G1 X124.978 Y92.291 E20.69712
G1 X125.095 Y92.408 E20.70263
G1 X125.564 Y92.933 E20.72604
G1 X125.97 Y93.508 E20.74945
G1 X126.308 Y94.126 E20.77288
G1 X126.575 Y94.777 E20.79628
G1 X126.765 Y95.455 E20.8197
G1 X126.878 Y96.15 E20.84312
G1 X126.911 Y96.792 E20.8645
G1 X126.911 Y126.558 E21.85452
G1 X126.871 Y127.261 E21.87794
G1 X126.752 Y127.955 E21.90136
G1 X126.554 Y128.63 E21.92476
G1 X126.282 Y129.279 E21.94817
G1 X125.937 Y129.893 E21.97159
G1 X125.526 Y130.464 E21.99499
G1 X125.095 Y130.942 E22.0164
G1 X124.978 Y131.059 E22.0219
G1 X124.453 Y131.528 E22.04531
G1 X123.878 Y131.934 E22.06873
G1 X123.26 Y132.272 E22.09215
G1 X122.609 Y132.539 E22.11556
G1 X121.931 Y132.729 E22.13898
G1 X121.236 Y132.842 E22.1624
G1 X120.594 Y132.875 E22.18378
G1 X112.866 Y132.875 E22.44081
G1 X112.259 Y132.84 E22.46103
G1 X112.25 Y132.842 E22.46134
G1 X111.608 Y132.875 E22.48272
G1 X108.391 Y132.875 E22.58972
G1 X107.753 Y132.839 E22.61097
G1 X107.653 Y132.853 E22.61433
G1 X107.133 Y132.875 E22.63164
G1 X99.405 Y132.875 E22.88868
G1 X98.702 Y132.835 E22.9121
G1 X98.008 Y132.716 E22.93552
G1 X97.333 Y132.518 E22.95891
G1 X96.684 Y132.246 E22.98232
G1 X96.07 Y131.901 E23.00574
G1 X95.499 Y131.49 E23.02914
G1 X95.021 Y131.059 E23.05055
G1 X94.904 Y130.942 E23.05605
G1 X94.435 Y130.417 E23.07947
G1 X94.029 Y129.842 E23.10288
G1 X93.691 Y129.224 E23.12631
G1 X93.424 Y128.573 E23.14971
G1 X93.234 Y127.895 E23.17313
G1 X93.121 Y127.2 E23.19655
G1 X93.088 Y126.558 E23.21793
G1 X93.089 Y96.792 E24.20795
G1 X93.129 Y96.089 E24.23137
G1 X93.248 Y95.395 E24.25479
G1 X93.446 Y94.719 E24.27822
G1 X93.718 Y94.07 E24.30162
G1 X94.063 Y93.456 E24.32505
G1 X94.475 Y92.885 E24.34847
G1 X94.905 Y92.408 E24.36983
G0 F6000 X95.188 Y92.691
G1 F1200 X95.305 Y92.574 E24.37533
G1 X95.814 Y92.121 E24.39799
G1 X96.372 Y91.732 E24.42062
G1 X96.972 Y91.41 E24.44326
G1 X97.606 Y91.161 E24.46592
G1 X98.265 Y90.988 E24.48858
G1 X98.939 Y90.894 E24.51121
G1 X99.406 Y90.875 E24.52676
G1 X107.134 Y90.875 E24.78379
G1 X107.786 Y90.913 E24.80552
G1 X107.925 Y90.894 E24.81018
G1 X108.392 Y90.875 E24.82573
G1 X111.608 Y90.875 E24.93269
G1 X112.257 Y90.913 E24.95431
G1 X112.867 Y90.875 E24.97464
G1 X120.594 Y90.875 E25.23164
G1 X121.274 Y90.915 E25.2543
G1 X121.944 Y91.034 E25.27693
G1 X122.596 Y91.231 E25.29959
G1 X123.22 Y91.503 E25.32223
G1 X123.808 Y91.847 E25.34489
G1 X124.352 Y92.257 E25.36754
G1 X124.695 Y92.574 E25.38308
G1 X124.812 Y92.691 E25.38858
G1 X125.265 Y93.2 E25.41124
G1 X125.654 Y93.758 E25.43387
G1 X125.976 Y94.358 E25.45651
G1 X126.225 Y94.992 E25.47917
G1 X126.398 Y95.651 E25.50183
G1 X126.492 Y96.325 E25.52447
G1 X126.511 Y96.792 E25.54001
G1 X126.511 Y126.558 E26.53003
G1 X126.471 Y127.238 E26.55269
G1 X126.352 Y127.908 E26.57532
G1 X126.155 Y128.56 E26.59797
G1 X125.883 Y129.184 E26.62061
G1 X125.539 Y129.772 E26.64327
G1 X125.129 Y130.316 E26.66593
G1 X124.812 Y130.659 E26.68146
G1 X124.695 Y130.776 E26.68697
G1 X124.186 Y131.229 E26.70963
G1 X123.628 Y131.618 E26.73225
G1 X123.028 Y131.94 E26.7549
G1 X122.394 Y132.189 E26.77756
G1 X121.735 Y132.362 E26.80022
G1 X121.061 Y132.456 E26.82285
G1 X120.594 Y132.475 E26.8384
G1 X112.866 Y132.475 E27.09543
G1 X112.214 Y132.437 E27.11715
G1 X112.075 Y132.456 E27.12182
G1 X111.608 Y132.475 E27.13737
G1 X108.391 Y132.475 E27.24436
G1 X107.743 Y132.437 E27.26595
G1 X107.133 Y132.475 E27.28628
G1 X99.405 Y132.475 E27.54332
G1 X98.725 Y132.435 E27.56597
G1 X98.055 Y132.316 E27.58861
G1 X97.403 Y132.119 E27.61126
G1 X96.779 Y131.847 E27.6339
G1 X96.191 Y131.503 E27.65656
G1 X95.647 Y131.093 E27.67921
G1 X95.304 Y130.776 E27.69475
G1 X95.187 Y130.659 E27.70025
G1 X94.734 Y130.15 E27.72291
G1 X94.345 Y129.592 E27.74554
G1 X94.023 Y128.992 E27.76819
G1 X93.774 Y128.358 E27.79084
G1 X93.601 Y127.699 E27.8135
G1 X93.507 Y127.025 E27.83614
G1 X93.488 Y126.558 E27.85168
G1 X93.489 Y96.792 E28.8417
G1 X93.529 Y96.112 E28.86436
G1 X93.648 Y95.442 E28.88699
G1 X93.845 Y94.79 E28.90965
G1 X94.118 Y94.166 E28.9323
G1 X94.461 Y93.578 E28.95494
G1 X94.871 Y93.034 E28.9776
G1 X95.188 Y92.691 E28.99313
G0 F6000 X95.471 Y92.974
G1 F1200 X95.588 Y92.857 E28.99864
G1 X96.08 Y92.421 E29.0205
G1 X96.621 Y92.049 E29.04234
G1 X97.203 Y91.745 E29.06418
G1 X97.818 Y91.514 E29.08603
G1 X98.457 Y91.359 E29.1079
G1 X99.406 Y91.275 E29.13958
G1 X107.134 Y91.275 E29.39662
G1 X107.79 Y91.315 E29.41848
G1 X107.839 Y91.324 E29.42013
G1 X108.392 Y91.275 E29.4386
G1 X111.608 Y91.275 E29.54556
G1 X112.264 Y91.315 E29.56742
G1 X112.3 Y91.322 E29.56864
G1 X112.867 Y91.275 E29.58757
G1 X120.594 Y91.275 E29.84457
G1 X121.25 Y91.315 E29.86643
G1 X121.896 Y91.434 E29.88827
G1 X122.523 Y91.631 E29.91013
G1 X123.121 Y91.903 E29.93198
G1 X123.682 Y92.245 E29.95384
G1 X124.412 Y92.857 E29.98552
