;FLAVOR:Marlin
;TIME:3287
;Filament used: 2.99066m
;Layer height: 0.2
;MINX:87.2
;MINY:87.2
;MINZ:0.2
;MAXX:132.8
;MAXY:132.8
;MAXZ:30
;Generated with Cura_SteamEngine 4.8.0
M140 S60
M105
M190 S60
M104 S200
M105
M109 S200
M82 ;absolute extrusion mode
; Ender 3 Custom Start G-code
G92 E0 ; Reset Extruder
G28 ; Home all axes
G1 Z2.0 F3000 ; Move Z Axis up little to prevent scratching of Heat Bed
G1 X0.1 Y20 Z0.3 F5000.0 ; Move to start position
G1 X0.1 Y200.0 Z0.3 F1500.0 E15 ; Draw the first line
G1 X0.4 Y200.0 Z0.3 F5000.0 ; Move to side a little
G1 X0.4 Y20 Z0.3 F1500.0 E30 ; Draw the second line
G92 E0 ; Reset Extruder
G1 Z2.0 F3000 ; Move Z Axis up little to prevent scratching of Heat Bed
G1 X5 Y20 Z0.3 F5000.0 ; Move over to prevent blob squish
G92 E0
G92 E0
G1 F1500 E-6.5
;LAYER_COUNT:150
;LAYER:0
M107
G0 F6000 X93.869 Y93.888 Z0.2
;TYPE:SKIRT
G1 F1500 E0
G1 F1200 X94.475 Y93.34 E0.02717
G1 X96.875 Y91.39 E0.13003
G1 X97.513 Y90.924 E0.1563
G1 X98.206 Y90.518 E0.18302
G1 X100.893 Y89.126 E0.28367
G1 X101.612 Y88.799 E0.30994
G1 X102.329 Y88.555 E0.33513
G1 X105.127 Y87.752 E0.43195
G1 X105.896 Y87.573 E0.45821
G1 X106.568 Y87.481 E0.48077
G1 X109.289 Y87.232 E0.57165
G1 X110.078 Y87.2 E0.59791
G1 X110.715 Y87.233 E0.61913
G1 X113.454 Y87.485 E0.71061
G1 X114.235 Y87.597 E0.73685
G1 X114.9 Y87.757 E0.7596
G1 X117.689 Y88.561 E0.85614
G1 X118.435 Y88.818 E0.88238
G1 X119.117 Y89.131 E0.90734
G1 X121.795 Y90.519 E1.00767
G1 X122.477 Y90.917 E1.03393
G1 X123.125 Y91.39 E1.06061
G1 X125.525 Y93.34 E1.16346
G1 X126.112 Y93.869 E1.18975
G1 X126.66 Y94.475 E1.21692
G1 X128.61 Y96.875 E1.31977
G1 X129.076 Y97.513 E1.34605
G1 X129.482 Y98.206 E1.37276
G1 X130.874 Y100.893 E1.47341
G1 X131.201 Y101.612 E1.49968
G1 X131.445 Y102.329 E1.52488
G1 X132.248 Y105.126 E1.62166
G1 X132.427 Y105.895 E1.64792
G1 X132.519 Y106.567 E1.67048
G1 X132.768 Y109.287 E1.76133
G1 X132.8 Y110.076 E1.78759
G1 X132.767 Y110.712 E1.80877
G1 X132.515 Y113.453 E1.90032
G1 X132.403 Y114.235 E1.9266
G1 X132.243 Y114.9 E1.94935
G1 X131.439 Y117.689 E2.04589
G1 X131.182 Y118.435 E2.07213
G1 X130.869 Y119.117 E2.09709
G1 X129.481 Y121.795 E2.19741
G1 X129.083 Y122.477 E2.22368
G1 X128.61 Y123.125 E2.25036
G1 X126.66 Y125.525 E2.35321
G1 X126.131 Y126.112 E2.37949
G1 X125.525 Y126.66 E2.40667
G1 X123.125 Y128.61 E2.50952
G1 X122.487 Y129.076 E2.5358
G1 X121.795 Y129.481 E2.56246
G1 X119.109 Y130.873 E2.66309
G1 X118.39 Y131.201 E2.68937
G1 X117.671 Y131.446 E2.71463
G1 X114.872 Y132.249 E2.81149
G1 X114.103 Y132.428 E2.83775
G1 X113.432 Y132.519 E2.86027
G1 X110.711 Y132.768 E2.95115
G1 X109.922 Y132.8 E2.97741
G1 X109.285 Y132.767 E2.99863
G1 X106.546 Y132.515 E3.09011
G1 X105.765 Y132.403 E3.11635
G1 X105.101 Y132.243 E3.13907
G1 X102.311 Y131.439 E3.23564
G1 X101.564 Y131.182 E3.26192
G1 X100.881 Y130.869 E3.2869
G1 X98.204 Y129.481 E3.3872
G1 X97.522 Y129.082 E3.41348
G1 X96.875 Y128.61 E3.44012
G1 X94.475 Y126.66 E3.54297
G1 X93.888 Y126.131 E3.56925
G1 X93.34 Y125.525 E3.59642
G1 X91.39 Y123.125 E3.69927
G1 X90.924 Y122.487 E3.72555
G1 X90.518 Y121.794 E3.75227
G1 X89.126 Y119.107 E3.85292
G1 X88.799 Y118.388 E3.87919
G1 X88.555 Y117.671 E3.90438
G1 X87.752 Y114.873 E4.0012
G1 X87.573 Y114.104 E4.02746
G1 X87.482 Y113.432 E4.05001
G1 X87.233 Y110.713 E4.14082
G1 X87.2 Y109.924 E4.16709
G1 X87.233 Y109.288 E4.18827
G1 X87.485 Y106.546 E4.27986
G1 X87.597 Y105.764 E4.30613
G1 X87.757 Y105.099 E4.32888
G1 X88.561 Y102.311 E4.42539
G1 X88.818 Y101.564 E4.45166
G1 X89.131 Y100.883 E4.47659
G1 X90.519 Y98.205 E4.57691
G1 X90.917 Y97.523 E4.60318
G1 X91.39 Y96.875 E4.62986
G1 X93.34 Y94.475 E4.73271
G1 X93.869 Y93.888 E4.75899
G0 F6000 X94.166 Y94.157
G1 F1200 X94.728 Y93.651 E4.78415
G1 X97.128 Y91.701 E4.887
G1 X97.749 Y91.247 E4.91258
G1 X98.39 Y90.873 E4.93727
G1 X101.077 Y89.481 E5.03792
G1 X101.777 Y89.164 E5.06347
G1 X102.44 Y88.939 E5.08676
G1 X105.238 Y88.136 E5.18358
G1 X105.987 Y87.963 E5.20915
G1 X106.605 Y87.88 E5.22989
G1 X109.326 Y87.631 E5.32077
G1 X110.094 Y87.601 E5.34633
G1 X110.678 Y87.631 E5.36578
G1 X113.417 Y87.883 E5.45726
G1 X114.178 Y87.993 E5.48284
G1 X114.789 Y88.142 E5.50375
G1 X117.578 Y88.946 E5.60029
G1 X118.305 Y89.197 E5.62588
G1 X118.933 Y89.486 E5.64887
G1 X121.611 Y90.874 E5.74919
G1 X122.275 Y91.263 E5.77479
G1 X122.872 Y91.701 E5.79941
G1 X125.272 Y93.651 E5.90227
G1 X125.843 Y94.166 E5.92784
G1 X126.349 Y94.728 E5.95299
G1 X128.299 Y97.128 E6.05584
G1 X128.753 Y97.749 E6.08143
G1 X129.127 Y98.39 E6.10611
G1 X130.519 Y101.077 E6.20676
G1 X130.836 Y101.777 E6.23232
G1 X131.061 Y102.439 E6.25558
G1 X131.864 Y105.236 E6.35236
G1 X132.037 Y105.985 E6.37793
G1 X132.12 Y106.603 E6.39867
G1 X132.369 Y109.323 E6.48952
G1 X132.399 Y110.092 E6.51511
G1 X132.369 Y110.675 E6.53453
G1 X132.117 Y113.416 E6.62608
G1 X132.007 Y114.178 E6.65169
G1 X131.858 Y114.789 E6.6726
G1 X131.054 Y117.578 E6.76914
G1 X130.803 Y118.305 E6.79472
G1 X130.514 Y118.933 E6.81772
G1 X129.126 Y121.611 E6.91804
G1 X128.737 Y122.275 E6.94364
G1 X128.299 Y122.872 E6.96826
G1 X126.349 Y125.272 E7.07112
G1 X125.834 Y125.843 E7.09669
G1 X125.272 Y126.349 E7.12184
G1 X122.872 Y128.299 E7.22469
G1 X122.251 Y128.753 E7.25028
G1 X121.611 Y129.126 E7.27492
G1 X118.925 Y130.518 E7.37554
G1 X118.225 Y130.836 E7.40111
G1 X117.561 Y131.061 E7.42443
G1 X114.762 Y131.864 E7.52128
G1 X114.012 Y132.037 E7.54688
G1 X113.395 Y132.12 E7.56759
G1 X110.674 Y132.369 E7.65846
G1 X109.906 Y132.399 E7.68403
G1 X109.322 Y132.369 E7.70348
G1 X106.583 Y132.117 E7.79496
G1 X105.822 Y132.007 E7.82054
G1 X105.212 Y131.859 E7.84141
G1 X102.422 Y131.055 E7.93798
G1 X101.695 Y130.804 E7.96357
G1 X101.065 Y130.513 E7.98665
G1 X98.388 Y129.125 E8.08694
G1 X97.724 Y128.736 E8.11254
G1 X97.128 Y128.299 E8.13712
G1 X94.728 Y126.349 E8.23997
G1 X94.157 Y125.834 E8.26554
G1 X93.651 Y125.272 E8.29069
G1 X91.701 Y122.872 E8.39355
G1 X91.247 Y122.251 E8.41913
G1 X90.873 Y121.61 E8.44382
G1 X89.481 Y118.923 E8.54447
G1 X89.164 Y118.223 E8.57002
G1 X88.939 Y117.56 E8.59331
G1 X88.136 Y114.762 E8.69013
G1 X87.963 Y114.013 E8.7157
G1 X87.88 Y113.396 E8.7364
G1 X87.631 Y110.677 E8.82722
G1 X87.601 Y109.908 E8.85281
G1 X87.631 Y109.325 E8.87223
G1 X87.883 Y106.583 E8.96381
G1 X87.993 Y105.822 E8.98939
G1 X88.142 Y105.21 E9.01034
G1 X88.946 Y102.422 E9.10684
G1 X89.197 Y101.695 E9.13242
G1 X89.486 Y101.067 E9.15542
G1 X90.874 Y98.389 E9.25574
G1 X91.263 Y97.725 E9.28134
G1 X91.701 Y97.128 E9.30596
G1 X93.651 Y94.728 E9.40882
G1 X94.166 Y94.157 E9.43439
G0 F6000 X94.463 Y94.425
G1 F1200 X94.98 Y93.961 E9.4575
G1 X97.38 Y92.011 E9.56035
G1 X97.985 Y91.571 E9.58523
G1 X98.574 Y91.229 E9.60788
G1 X101.261 Y89.837 E9.70853
G1 X101.943 Y89.528 E9.73343
G1 X102.55 Y89.324 E9.75473
G1 X105.348 Y88.521 E9.85155
G1 X106.077 Y88.353 E9.87643
G1 X106.641 Y88.278 E9.89536
G1 X109.362 Y88.029 E9.98624
G1 X110.11 Y88.001 E10.01113
G1 X110.641 Y88.029 E10.02882
G1 X113.38 Y88.281 E10.1203
G1 X114.121 Y88.39 E10.14521
G1 X114.678 Y88.526 E10.16428
G1 X117.467 Y89.33 E10.26082
G1 X118.174 Y89.575 E10.28571
G1 X118.749 Y89.841 E10.30678
G1 X121.427 Y91.229 E10.40711
G1 X122.072 Y91.608 E10.43199
G1 X122.62 Y92.011 E10.45461
G1 X125.02 Y93.961 E10.55746
G1 X125.575 Y94.463 E10.58235
G1 X126.039 Y94.98 E10.60546
G1 X127.989 Y97.38 E10.70831
G1 X128.429 Y97.985 E10.73319
G1 X128.771 Y98.574 E10.75585
G1 X130.163 Y101.261 E10.8565
G1 X130.472 Y101.943 E10.8814
G1 X130.676 Y102.549 E10.90267
G1 X131.479 Y105.346 E10.99945
G1 X131.647 Y106.075 E11.02433
G1 X131.722 Y106.64 E11.04329
G1 X131.971 Y109.36 E11.13414
G1 X131.999 Y110.107 E11.159
G1 X131.971 Y110.639 E11.17672
G1 X131.719 Y113.38 E11.26827
G1 X131.61 Y114.12 E11.29315
G1 X131.474 Y114.678 E11.31225
G1 X130.67 Y117.467 E11.40879
G1 X130.425 Y118.174 E11.43368
G1 X130.159 Y118.749 E11.45475
G1 X128.771 Y121.427 E11.55507
G1 X128.392 Y122.072 E11.57995
G1 X127.989 Y122.62 E11.60258
G1 X126.039 Y125.02 E11.70543
G1 X125.537 Y125.575 E11.73032
G1 X125.02 Y126.039 E11.75343
G1 X122.62 Y127.989 E11.85628
G1 X122.015 Y128.429 E11.88116
G1 X121.427 Y128.771 E11.90378
G1 X118.741 Y130.163 E12.0044
G1 X118.059 Y130.471 E12.02929
G1 X117.45 Y130.677 E12.05068
G1 X114.651 Y131.48 E12.14753
G1 X113.922 Y131.647 E12.1724
G1 X113.359 Y131.722 E12.19129
G1 X110.638 Y131.971 E12.28217
G1 X109.89 Y131.999 E12.30707
G1 X109.359 Y131.971 E12.32475
G1 X106.62 Y131.719 E12.41624
G1 X105.879 Y131.61 E12.44115
G1 X105.323 Y131.474 E12.46019
G1 X102.533 Y130.67 E12.55676
G1 X101.826 Y130.425 E12.58164
G1 X101.249 Y130.158 E12.60279
G1 X98.572 Y128.77 E12.70308
G1 X97.927 Y128.391 E12.72797
G1 X97.38 Y127.989 E12.75054
G1 X94.98 Y126.039 E12.8534
G1 X94.425 Y125.537 E12.87829
G1 X93.961 Y125.02 E12.90139
G1 X92.011 Y122.62 E13.00424
G1 X91.571 Y122.015 E13.02912
G1 X91.229 Y121.426 E13.05178
G1 X89.837 Y118.739 E13.15243
G1 X89.528 Y118.057 E13.17733
G1 X89.324 Y117.45 E13.19863
G1 X88.521 Y114.652 E13.29545
G1 X88.353 Y113.923 E13.32033
G1 X88.278 Y113.359 E13.33925
G1 X88.029 Y110.64 E13.43007
G1 X88.001 Y109.893 E13.45493
G1 X88.029 Y109.361 E13.47265
G1 X88.281 Y106.619 E13.56423
G1 X88.39 Y105.879 E13.58911
G1 X88.526 Y105.32 E13.60824
G1 X89.33 Y102.532 E13.70475
G1 X89.575 Y101.826 E13.72961
G1 X89.841 Y101.251 E13.75068
G1 X91.229 Y98.573 E13.851
G1 X91.608 Y97.928 E13.87589
G1 X92.011 Y97.38 E13.89851
G1 X93.961 Y94.98 E14.00136
G1 X94.463 Y94.425 E14.02625
G0 F6000 X94.76 Y94.694
G1 F1200 X95.232 Y94.272 E14.04731
G1 X97.632 Y92.322 E14.15016
G1 X98.22 Y91.895 E14.17433
G1 X98.758 Y91.584 E14.195
G1 X101.445 Y90.192 E14.29565
G1 X102.107 Y89.894 E14.3198
G1 X102.66 Y89.708 E14.3392
G1 X105.458 Y88.905 E14.43602
G1 X106.167 Y88.743 E14.46021
G1 X106.678 Y88.676 E14.47735
G1 X109.399 Y88.427 E14.56823
G1 X110.124 Y88.401 E14.59236
G1 X110.605 Y88.428 E14.60838
G1 X113.344 Y88.68 E14.69987
G1 X114.062 Y88.786 E14.72401
G1 X114.567 Y88.91 E14.7413
G1 X117.356 Y89.714 E14.83784
G1 X118.042 Y89.954 E14.86201
G1 X118.565 Y90.196 E14.88118
G1 X121.243 Y91.584 E14.9815
G1 X121.869 Y91.954 E15.00569
G1 X122.368 Y92.322 E15.02631
G1 X124.768 Y94.272 E15.12916
G1 X125.306 Y94.76 E15.15332
G1 X125.728 Y95.232 E15.17438
G1 X127.678 Y97.632 E15.27723
G1 X128.105 Y98.22 E15.3014
G1 X128.416 Y98.758 E15.32207
G1 X129.808 Y101.445 E15.42272
G1 X130.106 Y102.107 E15.44687
G1 X130.292 Y102.66 E15.46627
G1 X131.095 Y105.457 E15.56306
G1 X131.256 Y106.165 E15.58721
G1 X131.324 Y106.676 E15.60435
G1 X131.573 Y109.396 E15.6952
G1 X131.599 Y110.122 E15.71936
G1 X131.572 Y110.602 E15.73535
G1 X131.32 Y113.343 E15.8269
G1 X131.214 Y114.062 E15.85107
G1 X131.09 Y114.567 E15.86837
G1 X130.286 Y117.356 E15.96491
G1 X130.046 Y118.042 E15.98908
G1 X129.804 Y118.565 E16.00825
G1 X128.416 Y121.243 E16.10857
G1 X128.046 Y121.869 E16.13276
G1 X127.678 Y122.368 E16.15338
G1 X125.728 Y124.768 E16.25623
G1 X125.24 Y125.306 E16.28039
G1 X124.768 Y125.728 E16.30145
G1 X122.368 Y127.678 E16.4043
G1 X121.78 Y128.105 E16.42847
G1 X121.243 Y128.416 E16.44911
G1 X118.557 Y129.808 E16.54973
G1 X117.895 Y130.106 E16.57388
G1 X117.34 Y130.292 E16.59334
G1 X114.541 Y131.095 E16.6902
G1 X113.833 Y131.257 E16.71435
G1 X113.322 Y131.324 E16.73149
G1 X110.601 Y131.573 E16.82237
G1 X109.876 Y131.599 E16.8465
G1 X109.395 Y131.572 E16.86252
G1 X106.656 Y131.32 E16.95401
G1 X105.938 Y131.214 E16.97815
G1 X105.433 Y131.09 E16.99544
G1 X102.643 Y130.286 E17.09202
G1 X101.958 Y130.047 E17.11615
G1 X101.433 Y129.803 E17.1354
G1 X98.756 Y128.415 E17.2357
G1 X98.131 Y128.046 E17.25984
G1 X97.632 Y127.678 E17.28046
G1 X95.232 Y125.728 E17.38331
G1 X94.694 Y125.24 E17.40747
G1 X94.272 Y124.768 E17.42853
G1 X92.322 Y122.368 E17.53138
G1 X91.895 Y121.78 E17.55555
G1 X91.584 Y121.242 E17.57622
G1 X90.192 Y118.555 E17.67687
G1 X89.894 Y117.893 E17.70101
G1 X89.708 Y117.34 E17.72042
G1 X88.905 Y114.542 E17.81724
G1 X88.743 Y113.833 E17.84142
G1 X88.677 Y113.323 E17.85853
G1 X88.428 Y110.604 E17.94934
G1 X88.401 Y109.878 E17.97351
G1 X88.428 Y109.398 E17.9895
G1 X88.68 Y106.656 E18.08108
G1 X88.786 Y105.937 E18.10525
G1 X88.91 Y105.431 E18.12258
G1 X89.714 Y102.643 E18.21909
G1 X89.954 Y101.957 E18.24326
G1 X90.196 Y101.435 E18.2624
G1 X91.584 Y98.757 E18.36272
G1 X91.954 Y98.131 E18.38691
G1 X92.322 Y97.632 E18.40753
G1 X94.272 Y95.232 E18.51038
G1 X94.76 Y94.694 E18.53454
G0 F6000 X95.056 Y94.964
G1 F1200 X95.484 Y94.582 E18.55362
G1 X97.884 Y92.632 E18.65647
G1 X98.455 Y92.22 E18.67989
G1 X98.942 Y91.939 E18.69859
G1 X101.629 Y90.547 E18.79924
G1 X102.272 Y90.259 E18.82267
G1 X102.771 Y90.093 E18.84016
G1 X105.569 Y89.29 E18.93698
G1 X106.255 Y89.134 E18.96038
G1 X106.714 Y89.075 E18.97577
G1 X109.435 Y88.826 E19.06665
G1 X110.139 Y88.802 E19.09008
G1 X110.568 Y88.826 E19.10437
G1 X113.307 Y89.078 E19.19586
G1 X114.003 Y89.182 E19.21926
G1 X114.456 Y89.295 E19.23479
G1 X117.245 Y90.099 E19.33133
G1 X117.91 Y90.332 E19.35477
G1 X118.381 Y90.551 E19.37204
G1 X121.059 Y91.939 E19.47237
G1 X121.665 Y92.298 E19.49579
G1 X122.116 Y92.632 E19.51446
G1 X124.516 Y94.582 E19.61731
G1 X125.036 Y95.056 E19.64071
G1 X125.418 Y95.484 E19.65979
G1 X127.368 Y97.884 E19.76265
G1 X127.78 Y98.455 E19.78606
G1 X128.061 Y98.942 E19.80477
G1 X129.453 Y101.629 E19.90542
G1 X129.741 Y102.272 E19.92885
G1 X129.907 Y102.77 E19.94631
G1 X130.71 Y105.567 E20.0431
G1 X130.866 Y106.254 E20.06653
G1 X130.925 Y106.713 E20.08192
G1 X131.174 Y109.433 E20.17276
G1 X131.198 Y110.136 E20.19616
G1 X131.174 Y110.566 E20.21048
G1 X130.922 Y113.307 E20.30203
G1 X130.818 Y114.003 E20.32544
G1 X130.705 Y114.456 E20.34097
G1 X129.901 Y117.245 E20.43751
G1 X129.668 Y117.91 E20.46095
G1 X129.449 Y118.381 E20.47822
G1 X128.061 Y121.059 E20.57855
G1 X127.702 Y121.665 E20.60197
G1 X127.368 Y122.116 E20.62064
G1 X125.418 Y124.516 E20.72349
G1 X124.944 Y125.036 E20.74689
G1 X124.516 Y125.418 E20.76597
G1 X122.116 Y127.368 E20.86882
G1 X121.545 Y127.78 E20.89224
G1 X121.059 Y128.061 E20.91091
G1 X118.373 Y129.453 E21.01154
G1 X117.73 Y129.741 E21.03497
G1 X117.23 Y129.908 E21.0525
G1 X114.431 Y130.711 E21.14935
G1 X113.744 Y130.866 E21.17278
G1 X113.286 Y130.925 E21.18814
G1 X110.565 Y131.174 E21.27901
G1 X109.861 Y131.198 E21.30244
G1 X109.432 Y131.174 E21.31673
G1 X106.693 Y130.922 E21.40822
G1 X105.997 Y130.818 E21.43162
G1 X105.544 Y130.706 E21.44715
G1 X102.754 Y129.902 E21.54372
G1 X102.09 Y129.669 E21.56712
G1 X101.617 Y129.448 E21.58449
G1 X98.94 Y128.06 E21.68478
G1 X98.335 Y127.701 E21.70818
G1 X97.884 Y127.368 E21.72682
G1 X95.484 Y125.418 E21.82968
G1 X94.964 Y124.944 E21.85308
G1 X94.582 Y124.516 E21.87216
G1 X92.632 Y122.116 E21.97501
G1 X92.22 Y121.545 E21.99843
G1 X91.939 Y121.058 E22.01713
G1 X90.547 Y118.371 E22.11778
G1 X90.259 Y117.728 E22.14121
G1 X90.093 Y117.229 E22.15871
G1 X89.29 Y114.431 E22.25552
G1 X89.134 Y113.745 E22.27892
G1 X89.075 Y113.286 E22.29431
G1 X88.826 Y110.567 E22.38513
G1 X88.802 Y109.864 E22.40852
G1 X88.826 Y109.435 E22.42281
G1 X89.078 Y106.693 E22.5144
G1 X89.182 Y105.996 E22.53784
G1 X89.295 Y105.542 E22.5534
G1 X90.099 Y102.754 E22.64991
G1 X90.332 Y102.09 E22.67331
G1 X90.551 Y101.619 E22.69059
G1 X91.939 Y98.941 E22.79091
G1 X92.298 Y98.335 E22.81434
G1 X92.632 Y97.884 E22.833
G1 X94.582 Y95.484 E22.93585
G1 X95.056 Y94.964 E22.95926
G0 F6000 X95.352 Y95.234
G1 F1200 X95.737 Y94.893 E22.97636
G1 X98.137 Y92.943 E23.07921
G1 X98.689 Y92.545 E23.10185
G1 X99.126 Y92.294 E23.11861
G1 X101.813 Y90.902 E23.21926
G1 X102.435 Y90.625 E23.24191
G1 X102.881 Y90.477 E23.25754
G1 X105.679 Y89.674 E23.35435
G1 X106.343 Y89.525 E23.37699
G1 X106.75 Y89.473 E23.39063
G1 X109.471 Y89.224 E23.48151
G1 X110.152 Y89.202 E23.50418
G1 X110.531 Y89.224 E23.5168
G1 X113.27 Y89.476 E23.60829
G1 X113.944 Y89.578 E23.63096
G1 X114.346 Y89.679 E23.64475
G1 X117.135 Y90.483 E23.74129
G1 X117.777 Y90.71 E23.76393
G1 X118.197 Y90.907 E23.77936
G1 X120.875 Y92.295 E23.87969
G1 X121.46 Y92.643 E23.90233
G1 X121.863 Y92.943 E23.91904
G1 X124.263 Y94.893 E24.02189
G1 X124.766 Y95.352 E24.04454
G1 X125.107 Y95.737 E24.06164
G1 X127.057 Y98.137 E24.16449
