;FLAVOR:Marlin
;TIME:2928
;Filament used: 0.966689m
;Layer height: 0.12
;MINX:87.336
;MINY:87.336
;MINZ:0.12
;MAXX:132.664
;MAXY:132.664
;MAXZ:30
;Generated with Cura_SteamEngine 4.8.0
M140 S60
M105
M190 S60
M104 S200
M105
M109 S200
M82 ;absolute extrusion mode
; Ender 3 Custom Start G-code
G92 E0 ; Reset Extruder
G28 ; Home all axes
G1 Z2.0 F3000 ; Move Z Axis up little to prevent scratching of Heat Bed
G1 X0.1 Y20 Z0.3 F5000.0 ; Move to start position
G1 X0.1 Y200.0 Z0.3 F1500.0 E15 ; Draw the first line
G1 X0.4 Y200.0 Z0.3 F5000.0 ; Move to side a little
G1 X0.4 Y20 Z0.3 F1500.0 E30 ; Draw the second line
G92 E0 ; Reset Extruder
G1 Z2.0 F3000 ; Move Z Axis up little to prevent scratching of Heat Bed
G1 X5 Y20 Z0.3 F5000.0 ; Move over to prevent blob squish
G92 E0
G92 E0
G1 F1500 E-6.5
;LAYER_COUNT:250
;LAYER:0
M107
G0 F6000 X94.097 Y93.851 Z0.12
;TYPE:SKIRT
G1 F1500 E0
G1 F1200 X94.359 Y93.598 E0.00727
G1 X94.903 Y93.095 E0.02205
G1 X95.205 Y92.83 E0.03007
G1 X95.769 Y92.36 E0.04472
G1 X96.07 Y92.121 E0.05239
G1 X96.649 Y91.685 E0.06686
G1 X96.957 Y91.465 E0.07441
G1 X97.55 Y91.062 E0.08872
G1 X97.871 Y90.855 E0.09634
G1 X98.474 Y90.487 E0.11044
G1 X98.77 Y90.315 E0.11727
G1 X99.381 Y89.978 E0.1312
G1 X99.705 Y89.809 E0.13849
G1 X100.321 Y89.506 E0.15219
G1 X100.661 Y89.349 E0.15966
G1 X101.279 Y89.081 E0.1731
G1 X101.589 Y88.954 E0.17979
G1 X102.207 Y88.717 E0.193
G1 X102.544 Y88.597 E0.20014
G1 X103.174 Y88.388 E0.21338
G1 X103.505 Y88.286 E0.22029
G1 X104.155 Y88.102 E0.23378
G1 X104.504 Y88.012 E0.24097
G1 X105.171 Y87.856 E0.25464
G1 X105.523 Y87.782 E0.26182
G1 X106.207 Y87.655 E0.2757
G1 X106.573 Y87.596 E0.2831
G1 X107.274 Y87.5 E0.29722
G1 X107.647 Y87.458 E0.30471
G1 X108.362 Y87.395 E0.31903
G1 X108.735 Y87.371 E0.32649
G1 X109.459 Y87.342 E0.34095
G1 X109.835 Y87.336 E0.34846
G1 X110.569 Y87.342 E0.3631
G1 X110.967 Y87.356 E0.37105
G1 X111.708 Y87.4 E0.38586
G1 X112.101 Y87.433 E0.39373
G1 X112.845 Y87.515 E0.40867
G1 X113.224 Y87.566 E0.4163
G1 X113.967 Y87.685 E0.43132
G1 X114.371 Y87.761 E0.43952
G1 X115.116 Y87.921 E0.45473
G1 X115.49 Y88.011 E0.46241
G1 X116.228 Y88.208 E0.47765
G1 X116.624 Y88.325 E0.48589
G1 X117.351 Y88.561 E0.50114
G1 X117.721 Y88.691 E0.50897
G1 X118.44 Y88.965 E0.52432
G1 X118.818 Y89.121 E0.53249
G1 X119.521 Y89.432 E0.54783
G1 X119.886 Y89.605 E0.55589
G1 X120.574 Y89.953 E0.57127
G1 X120.938 Y90.149 E0.57952
G1 X121.603 Y90.531 E0.59483
G1 X121.936 Y90.734 E0.60261
G1 X122.58 Y91.148 E0.61789
G1 X122.912 Y91.374 E0.6259
G1 X123.533 Y91.82 E0.64116
G1 X123.854 Y92.063 E0.6492
G1 X124.448 Y92.538 E0.66437
G1 X124.74 Y92.783 E0.67198
G1 X125.304 Y93.281 E0.68699
G1 X125.615 Y93.571 E0.69548
G1 X126.149 Y94.097 E0.71044
G1 X126.402 Y94.359 E0.71771
G1 X126.905 Y94.903 E0.73249
G1 X127.17 Y95.205 E0.74051
G1 X127.64 Y95.769 E0.75516
G1 X127.879 Y96.07 E0.76283
G1 X128.315 Y96.649 E0.7773
G1 X128.535 Y96.957 E0.78485
G1 X128.938 Y97.55 E0.79916
G1 X129.145 Y97.871 E0.80678
G1 X129.513 Y98.474 E0.82088
G1 X129.685 Y98.77 E0.82771
G1 X130.022 Y99.381 E0.84163
G1 X130.191 Y99.705 E0.84893
G1 X130.494 Y100.321 E0.86263
G1 X130.651 Y100.661 E0.8701
G1 X130.919 Y101.279 E0.88354
G1 X131.046 Y101.589 E0.89023
G1 X131.283 Y102.207 E0.90344
G1 X131.403 Y102.544 E0.91057
G1 X131.612 Y103.174 E0.92382
G1 X131.713 Y103.502 E0.93067
G1 X131.897 Y104.151 E0.94413
G1 X131.989 Y104.505 E0.95143
G1 X132.145 Y105.173 E0.96512
G1 X132.218 Y105.523 E0.97226
G1 X132.345 Y106.207 E0.98614
G1 X132.404 Y106.573 E0.99354
G1 X132.5 Y107.274 E1.00766
G1 X132.542 Y107.645 E1.01511
G1 X132.605 Y108.358 E1.02939
G1 X132.629 Y108.734 E1.03691
G1 X132.658 Y109.46 E1.05141
G1 X132.664 Y109.835 E1.05889
G1 X132.658 Y110.568 E1.07352
G1 X132.644 Y110.966 E1.08147
G1 X132.6 Y111.708 E1.0963
G1 X132.567 Y112.101 E1.10417
G1 X132.485 Y112.845 E1.11911
G1 X132.434 Y113.224 E1.12674
G1 X132.315 Y113.967 E1.14176
G1 X132.239 Y114.371 E1.14996
G1 X132.079 Y115.116 E1.16517
G1 X131.99 Y115.485 E1.17274
G1 X131.794 Y116.221 E1.18794
G1 X131.675 Y116.626 E1.19637
G1 X131.438 Y117.355 E1.21167
G1 X131.309 Y117.721 E1.21941
G1 X131.035 Y118.44 E1.23476
G1 X130.879 Y118.818 E1.24292
G1 X130.568 Y119.521 E1.25827
G1 X130.397 Y119.882 E1.26624
G1 X130.05 Y120.569 E1.2816
G1 X129.85 Y120.94 E1.29001
G1 X129.467 Y121.606 E1.30534
G1 X129.266 Y121.936 E1.31305
G1 X128.852 Y122.58 E1.32833
G1 X128.626 Y122.912 E1.33634
G1 X128.18 Y123.533 E1.3516
G1 X127.937 Y123.854 E1.35964
G1 X127.462 Y124.448 E1.37481
G1 X127.217 Y124.74 E1.38242
G1 X126.719 Y125.304 E1.39743
G1 X126.429 Y125.615 E1.40592
G1 X125.903 Y126.149 E1.42088
G1 X125.641 Y126.402 E1.42815
G1 X125.097 Y126.905 E1.44293
G1 X124.795 Y127.17 E1.45095
G1 X124.231 Y127.64 E1.4656
G1 X123.93 Y127.879 E1.47327
G1 X123.351 Y128.315 E1.48774
G1 X123.043 Y128.535 E1.49529
G1 X122.45 Y128.938 E1.5096
G1 X122.129 Y129.145 E1.51722
G1 X121.526 Y129.513 E1.53132
G1 X121.23 Y129.685 E1.53815
G1 X120.619 Y130.022 E1.55207
G1 X120.295 Y130.191 E1.55937
G1 X119.679 Y130.494 E1.57307
G1 X119.339 Y130.651 E1.58054
G1 X118.721 Y130.919 E1.59398
G1 X118.411 Y131.046 E1.60067
G1 X117.793 Y131.283 E1.61388
G1 X117.456 Y131.403 E1.62102
G1 X116.826 Y131.612 E1.63426
G1 X116.495 Y131.714 E1.64117
G1 X115.845 Y131.898 E1.65465
G1 X115.496 Y131.988 E1.66185
G1 X114.829 Y132.144 E1.67552
G1 X114.477 Y132.218 E1.68269
G1 X113.793 Y132.345 E1.69658
G1 X113.427 Y132.404 E1.70398
G1 X112.726 Y132.5 E1.7181
G1 X112.353 Y132.542 E1.72559
G1 X111.638 Y132.605 E1.73991
G1 X111.265 Y132.629 E1.74737
G1 X110.541 Y132.658 E1.76183
G1 X110.165 Y132.664 E1.76933
G1 X109.432 Y132.658 E1.78396
G1 X109.034 Y132.644 E1.79191
G1 X108.292 Y132.6 E1.80674
G1 X107.899 Y132.567 E1.81461
G1 X107.155 Y132.485 E1.82955
G1 X106.776 Y132.434 E1.83718
G1 X106.033 Y132.315 E1.8522
G1 X105.629 Y132.239 E1.8604
G1 X104.884 Y132.079 E1.87561
G1 X104.51 Y131.989 E1.88328
G1 X103.772 Y131.792 E1.89853
G1 X103.376 Y131.675 E1.90677
G1 X102.649 Y131.439 E1.92202
G1 X102.279 Y131.309 E1.92985
G1 X101.56 Y131.035 E1.9452
G1 X101.182 Y130.879 E1.95336
G1 X100.479 Y130.568 E1.9687
G1 X100.114 Y130.395 E1.97677
G1 X99.426 Y130.047 E1.99215
G1 X99.062 Y129.851 E2.0004
G1 X98.397 Y129.469 E2.01571
G1 X98.064 Y129.266 E2.02349
G1 X97.42 Y128.852 E2.03877
G1 X97.088 Y128.626 E2.04678
G1 X96.467 Y128.18 E2.06204
G1 X96.146 Y127.937 E2.07007
G1 X95.552 Y127.462 E2.08525
G1 X95.259 Y127.216 E2.09289
G1 X94.693 Y126.716 E2.10796
G1 X94.384 Y126.427 E2.1164
G1 X93.852 Y125.903 E2.1313
G1 X93.598 Y125.642 E2.13857
G1 X93.094 Y125.097 E2.15338
G1 X92.828 Y124.793 E2.16145
G1 X92.359 Y124.23 E2.17607
G1 X92.121 Y123.93 E2.18371
G1 X91.685 Y123.351 E2.19817
G1 X91.465 Y123.043 E2.20573
G1 X91.062 Y122.45 E2.22004
G1 X90.857 Y122.132 E2.22759
G1 X90.488 Y121.528 E2.24171
G1 X90.312 Y121.225 E2.2487
G1 X89.976 Y120.615 E2.2626
G1 X89.809 Y120.295 E2.26981
G1 X89.506 Y119.679 E2.2835
G1 X89.349 Y119.339 E2.29098
G1 X89.081 Y118.721 E2.30442
G1 X88.955 Y118.413 E2.31106
G1 X88.717 Y117.793 E2.32431
G1 X88.595 Y117.45 E2.33158
G1 X88.387 Y116.822 E2.34478
G1 X88.286 Y116.495 E2.35161
G1 X88.102 Y115.845 E2.36509
G1 X88.012 Y115.496 E2.37229
G1 X87.856 Y114.829 E2.38596
G1 X87.782 Y114.477 E2.39313
G1 X87.655 Y113.793 E2.40702
G1 X87.596 Y113.427 E2.41441
G1 X87.5 Y112.726 E2.42853
G1 X87.458 Y112.353 E2.43603
G1 X87.395 Y111.638 E2.45035
G1 X87.371 Y111.265 E2.45781
G1 X87.342 Y110.541 E2.47227
G1 X87.336 Y110.165 E2.47977
G1 X87.342 Y109.432 E2.4944
G1 X87.356 Y109.034 E2.50235
G1 X87.4 Y108.292 E2.51718
G1 X87.433 Y107.899 E2.52505
G1 X87.515 Y107.155 E2.53999
G1 X87.566 Y106.776 E2.54762
G1 X87.685 Y106.033 E2.56264
G1 X87.761 Y105.629 E2.57084
G1 X87.921 Y104.884 E2.58605
G1 X88.01 Y104.515 E2.59362
G1 X88.206 Y103.779 E2.60882
G1 X88.325 Y103.374 E2.61725
G1 X88.562 Y102.645 E2.63254
G1 X88.691 Y102.279 E2.64029
G1 X88.965 Y101.56 E2.65564
G1 X89.121 Y101.182 E2.6638
G1 X89.432 Y100.479 E2.67914
G1 X89.603 Y100.118 E2.68711
G1 X89.95 Y99.431 E2.70247
G1 X90.15 Y99.06 E2.71089
G1 X90.533 Y98.394 E2.72622
G1 X90.734 Y98.064 E2.73393
G1 X91.148 Y97.42 E2.74921
G1 X91.374 Y97.088 E2.75722
G1 X91.82 Y96.467 E2.77248
G1 X92.063 Y96.146 E2.78051
G1 X92.538 Y95.552 E2.79569
G1 X92.783 Y95.26 E2.8033
G1 X93.281 Y94.696 E2.81831
G1 X93.571 Y94.385 E2.8268
G1 X94.097 Y93.851 E2.84176
G0 F6000 X94.382 Y94.132
G1 F1200 X94.63 Y93.892 E2.84864
G1 X95.174 Y93.389 E2.86343
G1 X95.461 Y93.137 E2.87105
G1 X96.025 Y92.667 E2.8857
G1 X96.311 Y92.441 E2.89298
G1 X96.89 Y92.005 E2.90744
G1 X97.182 Y91.796 E2.91461
G1 X97.775 Y91.393 E2.92891
G1 X98.079 Y91.196 E2.93614
G1 X98.682 Y90.828 E2.95024
G1 X98.963 Y90.665 E2.95672
G1 X99.574 Y90.328 E2.97065
G1 X99.882 Y90.168 E2.97758
G1 X100.498 Y89.865 E2.99127
G1 X100.82 Y89.716 E2.99836
G1 X101.438 Y89.448 E3.0118
G1 X101.732 Y89.328 E3.01813
G1 X102.35 Y89.091 E3.03134
G1 X102.67 Y88.976 E3.03813
G1 X103.3 Y88.767 E3.05138
G1 X103.614 Y88.671 E3.05793
G1 X104.264 Y88.487 E3.07141
G1 X104.595 Y88.401 E3.07823
G1 X105.262 Y88.245 E3.0919
G1 X105.596 Y88.175 E3.09871
G1 X106.28 Y88.048 E3.1126
G1 X106.627 Y87.992 E3.11961
G1 X107.328 Y87.896 E3.13373
G1 X107.682 Y87.857 E3.14084
G1 X108.397 Y87.794 E3.15516
G1 X108.751 Y87.771 E3.16224
G1 X109.475 Y87.742 E3.1767
G1 X109.831 Y87.736 E3.18381
G1 X110.565 Y87.742 E3.19846
G1 X110.944 Y87.755 E3.20602
G1 X111.685 Y87.799 E3.22084
G1 X112.057 Y87.831 E3.22829
G1 X112.801 Y87.913 E3.24322
G1 X113.16 Y87.961 E3.25045
G1 X113.903 Y88.08 E3.26547
G1 X114.287 Y88.152 E3.27327
G1 X115.032 Y88.312 E3.28847
G1 X115.387 Y88.397 E3.29576
G1 X116.125 Y88.594 E3.311
G1 X116.501 Y88.706 E3.31883
G1 X117.228 Y88.942 E3.33408
G1 X117.578 Y89.065 E3.34149
G1 X118.297 Y89.339 E3.35684
G1 X118.656 Y89.487 E3.36459
G1 X119.359 Y89.798 E3.37993
G1 X119.705 Y89.962 E3.38757
G1 X120.393 Y90.31 E3.40296
G1 X120.739 Y90.496 E3.4108
G1 X121.404 Y90.878 E3.4261
G1 X121.72 Y91.07 E3.43348
G1 X122.364 Y91.484 E3.44876
G1 X122.679 Y91.699 E3.45637
G1 X123.3 Y92.145 E3.47163
G1 X123.605 Y92.376 E3.47926
G1 X124.199 Y92.851 E3.49444
G1 X124.475 Y93.083 E3.50164
G1 X125.039 Y93.581 E3.51665
G1 X125.334 Y93.856 E3.5247
G1 X125.868 Y94.382 E3.53966
G1 X126.108 Y94.63 E3.54654
G1 X126.611 Y95.174 E3.56133
G1 X126.863 Y95.461 E3.56895
G1 X127.333 Y96.025 E3.5836
G1 X127.559 Y96.311 E3.59088
G1 X127.995 Y96.89 E3.60534
G1 X128.204 Y97.182 E3.61251
G1 X128.607 Y97.775 E3.62682
G1 X128.804 Y98.079 E3.63404
G1 X129.172 Y98.682 E3.64814
G1 X129.335 Y98.963 E3.65462
G1 X129.672 Y99.574 E3.66855
G1 X129.832 Y99.882 E3.67548
G1 X130.135 Y100.498 E3.68918
G1 X130.284 Y100.82 E3.69626
G1 X130.552 Y101.438 E3.7097
G1 X130.672 Y101.732 E3.71604
G1 X130.909 Y102.35 E3.72924
G1 X131.024 Y102.67 E3.73603
G1 X131.233 Y103.3 E3.74928
G1 X131.328 Y103.612 E3.75578
G1 X131.512 Y104.261 E3.76925
G1 X131.599 Y104.596 E3.77615
G1 X131.755 Y105.264 E3.78984
G1 X131.825 Y105.596 E3.79661
G1 X131.952 Y106.28 E3.8105
G1 X132.008 Y106.627 E3.81751
G1 X132.104 Y107.328 E3.83163
G1 X132.143 Y107.681 E3.83872
G1 X132.206 Y108.394 E3.853
G1 X132.229 Y108.75 E3.86012
G1 X132.258 Y109.476 E3.87462
G1 X132.264 Y109.832 E3.88173
G1 X132.258 Y110.565 E3.89636
G1 X132.245 Y110.942 E3.90388
G1 X132.201 Y111.684 E3.91872
G1 X132.169 Y112.057 E3.92619
G1 X132.087 Y112.801 E3.94113
G1 X132.039 Y113.16 E3.94835
G1 X131.92 Y113.903 E3.96337
G1 X131.848 Y114.287 E3.97117
G1 X131.688 Y115.032 E3.98637
G1 X131.604 Y115.382 E3.99356
G1 X131.408 Y116.118 E4.00876
G1 X131.294 Y116.502 E4.01675
G1 X131.057 Y117.231 E4.03205
G1 X130.935 Y117.578 E4.03939
G1 X130.661 Y118.297 E4.05474
G1 X130.513 Y118.656 E4.06249
G1 X130.202 Y119.359 E4.07783
G1 X130.04 Y119.701 E4.08538
G1 X129.693 Y120.388 E4.10074
G1 X129.503 Y120.741 E4.10874
G1 X129.12 Y121.407 E4.12407
G1 X128.93 Y121.72 E4.13138
G1 X128.516 Y122.364 E4.14666
G1 X128.301 Y122.679 E4.15427
G1 X127.855 Y123.3 E4.16953
G1 X127.624 Y123.605 E4.17716
G1 X127.149 Y124.199 E4.19234
G1 X126.917 Y124.475 E4.19954
G1 X126.419 Y125.039 E4.21455
G1 X126.144 Y125.334 E4.2226
G1 X125.618 Y125.868 E4.23756
G1 X125.37 Y126.108 E4.24445
G1 X124.826 Y126.611 E4.25923
G1 X124.539 Y126.863 E4.26685
G1 X123.975 Y127.333 E4.2815
G1 X123.689 Y127.559 E4.28878
G1 X123.11 Y127.995 E4.30324
G1 X122.818 Y128.204 E4.31041
G1 X122.225 Y128.607 E4.32472
G1 X121.921 Y128.804 E4.33195
G1 X121.318 Y129.172 E4.34604
G1 X121.037 Y129.335 E4.35253
G1 X120.426 Y129.672 E4.36645
G1 X120.118 Y129.832 E4.37338
G1 X119.502 Y130.135 E4.38708
G1 X119.18 Y130.284 E4.39416
G1 X118.562 Y130.552 E4.4076
G1 X118.268 Y130.672 E4.41394
G1 X117.65 Y130.909 E4.42715
G1 X117.33 Y131.024 E4.43393
G1 X116.7 Y131.233 E4.44718
G1 X116.386 Y131.329 E4.45373
G1 X115.736 Y131.513 E4.46721
G1 X115.405 Y131.599 E4.47404
G1 X114.738 Y131.755 E4.48771
G1 X114.404 Y131.825 E4.49452
G1 X113.72 Y131.952 E4.5084
G1 X113.373 Y132.008 E4.51541
G1 X112.672 Y132.104 E4.52953
G1 X112.318 Y132.143 E4.53664
G1 X111.603 Y132.206 E4.55096
G1 X111.249 Y132.229 E4.55804
G1 X110.525 Y132.258 E4.5725
G1 X110.168 Y132.264 E4.57963
G1 X109.435 Y132.258 E4.59426
G1 X109.058 Y132.245 E4.60178
G1 X108.316 Y132.201 E4.61662
G1 X107.943 Y132.169 E4.62409
G1 X107.199 Y132.087 E4.63903
G1 X106.84 Y132.039 E4.64625
G1 X106.097 Y131.92 E4.66127
G1 X105.713 Y131.848 E4.66907
G1 X104.968 Y131.688 E4.68427
G1 X104.613 Y131.603 E4.69156
G1 X103.875 Y131.406 E4.7068
G1 X103.499 Y131.294 E4.71463
G1 X102.772 Y131.058 E4.72988
G1 X102.422 Y130.935 E4.73729
G1 X101.703 Y130.661 E4.75264
G1 X101.344 Y130.513 E4.76039
G1 X100.641 Y130.202 E4.77573
G1 X100.295 Y130.038 E4.78337
G1 X99.607 Y129.69 E4.79876
G1 X99.261 Y129.504 E4.8066
G1 X98.596 Y129.122 E4.8219
G1 X98.28 Y128.93 E4.82928
G1 X97.636 Y128.516 E4.84456
G1 X97.321 Y128.301 E4.85217
G1 X96.7 Y127.855 E4.86743
G1 X96.395 Y127.624 E4.87506
G1 X95.801 Y127.149 E4.89024
G1 X95.524 Y126.916 E4.89747
G1 X94.958 Y126.416 E4.91254
G1 X94.664 Y126.142 E4.92056
G1 X94.132 Y125.618 E4.93546
G1 X93.892 Y125.37 E4.94235
G1 X93.388 Y124.825 E4.95716
G1 X93.135 Y124.537 E4.96481
G1 X92.666 Y123.974 E4.97943
G1 X92.441 Y123.689 E4.98668
G1 X92.005 Y123.11 E5.00114
G1 X91.796 Y122.818 E5.00831
G1 X91.393 Y122.225 E5.02262
G1 X91.198 Y121.924 E5.02977
G1 X90.829 Y121.32 E5.0439
G1 X90.662 Y121.032 E5.05054
G1 X90.326 Y120.422 E5.06444
G1 X90.168 Y120.118 E5.07128
G1 X89.865 Y119.502 E5.08498
G1 X89.716 Y119.18 E5.09206
G1 X89.448 Y118.562 E5.1055
G1 X89.329 Y118.27 E5.11179
G1 X89.091 Y117.65 E5.12505
G1 X88.974 Y117.325 E5.13194
G1 X88.766 Y116.697 E5.14514
G1 X88.671 Y116.386 E5.15163
G1 X88.487 Y115.736 E5.16511
G1 X88.401 Y115.405 E5.17194
G1 X88.245 Y114.738 E5.18561
G1 X88.175 Y114.404 E5.19242
G1 X88.048 Y113.72 E5.2063
G1 X87.992 Y113.373 E5.21331
G1 X87.896 Y112.672 E5.22743
G1 X87.857 Y112.318 E5.23454
G1 X87.794 Y111.603 E5.24887
G1 X87.771 Y111.249 E5.25594
G1 X87.742 Y110.525 E5.2704
G1 X87.736 Y110.168 E5.27753
G1 X87.742 Y109.435 E5.29216
G1 X87.755 Y109.058 E5.29969
G1 X87.799 Y108.316 E5.31452
G1 X87.831 Y107.943 E5.32199
G1 X87.913 Y107.199 E5.33693
G1 X87.961 Y106.84 E5.34416
G1 X88.08 Y106.097 E5.35917
G1 X88.152 Y105.713 E5.36697
G1 X88.312 Y104.968 E5.38217
G1 X88.396 Y104.618 E5.38936
G1 X88.592 Y103.882 E5.40456
G1 X88.706 Y103.498 E5.41255
G1 X88.943 Y102.769 E5.42785
G1 X89.065 Y102.422 E5.43519
G1 X89.339 Y101.703 E5.45054
G1 X89.487 Y101.344 E5.45829
G1 X89.798 Y100.641 E5.47363
G1 X89.96 Y100.299 E5.48119
G1 X90.307 Y99.612 E5.49654
G1 X90.497 Y99.259 E5.50454
G1 X90.88 Y98.593 E5.51988
G1 X91.07 Y98.28 E5.52718
G1 X91.484 Y97.636 E5.54246
G1 X91.699 Y97.321 E5.55007
G1 X92.145 Y96.7 E5.56533
G1 X92.376 Y96.395 E5.57297
G1 X92.851 Y95.801 E5.58814
G1 X93.083 Y95.525 E5.59534
G1 X93.581 Y94.961 E5.61035
G1 X93.856 Y94.666 E5.6184
G1 X94.382 Y94.132 E5.63336
G0 F6000 X94.667 Y94.413
G1 F1200 X94.902 Y94.185 E5.63989
G1 X95.446 Y93.682 E5.65468
G1 X95.717 Y93.444 E5.66188
G1 X96.281 Y92.974 E5.67653
G1 X96.551 Y92.76 E5.6834
G1 X97.13 Y92.324 E5.69787
G1 X97.406 Y92.126 E5.70465
G1 X97.999 Y91.723 E5.71895
